; HEADER_BLOCK_START
; generated by GalaxySlicer 1.0.0-beta on 2023-09-11 at 11:30:24
; total layer number: 119
; HEADER_BLOCK_END

; THUMBNAIL_BLOCK_START
; THUMBNAIL_BLOCK_END

; external perimeters extrusion width = 0.42mm
; perimeters extrusion width = 0.45mm
; infill extrusion width = 0.42mm
; solid infill extrusion width = 0.42mm
; top infill extrusion width = 0.42mm
; first layer extrusion width = 0.43mm

; EXECUTABLE_BLOCK_START
M73 P0 R71
;TYPE:Custom
G90 ; use absolute coordinates
M83 ; extruder relative mode
M104 S110
M140 S60 ; set bed temp

M104 S170 ; set extruder temp for bed leveling
M109 S170 ; wait for temp

M302 S160 ; lower cold extrusion limit to 160C

G1 E-2 F2400 ; retraction

M106 S100
M190 S60 ; wait for bed temp
M107
M557 X58.8624:178.823 Y82.1562:102.156 S25
G29 S2
G29 S0
; prepare for purge
G0 X0 Y0 F2800
M104 S220
M109 S220
G92 E0
;
; Extrude purge line
;
G92 E0 ; reset extruder position
G1 E2 F2400 ; deretraction after the initial one before nozzle cleaning

G0 E7 X-5 Y-7 Z0.6 F500 ; purge
G0 X5 E4 F500 ; purge
G0 X15 E4 F650 ; purge
G0 X25 E4 F800 ; purge
G0 X38 Z0.3 F8000 ; wipe, move close to the bed
G0 X51 Z0.5 F8000 ; wipe, move quickly away from the bed
G92 E0
M221 S100 ; set flow to 100%
M593 P"mzv" F43.6
G90
G21
M83 ; use relative distances for extrusion
; Filament gcode
M572 D0 S0.035; Override pressure advance value
M106 S0 ; disable fan
;LAYER_CHANGE
;Z:0.25
;HEIGHT:0.25
;BEFORE_LAYER_CHANGE
;0.25
G92 E0

G1 E-.8 F1800 ; retract
;AFTER_LAYER_CHANGE
;0.25

;_SET_FAN_SPEED_CHANGING_LAYER
M204 P500 ; adjust acceleration
; printing object Arm.stl id:0 copy 0
M204 T500 ; adjust acceleration
G1 Z.4 F4500 ; normal lift Z
G1 X177.116 Y95.47 ; move to first perimeter point travel_to_xyz
G1 Z.4 ; move to first perimeter point travel_to_xyz
G1 Z.25 ; restore layer Z
G1 E.8 F1800 ;  ; unretract
;TYPE:Inner wall
;WIDTH:0.429999
G1 F2100
G1 X176.923 Y95.958 E.02013 ; perimeter
G1 X176.383 Y96.941 E.04299 ; perimeter
G1 X175.723 Y97.848 E.04299 ; perimeter
G1 X174.956 Y98.666 E.04299 ; perimeter
G1 X174.092 Y99.381 E.04299 ; perimeter
G1 X173.145 Y99.982 E.04299 ; perimeter
G1 X172.13 Y100.459 E.04299 ; perimeter
G1 X171.069 Y100.804 E.04275 ; perimeter
G1 X169.962 Y101.016 E.04324 ; perimeter
G1 X168.809 Y101.088 E.04427 ; perimeter
G1 X68.876 Y101.088 E3.83089 ; perimeter
G1 X67.723 Y101.016 E.04428 ; perimeter
G1 X66.622 Y100.806 E.04299 ; perimeter
G1 X65.555 Y100.459 E.04299 ; perimeter
G1 X64.54 Y99.982 E.04299 ; perimeter
G1 X63.594 Y99.381 E.04299 ; perimeter
G1 X62.73 Y98.666 E.04299 ; perimeter
G1 X61.966 Y97.853 E.04275 ; perimeter
M73 P0 R70
G1 X61.303 Y96.941 E.04324 ; perimeter
G1 X60.762 Y95.958 E.04298 ; perimeter
G1 X60.35 Y94.916 E.04299 ; perimeter
G1 X60.071 Y93.83 E.04299 ; perimeter
G1 X59.93 Y92.717 E.04299 ; perimeter
G1 X59.93 Y91.595 E.04299 ; perimeter
G1 X60.071 Y90.483 E.04299 ; perimeter
G1 X60.35 Y89.397 E.04299 ; perimeter
G1 X60.762 Y88.354 E.04299 ; perimeter
G1 X61.303 Y87.371 E.04299 ; perimeter
G1 X61.962 Y86.464 E.04299 ; perimeter
G1 X62.729 Y85.646 E.04299 ; perimeter
G1 X63.594 Y84.931 E.04299 ; perimeter
G1 X64.54 Y84.331 E.04299 ; perimeter
G1 X65.555 Y83.853 E.04299 ; perimeter
G1 X66.616 Y83.508 E.04275 ; perimeter
G1 X67.724 Y83.296 E.04324 ; perimeter
G1 X68.876 Y83.224 E.04427 ; perimeter
G1 X168.809 Y83.224 E3.83089 ; perimeter
G1 X169.956 Y83.296 E.04404 ; perimeter
G1 X171.064 Y83.507 E.04324 ; perimeter
G1 X172.13 Y83.853 E.04298 ; perimeter
G1 X173.145 Y84.331 E.04299 ; perimeter
G1 X174.092 Y84.931 E.04299 ; perimeter
G1 X174.956 Y85.646 E.04299 ; perimeter
G1 X175.724 Y86.464 E.04299 ; perimeter
G1 X176.383 Y87.371 E.04299 ; perimeter
G1 X176.923 Y88.354 E.04299 ; perimeter
G1 X177.336 Y89.397 E.04299 ; perimeter
G1 X177.613 Y90.477 E.04275 ; perimeter
G1 X177.755 Y91.596 E.04324 ; perimeter
G1 X177.755 Y92.717 E.04298 ; perimeter
G1 X177.615 Y93.83 E.04299 ; perimeter
G1 X177.336 Y94.916 E.04299 ; perimeter
G1 X177.131 Y95.433 E.02133 ; perimeter
G1 X177.536 Y95.432 F4500
G1 F2100
G1 X177.264 Y96.119 E.02832 ; perimeter
G1 X176.701 Y97.143 E.04481 ; perimeter
G1 X176.014 Y98.089 E.04481 ; perimeter
G1 X175.214 Y98.941 E.04481 ; perimeter
G1 X174.313 Y99.686 E.04481 ; perimeter
G1 X173.327 Y100.312 E.04481 ; perimeter
G1 X172.269 Y100.81 E.04481 ; perimeter
G1 X171.163 Y101.169 E.04456 ; perimeter
G1 X170.009 Y101.39 E.04506 ; perimeter
G1 X168.821 Y101.465 E.04563 ; perimeter
G1 X68.864 Y101.465 E3.8318 ; perimeter
G1 X67.676 Y101.39 E.04564 ; perimeter
G1 X66.528 Y101.171 E.04481 ; perimeter
G1 X65.416 Y100.81 E.04481 ; perimeter
G1 X64.359 Y100.312 E.04481 ; perimeter
G1 X63.372 Y99.686 E.0448 ; perimeter
G1 X62.471 Y98.941 E.04481 ; perimeter
G1 X61.676 Y98.093 E.04456 ; perimeter
G1 X60.984 Y97.143 E.04506 ; perimeter
G1 X60.421 Y96.119 E.0448 ; perimeter
G1 X59.991 Y95.032 E.04481 ; perimeter
G1 X59.7 Y93.9 E.04481 ; perimeter
G1 X59.554 Y92.741 E.04481 ; perimeter
G1 X59.554 Y91.572 E.04481 ; perimeter
G1 X59.7 Y90.412 E.04481 ; perimeter
G1 X59.991 Y89.28 E.04481 ; perimeter
G1 X60.421 Y88.193 E.04481 ; perimeter
G1 X60.984 Y87.169 E.04481 ; perimeter
G1 X61.671 Y86.223 E.04481 ; perimeter
G1 X62.471 Y85.371 E.04481 ; perimeter
G1 X63.372 Y84.626 E.04481 ; perimeter
G1 X64.359 Y84 E.0448 ; perimeter
G1 X65.416 Y83.502 E.04481 ; perimeter
G1 X66.522 Y83.143 E.04456 ; perimeter
G1 X67.676 Y82.922 E.04506 ; perimeter
G1 X68.864 Y82.848 E.04563 ; perimeter
G1 X168.821 Y82.848 E3.83179 ; perimeter
G1 X170.003 Y82.922 E.0454 ; perimeter
G1 X171.157 Y83.141 E.04506 ; perimeter
G1 X172.269 Y83.502 E.0448 ; perimeter
G1 X173.326 Y84 E.04481 ; perimeter
G1 X174.313 Y84.626 E.0448 ; perimeter
G1 X175.214 Y85.371 E.04481 ; perimeter
G1 X176.014 Y86.223 E.04481 ; perimeter
G1 X176.701 Y87.169 E.04481 ; perimeter
G1 X177.264 Y88.193 E.04481 ; perimeter
G1 X177.694 Y89.28 E.04481 ; perimeter
G1 X177.984 Y90.406 E.04456 ; perimeter
G1 X178.132 Y91.572 E.04506 ; perimeter
G1 X178.132 Y92.741 E.0448 ; perimeter
G1 X177.985 Y93.9 E.04481 ; perimeter
G1 X177.694 Y95.032 E.04481 ; perimeter
G1 X177.551 Y95.395 E.01495 ; perimeter
G1 X178.053 Y95.149 F4500
;TYPE:Outer wall
G1 F2100
G1 X177.605 Y96.28 E.04662 ; perimeter
G1 X177.019 Y97.345 E.04662 ; perimeter
G1 X176.305 Y98.329 E.04662 ; perimeter
G1 X175.472 Y99.216 E.04662 ; perimeter
G1 X174.535 Y99.991 E.04662 ; perimeter
G1 X173.508 Y100.643 E.04662 ; perimeter
G1 X172.408 Y101.16 E.04662 ; perimeter
G1 X171.257 Y101.534 E.04637 ; perimeter
G1 X170.056 Y101.764 E.04687 ; perimeter
G1 X168.833 Y101.841 E.047 ; perimeter
G1 X68.853 Y101.841 E3.8327 ; perimeter
G1 X67.629 Y101.764 E.047 ; perimeter
G1 X66.434 Y101.536 E.04662 ; perimeter
G1 X65.278 Y101.16 E.04662 ; perimeter
G1 X64.177 Y100.643 E.04662 ; perimeter
G1 X63.15 Y99.991 E.04662 ; perimeter
G1 X62.213 Y99.216 E.04662 ; perimeter
G1 X61.385 Y98.334 E.04637 ; perimeter
G1 X60.666 Y97.345 E.04687 ; perimeter
G1 X60.08 Y96.28 E.04662 ; perimeter
G1 X59.632 Y95.149 E.04662 ; perimeter
G1 X59.33 Y93.971 E.04662 ; perimeter
G1 X59.177 Y92.764 E.04662 ; perimeter
G1 X59.177 Y91.548 E.04662 ; perimeter
G1 X59.33 Y90.342 E.04662 ; perimeter
G1 X59.632 Y89.164 E.04662 ; perimeter
G1 X60.08 Y88.033 E.04662 ; perimeter
G1 X60.666 Y86.967 E.04662 ; perimeter
G1 X61.381 Y85.983 E.04662 ; perimeter
G1 X62.213 Y85.097 E.04662 ; perimeter
G1 X63.15 Y84.321 E.04662 ; perimeter
G1 X64.177 Y83.67 E.04662 ; perimeter
G1 X65.278 Y83.152 E.04662 ; perimeter
G1 X66.428 Y82.778 E.04637 ; perimeter
G1 X67.629 Y82.548 E.04687 ; perimeter
G1 X68.853 Y82.471 E.047 ; perimeter
G1 X168.833 Y82.471 E3.8327 ; perimeter
G1 X170.05 Y82.548 E.04675 ; perimeter
G1 X171.251 Y82.776 E.04687 ; perimeter
G1 X172.408 Y83.152 E.04662 ; perimeter
G1 X173.508 Y83.67 E.04662 ; perimeter
G1 X174.535 Y84.321 E.04662 ; perimeter
G1 X175.472 Y85.097 E.04662 ; perimeter
G1 X176.305 Y85.983 E.04662 ; perimeter
G1 X177.019 Y86.967 E.04662 ; perimeter
G1 X177.605 Y88.033 E.04662 ; perimeter
G1 X178.053 Y89.164 E.04662 ; perimeter
G1 X178.354 Y90.335 E.04637 ; perimeter
G1 X178.508 Y91.548 E.04687 ; perimeter
G1 X178.508 Y92.764 E.04662 ; perimeter
G1 X178.356 Y93.971 E.04662 ; perimeter
G1 X178.063 Y95.11 E.04509 ; perimeter
G1 E-.64 F1800 ; retract
;WIPE_START
G1 F2100
G1 X177.699 Y96.041 E-.16 ; wipe and retract
;WIPE_END
G1 Z.65 F4500 ; normal lift Z
G1 X66.233 Y91.29 Z.65 ; move to first perimeter point travel_to_xyz
G1 Z.25 ; restore layer Z
G1 E.8 F1800 ;  ; unretract
;TYPE:Inner wall
G1 F2100
G1 X66.305 Y91.089 E.00818 ; perimeter
G3 X66.762 Y90.332 I2.784 J1.163 E.03404 ; perimeter
G1 X67.334 Y89.844 E.0288 ; perimeter
G1 X67.585 Y89.697 E.01115 ; perimeter
G1 X68.092 Y89.498 E.02089 ; perimeter
G1 X68.366 Y89.435 E.01075 ; perimeter
G1 X68.909 Y89.395 E.02089 ; perimeter
G1 X69.189 Y89.416 E.01075 ; perimeter
G1 X69.72 Y89.537 E.02089 ; perimeter
G1 X69.981 Y89.639 E.01075 ; perimeter
G1 X70.453 Y89.912 E.02089 ; perimeter
G1 X70.672 Y90.087 E.01075 ; perimeter
G1 X71.043 Y90.486 E.02089 ; perimeter
G1 X71.201 Y90.718 E.01075 ; perimeter
G1 X71.437 Y91.209 E.02089 ; perimeter
G1 X71.52 Y91.477 E.01075 ; perimeter
G1 X71.601 Y92.016 E.02089 ; perimeter
G1 X71.601 Y92.296 E.01075 ; perimeter
G1 X71.52 Y92.835 E.02089 ; perimeter
G1 X71.437 Y93.103 E.01075 ; perimeter
G1 X71.201 Y93.594 E.02089 ; perimeter
G1 X71.043 Y93.826 E.01075 ; perimeter
G1 X70.672 Y94.226 E.02089 ; perimeter
G1 X70.453 Y94.4 E.01075 ; perimeter
G1 X69.981 Y94.673 E.02089 ; perimeter
G1 X69.72 Y94.775 E.01075 ; perimeter
G1 X69.189 Y94.897 E.02089 ; perimeter
G1 X68.909 Y94.918 E.01075 ; perimeter
G1 X68.36 Y94.876 E.02111 ; perimeter
G1 X68.092 Y94.814 E.01053 ; perimeter
G1 X67.585 Y94.615 E.02089 ; perimeter
G1 X67.334 Y94.469 E.01115 ; perimeter
G1 X66.916 Y94.135 E.02049 ; perimeter
G1 X66.725 Y93.93 E.01075 ; perimeter
G1 X66.418 Y93.479 E.02089 ; perimeter
G3 X66.103 Y92.551 I3.773 J-1.799 E.03767 ; perimeter
G1 X66.095 Y91.879 E.02576 ; perimeter
G3 X66.143 Y91.603 I2.994 J.373 E.01075 ; perimeter
G1 X66.222 Y91.329 E.01095 ; perimeter
G1 X66.489 Y91.813 F4500
G1 F2100
G1 X66.601 Y91.373 E.0174 ; perimeter
G3 X66.729 Y91.045 I3.478 J1.162 E.01352 ; perimeter
G1 X67.036 Y90.595 E.02089 ; perimeter
G1 X67.568 Y90.138 E.02688 ; perimeter
G1 X68.23 Y89.848 E.02768 ; perimeter
G1 X68.937 Y89.77 E.02729 ; perimeter
G1 X69.636 Y89.904 E.02729 ; perimeter
G1 X70.265 Y90.238 E.02729 ; perimeter
G1 X70.767 Y90.742 E.02729 ; perimeter
G1 X71.098 Y91.372 E.02729 ; perimeter
G1 X71.229 Y92.072 E.02729 ; perimeter
G1 X71.148 Y92.779 E.02728 ; perimeter
G1 X70.862 Y93.431 E.02729 ; perimeter
G1 X70.396 Y93.97 E.02729 ; perimeter
G1 X69.793 Y94.347 E.02729 ; perimeter
G1 X69.105 Y94.53 E.02729 ; perimeter
G1 X68.394 Y94.502 E.02729 ; perimeter
G1 X67.722 Y94.265 E.02729 ; perimeter
G1 X67.15 Y93.841 E.02729 ; perimeter
G1 X66.773 Y93.333 E.02426 ; perimeter
G1 X66.656 Y93.116 E.00946 ; perimeter
G1 X66.497 Y92.6 E.0207 ; perimeter
G1 X66.472 Y91.879 E.02764 ; perimeter
G1 X66.479 Y91.852 E.00108 ; perimeter
G1 X66.863 Y92.487 F4500
;TYPE:Outer wall
G1 F2100
G1 X66.848 Y92.433 E.00213 ; perimeter
G1 X66.848 Y91.879 E.02125 ; perimeter
G1 X67.016 Y91.307 E.02284 ; perimeter
G1 X67.347 Y90.807 E.02302 ; perimeter
G1 X67.803 Y90.432 E.02261 ; perimeter
G1 X68.367 Y90.199 E.02341 ; perimeter
G1 X68.965 Y90.145 E.02302 ; perimeter
G1 X69.552 Y90.271 E.02302 ; perimeter
G1 X70.077 Y90.564 E.02302 ; perimeter
G1 X70.491 Y90.998 E.02302 ; perimeter
G1 X70.759 Y91.536 E.02302 ; perimeter
G1 X70.857 Y92.128 E.02302 ; perimeter
G1 X70.776 Y92.723 E.02302 ; perimeter
G1 X70.523 Y93.268 E.02302 ; perimeter
G1 X70.12 Y93.714 E.02302 ; perimeter
G1 X69.605 Y94.021 E.02302 ; perimeter
G1 X69.021 Y94.163 E.02302 ; perimeter
G1 X68.422 Y94.126 E.02302 ; perimeter
G1 X67.86 Y93.915 E.02302 ; perimeter
G1 X67.385 Y93.547 E.02302 ; perimeter
G3 X66.962 Y92.828 I1.893 J-1.599 E.03213 ; perimeter
G1 X66.874 Y92.525 E.01208 ; perimeter
G1 E-.64 F1800 ; retract
;WIPE_START
G1 F2100
G1 X66.848 Y92.433 E-.0153 ; wipe and retract
G1 X66.848 Y91.879 E-.08868 ; wipe and retract
G1 X66.947 Y91.543 E-.05602 ; wipe and retract
;WIPE_END
G1 Z.65 F4500 ; normal lift Z
G1 X170.285 Y94.498 Z.65 ; move to first perimeter point travel_to_xyz
G1 Z.25 ; restore layer Z
G1 E.8 F1800 ;  ; unretract
;TYPE:Inner wall
G1 F2100
G1 X169.976 Y94.663 E.0134 ; perimeter
G3 X169.118 Y94.91 I-1.315 J-2.953 E.03434 ; perimeter
G1 X168.366 Y94.877 E.02889 ; perimeter
G1 X168.092 Y94.814 E.01075 ; perimeter
G1 X167.585 Y94.615 E.02089 ; perimeter
G1 X167.342 Y94.475 E.01075 ; perimeter
G1 X166.916 Y94.135 E.02089 ; perimeter
G1 X166.725 Y93.93 E.01075 ; perimeter
G1 X166.418 Y93.479 E.02089 ; perimeter
G1 X166.296 Y93.227 E.01075 ; perimeter
G1 X166.137 Y92.711 E.02071 ; perimeter
G1 X166.095 Y92.433 E.01075 ; perimeter
G1 X166.095 Y91.879 E.02125 ; perimeter
G1 X166.137 Y91.602 E.01075 ; perimeter
G1 X166.296 Y91.086 E.02071 ; perimeter
G1 X166.418 Y90.833 E.01075 ; perimeter
G1 X166.725 Y90.383 E.02089 ; perimeter
G1 X166.916 Y90.177 E.01075 ; perimeter
G1 X167.342 Y89.837 E.02089 ; perimeter
G1 X167.585 Y89.697 E.01075 ; perimeter
G1 X168.092 Y89.498 E.02089 ; perimeter
G1 X168.366 Y89.435 E.01075 ; perimeter
G1 X168.909 Y89.395 E.02089 ; perimeter
G1 X169.189 Y89.416 E.01075 ; perimeter
G1 X169.72 Y89.537 E.02089 ; perimeter
G3 X170.582 Y90.002 I-1.475 J3.769 E.03765 ; perimeter
G1 X171.043 Y90.486 E.02563 ; perimeter
G3 X171.601 Y92.016 I-2.295 J1.705 E.0633 ; perimeter
G1 X171.601 Y92.296 E.01075 ; perimeter
G1 X171.52 Y92.835 E.02089 ; perimeter
G1 X171.437 Y93.103 E.01075 ; perimeter
G1 X171.201 Y93.594 E.02089 ; perimeter
G1 X171.043 Y93.826 E.01075 ; perimeter
G1 X170.668 Y94.23 E.02111 ; perimeter
G1 X170.453 Y94.4 E.01054 ; perimeter
G1 X170.319 Y94.478 E.00592 ; perimeter
G1 X170.381 Y93.979 F4500
G1 F2100
G1 X169.923 Y94.272 E.02082 ; perimeter
G3 X169.636 Y94.408 I-1.672 J-3.14 E.01218 ; perimeter
G1 X169.105 Y94.53 E.02089 ; perimeter
G1 X168.394 Y94.502 E.02729 ; perimeter
G1 X167.722 Y94.265 E.02729 ; perimeter
G1 X167.15 Y93.841 E.02729 ; perimeter
G1 X166.729 Y93.267 E.02729 ; perimeter
G1 X166.497 Y92.6 E.0271 ; perimeter
G1 X166.472 Y91.879 E.02764 ; perimeter
G1 X166.656 Y91.197 E.0271 ; perimeter
G1 X167.036 Y90.595 E.02729 ; perimeter
G1 X167.577 Y90.131 E.02729 ; perimeter
G1 X168.23 Y89.848 E.02729 ; perimeter
G1 X168.937 Y89.77 E.02729 ; perimeter
G1 X169.525 Y89.879 E.02292 ; perimeter
G1 X169.793 Y89.965 E.01079 ; perimeter
G1 X170.265 Y90.238 E.02089 ; perimeter
G1 X170.767 Y90.742 E.02729 ; perimeter
G1 X171.098 Y91.372 E.02729 ; perimeter
G1 X171.229 Y92.072 E.02729 ; perimeter
G1 X171.155 Y92.734 E.02554 ; perimeter
G1 X171.098 Y92.94 E.00818 ; perimeter
G1 X170.862 Y93.431 E.02089 ; perimeter
G1 X170.41 Y93.953 E.02646 ; perimeter
G1 X170.529 Y93.253 F4500
;TYPE:Outer wall
G1 F2100
G1 X170.523 Y93.268 E.00062 ; perimeter
G1 X170.121 Y93.714 E.02302 ; perimeter
G1 X169.605 Y94.021 E.02302 ; perimeter
G1 X169.021 Y94.163 E.02302 ; perimeter
G1 X168.422 Y94.126 E.02302 ; perimeter
G1 X167.86 Y93.915 E.02302 ; perimeter
G1 X167.385 Y93.547 E.02302 ; perimeter
G1 X167.04 Y93.055 E.02302 ; perimeter
G1 X166.856 Y92.489 E.02283 ; perimeter
G1 X166.848 Y91.879 E.02337 ; perimeter
G1 X167.016 Y91.307 E.02283 ; perimeter
G1 X167.347 Y90.807 E.02302 ; perimeter
G1 X167.811 Y90.426 E.02302 ; perimeter
G1 X168.367 Y90.199 E.02302 ; perimeter
G1 X168.965 Y90.145 E.02302 ; perimeter
G1 X169.552 Y90.271 E.02302 ; perimeter
G1 X170.077 Y90.564 E.02302 ; perimeter
G1 X170.491 Y90.998 E.02302 ; perimeter
G1 X170.759 Y91.536 E.02302 ; perimeter
G1 X170.857 Y92.128 E.02302 ; perimeter
G1 X170.783 Y92.678 E.02127 ; perimeter
G1 X170.545 Y93.216 E.02255 ; perimeter
G1 E-.64 F1800 ; retract
;WIPE_START
G1 F2100
G1 X170.523 Y93.268 E-.00899 ; wipe and retract
G1 X170.121 Y93.714 E-.09608 ; wipe and retract
G1 X169.826 Y93.889 E-.05493 ; wipe and retract
;WIPE_END
G1 Z.65 F4500 ; normal lift Z
