; generated by PrusaSlicer 2.6.0+MacOS-arm64 on 2023-08-11 at 09:57:05 UTC


;
;

;
;
; 

; external perimeters extrusion width = 0.50mm
; perimeters extrusion width = 0.50mm
; infill extrusion width = 0.50mm
; solid infill extrusion width = 0.50mm
; top infill extrusion width = 0.45mm
; first layer extrusion width = 0.50mm

M73 P0 R82
;TYPE:Custom
M83 ; use relative distances for extrusion
G90 ; use absolute coordinates
M140 S55 ; set final bed temp
M104 S180 ; set temporary nozzle temp to prevent oozing during homing
M557 X91.2:133.8 Y91.2:133.8 S25
G29 S2
G29 S0
M104 S215 ; set final nozzle temp
M190 S55 ; wait for bed temp to stabilize
M109 S215 ; wait for nozzle temp to stabilize
;M98 P"sys/print_area_mesh.g" A91.2 B133.8 C91.2 D133.8



M593 P"mzv" F59
M572 D0 S0.06
;M572 D0 S0.11
;M207 S0.80 R0.0 F1620 T900 Z0.25 
;M592 D0 A0.018 B-0.0019 L0.2
;M98 P"0:/sys/primeLine.g"
;Prime Line
G1 Y10
M400
G1 Z0.6 F720
G92 E0
G1 X50  Y10 E9 F1000 ; intro line
G1 Y11
M400
G1 X100 Y11 E12.5 F1500 ; intro line
G92 E0
;M566 X1200.00 Y1200.00 Z10.00 E300 P1
;; set maximum speeds (mm/min)                                              
;M203 X18000.00 Y18000.00 Z600.00 E7200.00
;; set accelerations (mm/s^2)                                                                               
;M201 X2500.00 Y2500.00 Z200.00 E10000
;M204 P500 T2000

M566 X400.00 Y400.00 Z6.00 E120.00 P1          ; set maximum instantaneous speed changes (mm/min) // same as M205 but with mm/min
M203 X10800.00 Y10800.00 Z1000.00 E3600.00     ; set maximum speeds (mm/min)
M201 X3000.00 Y3000.00 Z100.00 E3600.00        ; set accelerations (mm/s^2)

G21 ; set units to millimeters
G90 ; use absolute coordinates
M83 ; use relative distances for extrusion
M107
;LAYER_CHANGE
;Z:0.2
;HEIGHT:0.2
;BEFORE_LAYER_CHANGE
;0.2
G92 E0

G1 Z.2 F720
;AFTER_LAYER_CHANGE
;0.2

; printing object Box-1x1.stl id:0 copy 0
G1 E-.8 F2400
G1 Z.6 F720
G1 X93.001 Y132.67 F12000
G1 Z.2 F720
G1 E.8 F1800
M201 X600 Y600
;TYPE:Perimeter
;WIDTH:0.499999
G1 F1200
G1 X92.604 Y132.399 E.01827
G1 X92.33 Y131.999 E.01843
G1 X92.184 Y131.581 E.01683
G1 X92.107 Y130.94 E.02454
G1 X92.107 Y94.139 E1.39867
G1 X92.184 Y93.419 E.02752
G1 X92.33 Y93.001 E.01683
G1 X92.601 Y92.604 E.01827
G1 X93.001 Y92.33 E.01843
G1 X93.419 Y92.184 E.01683
G1 X94.06 Y92.107 E.02454
G1 X131.06 Y92.118 E1.40623
G1 X131.49 Y92.165 E.01644
G1 X131.993 Y92.317 E.01997
G1 X132.391 Y92.609 E.01876
G1 X132.598 Y92.873 E.01275
G1 X132.811 Y93.358 E.02013
G1 X132.882 Y93.94 E.02228
G1 X132.893 Y130.861 E1.40323
G1 X132.816 Y131.581 E.02752
G1 X132.67 Y131.999 E.01683
G1 X132.399 Y132.396 E.01827
G1 X131.999 Y132.67 E.01843
G1 X131.581 Y132.816 E.01683
G1 X130.94 Y132.893 E.02454
G1 X94.139 Y132.893 E1.39867
G1 X93.419 Y132.816 E.02752
G1 X93.057 Y132.689 E.01458
M201 X1000 Y1000
G1 X92.614 Y132.989 F12000
M201 X600 Y600
;TYPE:External perimeter
G1 F1200
G1 X92.279 Y132.724 E.01623
G1 X92.012 Y132.388 E.01631
G1 X91.817 Y131.99 E.01684
G1 X91.693 Y131.51 E.01884
G1 X91.65 Y130.958 E.02104
G1 X91.65 Y94.139 E1.39935
G1 X91.678 Y93.682 E.0174
G1 X91.817 Y93.01 E.02608
G1 X92.012 Y92.611 E.01688
G1 X92.276 Y92.279 E.01612
G1 X92.612 Y92.012 E.01631
G1 X93.01 Y91.817 E.01684
G1 X93.49 Y91.693 E.01884
G1 X94.042 Y91.65 E.02104
G1 X131.06 Y91.661 E1.40692
G1 X131.426 Y91.691 E.01396
G1 X131.943 Y91.813 E.02019
G1 X132.37 Y92.015 E.01795
G1 X132.714 Y92.286 E.01664
G1 X132.972 Y92.609 E.01571
G1 X133.166 Y93 E.01659
G1 X133.287 Y93.436 E.0172
G1 X133.339 Y93.94 E.01926
G1 X133.35 Y130.861 E1.40323
G1 X133.322 Y131.318 E.0174
G1 X133.183 Y131.99 E.02608
G1 X132.988 Y132.389 E.01688
G1 X132.724 Y132.721 E.01612
G1 X132.388 Y132.988 E.01631
G1 X131.99 Y133.183 E.01684
G1 X131.51 Y133.307 E.01884
G1 X130.958 Y133.35 E.02104
G1 X94.139 Y133.35 E1.39935
G1 X93.682 Y133.322 E.0174
G1 X93.01 Y133.183 E.02608
G1 X92.668 Y133.016 E.01447
M201 X1000 Y1000
G1 X92.623 Y132.59 F12000
G1 E-.8 F2400
G1 Z.6 F720
G1 X131.589 Y92.389 F12000
G1 Z.2 F720
G1 E.8 F1800
M201 X600 Y600
;TYPE:Solid infill
;WIDTH:0.501138
G1 F1200
G1 X132.18 Y92.98 E.03184
G1 X132.311 Y93.189 E.0094
G1 X132.411 Y93.463 E.01111
G1 X132.47 Y93.918 E.01748
G1 X131.082 Y92.53 E.07479
G1 X130.433 Y92.53 E.02473
G1 X132.47 Y94.567 E.10976
G1 X132.471 Y95.215 E.02469
G1 X129.785 Y92.529 E.14473
G1 X129.137 Y92.529 E.02469
G1 X132.471 Y95.863 E.17965
G1 X132.471 Y96.511 E.02469
G1 X128.489 Y92.529 E.21456
G1 X127.84 Y92.529 E.02473
G1 X132.471 Y97.16 E.24953
G1 X132.471 Y97.808 E.02469
G1 X127.192 Y92.529 E.28445
G1 X126.544 Y92.528 E.02469
G1 X132.472 Y98.456 E.31942
G1 X132.472 Y99.104 E.02469
G1 X125.896 Y92.528 E.35433
G1 X125.248 Y92.528 E.02469
G1 X132.472 Y99.752 E.38925
G1 X132.472 Y100.401 E.02473
G1 X124.599 Y92.528 E.42422
G1 X123.951 Y92.528 E.02469
G1 X132.472 Y101.049 E.45914
G1 X132.473 Y101.697 E.02469
G1 X123.303 Y92.527 E.49411
G1 X122.655 Y92.527 E.02469
G1 X132.473 Y102.345 E.52902
G1 X132.473 Y102.993 E.02469
G1 X122.007 Y92.527 E.56394
G1 X121.358 Y92.527 E.02473
G1 X132.473 Y103.642 E.59891
G1 X132.473 Y104.29 E.02469
G1 X120.71 Y92.527 E.63382
G1 X120.062 Y92.526 E.02469
G1 X132.474 Y104.938 E.66879
G1 X132.474 Y105.586 E.02469
G1 X119.414 Y92.526 E.70371
G1 X118.765 Y92.526 E.02473
G1 X132.474 Y106.235 E.73868
G1 X132.474 Y106.883 E.02469
G1 X118.117 Y92.526 E.7736
G1 X117.469 Y92.526 E.02469
G1 X132.474 Y107.531 E.80851
G1 X132.475 Y108.179 E.02469
G1 X116.821 Y92.525 E.84348
G1 X116.173 Y92.525 E.02469
G1 X132.475 Y108.827 E.8784
G1 X132.475 Y109.476 E.02473
G1 X115.524 Y92.525 E.91337
G1 X114.876 Y92.525 E.02469
G1 X132.475 Y110.124 E.94829
G1 X132.475 Y110.772 E.02469
G1 X114.228 Y92.525 E.9832
G1 X113.58 Y92.524 E.02469
G1 X132.476 Y111.42 E1.01817
G1 X132.476 Y112.069 E.02473
G1 X112.931 Y92.524 E1.05314
G1 X112.283 Y92.524 E.02469
G1 X132.476 Y112.717 E1.08806
G1 X132.476 Y113.365 E.02469
G1 X111.635 Y92.524 E1.12297
G1 X110.987 Y92.524 E.02469
G1 X132.476 Y114.013 E1.15789
M73 P1 R82
G1 X132.477 Y114.661 E.02469
G1 X110.339 Y92.523 E1.19286
G1 X109.69 Y92.523 E.02473
G1 X132.477 Y115.31 E1.22783
G1 X132.477 Y115.958 E.02469
G1 X109.042 Y92.523 E1.26275
M73 P1 R81
G1 X108.394 Y92.523 E.02469
G1 X132.477 Y116.606 E1.29766
G1 X132.477 Y117.254 E.02469
G1 X107.746 Y92.523 E1.33258
G1 X107.098 Y92.522 E.02469
G1 X132.478 Y117.902 E1.36755
G1 X132.478 Y118.551 E.02473
G1 X106.449 Y92.522 E1.40252
G1 X105.801 Y92.522 E.02469
G1 X132.478 Y119.199 E1.43743
G1 X132.478 Y119.847 E.02469
G1 X105.153 Y92.522 E1.47235
G1 X104.505 Y92.522 E.02469
G1 X132.478 Y120.495 E1.50727
G1 X132.479 Y121.144 E.02473
G1 X103.856 Y92.521 E1.54229
G1 X103.208 Y92.521 E.02469
G1 X132.479 Y121.792 E1.57721
G1 X132.479 Y122.44 E.02469
G1 X102.56 Y92.521 E1.61212
G1 X101.912 Y92.521 E.02469
G1 X132.479 Y123.088 E1.64704
G1 X132.479 Y123.736 E.02469
G1 X101.264 Y92.521 E1.68196
G1 X100.615 Y92.52 E.02473
G1 X132.48 Y124.385 E1.71698
G1 X132.48 Y125.033 E.02469
G1 X99.967 Y92.52 E1.7519
G1 X99.319 Y92.52 E.02469
G1 X132.48 Y125.681 E1.78681
G1 X132.48 Y126.329 E.02469
G1 X98.671 Y92.52 E1.82173
G1 X98.022 Y92.52 E.02473
G1 X132.48 Y126.978 E1.8567
G1 X132.481 Y127.626 E.02469
G1 X97.374 Y92.519 E1.89167
G1 X96.726 Y92.519 E.02469
G1 X132.481 Y128.274 E1.92658
G1 X132.481 Y128.922 E.02469
G1 X96.078 Y92.519 E1.9615
M73 P2 R81
G1 X95.43 Y92.519 E.02469
G1 X132.481 Y129.57 E1.99642
G1 X132.481 Y130.219 E.02473
G1 X94.781 Y92.519 E2.03139
G1 X94.134 Y92.519 E.02465
G1 X132.482 Y130.867 E2.0663
G1 X132.447 Y131.366 E.01906
G1 X132.424 Y131.457 E.00358
G1 X93.543 Y92.576 E2.09502
G1 X93.312 Y92.636 E.00909
G1 X93.073 Y92.754 E.01016
G1 X132.246 Y131.927 E2.11076
G1 X132.106 Y132.103 E.00857
G1 X131.921 Y132.25 E.009
G1 X92.75 Y93.079 E2.11065
M73 P2 R80
G1 X92.636 Y93.312 E.00988
G1 X92.574 Y93.552 E.00944
G1 X131.448 Y132.426 E2.09464
G1 X131.366 Y132.447 E.00323
G1 X130.856 Y132.482 E.01948
G1 X92.518 Y94.144 E2.06576
G1 X92.518 Y94.792 E.02469
G1 X130.208 Y132.482 E2.03085
G1 X129.56 Y132.482 E.02469
G1 X92.518 Y95.44 E1.99593
G1 X92.518 Y96.088 E.02469
G1 X128.912 Y132.482 E1.96102
G1 X128.264 Y132.482 E.02469
G1 X92.518 Y96.736 E1.9261
G1 X92.518 Y97.384 E.02469
G1 X127.616 Y132.482 E1.89118
G1 X126.968 Y132.482 E.02469
G1 X92.518 Y98.032 E1.85627
G1 X92.518 Y98.68 E.02469
G1 X126.32 Y132.482 E1.82135
G1 X125.672 Y132.482 E.02469
G1 X92.518 Y99.328 E1.78643
G1 X92.518 Y99.976 E.02469
G1 X125.024 Y132.482 E1.75152
G1 X124.376 Y132.482 E.02469
G1 X92.518 Y100.624 E1.7166
G1 X92.518 Y101.272 E.02469
G1 X123.728 Y132.482 E1.68169
M73 P3 R80
G1 X123.08 Y132.482 E.02469
G1 X92.518 Y101.92 E1.64677
G1 X92.518 Y102.568 E.02469
G1 X122.432 Y132.482 E1.61185
G1 X121.784 Y132.482 E.02469
G1 X92.518 Y103.216 E1.57694
G1 X92.518 Y103.864 E.02469
G1 X121.136 Y132.482 E1.54202
G1 X120.488 Y132.482 E.02469
G1 X92.518 Y104.512 E1.50711
G1 X92.518 Y105.16 E.02469
G1 X119.84 Y132.482 E1.47219
G1 X119.192 Y132.482 E.02469
G1 X92.518 Y105.808 E1.43727
G1 X92.518 Y106.456 E.02469
G1 X118.544 Y132.482 E1.40236
G1 X117.896 Y132.482 E.02469
G1 X92.518 Y107.104 E1.36744
G1 X92.518 Y107.752 E.02469
G1 X117.248 Y132.482 E1.33252
G1 X116.6 Y132.482 E.02469
G1 X92.518 Y108.4 E1.29761
G1 X92.518 Y109.048 E.02469
G1 X115.952 Y132.482 E1.26269
G1 X115.304 Y132.482 E.02469
G1 X92.518 Y109.696 E1.22778
G1 X92.518 Y110.344 E.02469
G1 X114.656 Y132.482 E1.19286
M73 P3 R79
G1 X114.008 Y132.482 E.02469
G1 X92.518 Y110.992 E1.15794
G1 X92.518 Y111.64 E.02469
G1 X113.36 Y132.482 E1.12303
G1 X112.712 Y132.482 E.02469
G1 X92.518 Y112.288 E1.08811
G1 X92.518 Y112.936 E.02469
G1 X112.064 Y132.482 E1.0532
G1 X111.416 Y132.482 E.02469
G1 X92.518 Y113.584 E1.01828
G1 X92.518 Y114.232 E.02469
G1 X110.768 Y132.482 E.98336
G1 X110.12 Y132.482 E.02469
G1 X92.518 Y114.88 E.94845
G1 X92.518 Y115.528 E.02469
G1 X109.472 Y132.482 E.91353
G1 X108.824 Y132.482 E.02469
G1 X92.518 Y116.176 E.87861
G1 X92.518 Y116.824 E.02469
G1 X108.176 Y132.482 E.8437
G1 X107.528 Y132.482 E.02469
G1 X92.518 Y117.472 E.80878
G1 X92.518 Y118.121 E.02473
G1 X106.879 Y132.482 E.77381
G1 X106.231 Y132.482 E.02469
G1 X92.518 Y118.769 E.7389
G1 X92.518 Y119.417 E.02469
G1 X105.583 Y132.482 E.70398
G1 X104.935 Y132.482 E.02469
G1 X92.518 Y120.065 E.66906
G1 X92.518 Y120.713 E.02469
G1 X104.287 Y132.482 E.63415
G1 X103.639 Y132.482 E.02469
G1 X92.518 Y121.361 E.59923
G1 X92.518 Y122.009 E.02469
G1 X102.991 Y132.482 E.56432
G1 X102.343 Y132.482 E.02469
G1 X92.518 Y122.657 E.5294
G1 X92.518 Y123.305 E.02469
G1 X101.695 Y132.482 E.49448
M73 P4 R79
G1 X101.047 Y132.482 E.02469
G1 X92.518 Y123.953 E.45957
G1 X92.518 Y124.601 E.02469
G1 X100.399 Y132.482 E.42465
G1 X99.751 Y132.482 E.02469
G1 X92.518 Y125.249 E.38974
G1 X92.518 Y125.897 E.02469
G1 X99.103 Y132.482 E.35482
G1 X98.455 Y132.482 E.02469
G1 X92.518 Y126.545 E.3199
G1 X92.518 Y127.193 E.02469
G1 X97.807 Y132.482 E.28499
G1 X97.159 Y132.482 E.02469
G1 X92.518 Y127.841 E.25007
G1 X92.518 Y128.489 E.02469
G1 X96.511 Y132.482 E.21515
G1 X95.863 Y132.482 E.02469
G1 X92.518 Y129.137 E.18024
G1 X92.518 Y129.785 E.02469
G1 X95.215 Y132.482 E.14532
G1 X94.567 Y132.482 E.02469
G1 X92.518 Y130.433 E.11041
G1 X92.532 Y131.094 E.02519
G1 X94.125 Y132.687 E.08584
M201 X1000 Y1000
; stop printing object Box-1x1.stl id:0 copy 0
M106 S255
;LAYER_CHANGE
;Z:0.5
;HEIGHT:0.3
;BEFORE_LAYER_CHANGE
;0.5
G92 E0

G1 Z.5 F720
;AFTER_LAYER_CHANGE
;0.5

M104 S205 ; set temperature
; printing object Box-1x1.stl id:0 copy 0
G1 X92.644 Y133.114 F12000
M201 X1100 Y1100
;TYPE:Perimeter
;WIDTH:0.5
G1 F4200
G1 X92.214 Y132.821 E.02827
G1 X91.959 Y132.505 E.02206
G1 X91.794 Y132.168 E.02039
G1 X91.674 Y131.702 E.02615
G1 X91.636 Y131.195 E.02762
G1 X91.636 Y93.89 E2.02689
G1 X91.661 Y93.471 E.02281
G1 X91.75 Y93.004 E.02583
G1 X91.886 Y92.644 E.02091
G1 X92.179 Y92.214 E.02827
G1 X92.495 Y91.959 E.02206
G1 X92.832 Y91.794 E.02039
G1 X93.298 Y91.674 E.02615
G1 X93.804 Y91.636 E.02757
G1 X131.281 Y91.646 E2.03623
G1 X131.864 Y91.712 E.03188
G1 X132.242 Y91.831 E.02153
G1 X132.643 Y92.067 E.02528
G1 X132.9 Y92.32 E.01959
G1 X133.131 Y92.68 E.02324
G1 X133.319 Y93.254 E.03282
G1 X133.354 Y93.667 E.02252
G1 X133.364 Y131.109 E2.03433
G1 X133.339 Y131.529 E.02286
G1 X133.25 Y131.996 E.02583
G1 X133.114 Y132.356 E.02091
G1 X132.821 Y132.786 E.02827
G1 X132.505 Y133.041 E.02206
G1 X132.168 Y133.206 E.02039
G1 X131.702 Y133.326 E.02615
G1 X131.195 Y133.364 E.02762
G1 X93.89 Y133.364 E2.02689
G1 X93.471 Y133.339 E.02281
G1 X93.004 Y133.25 E.02583
G1 X92.701 Y133.135 E.01761
M201 X1000 Y1000
G1 X92.359 Y133.459 F12000
;TYPE:External perimeter
G1 F966.504

G1 X92.258 Y133.41 E.0061
G1 F954.733
G1 X91.906 Y133.133 E.02434
G1 X91.589 Y132.741 E.02739
G1 F967.033
G1 X91.384 Y132.319 E.02549
G1 F1014.659
G1 X91.243 Y131.774 E.03059
G1 F1094.547
G1 X91.2 Y131.212 E.03062
G1 F1177.782
G1 X91.2 Y130.453 E.04124
G1 F1199.998
G1 X91.2 Y94.547 E1.95087
G1 F1177.784
G1 X91.2 Y93.788 E.04124
G1 F1094.547
G1 X91.243 Y93.226 E.03062
G1 F1014.659
G1 X91.384 Y92.681 E.03059
G1 F966.505
G1 X91.59 Y92.258 E.02556
G1 F954.733
G1 X91.867 Y91.906 E.02434
G1 X92.259 Y91.589 E.02739
G1 F967.033
G1 X92.681 Y91.384 E.02549
G1 F1014.659
G1 X93.226 Y91.243 E.03059
G1 F1094.547
G1 X93.788 Y91.2 E.03062
G1 F1177.786
G1 X94.547 Y91.2 E.04124
G1 F1200.511
G1 X130.53 Y91.21 E1.95506
G1 F1196.034
G1 X131.281 Y91.21 E.0408
G1 F1141.609
G1 X131.666 Y91.24 E.02098
G1 F1044.823
G1 X132.188 Y91.341 E.02889
G1 F966.505
G1 X132.742 Y91.59 E.033
G1 F954.733
G1 X133.094 Y91.867 E.02434
G1 X133.411 Y92.259 E.02739
G1 F967.033
G1 X133.617 Y92.681 E.02551
G1 F1014.546
G1 X133.748 Y93.172 E.02761
G1 F1090.118
G1 X133.79 Y93.667 E.02699
G1 F1182.897
G1 X133.79 Y94.424 E.04113
G1 F1200.511
G1 X133.8 Y130.453 E1.95756
G1 F1177.786
G1 X133.8 Y131.212 E.04124
G1 F1094.547
G1 X133.757 Y131.774 E.03062
G1 F1014.659
G1 X133.616 Y132.319 E.03059
G1 F966.505
G1 X133.41 Y132.742 E.02556
G1 F954.733
G1 X133.133 Y133.094 E.02434
G1 X132.741 Y133.411 E.02739
G1 F967.033
G1 X132.319 Y133.616 E.02549
G1 F1014.659
G1 X131.774 Y133.757 E.03059
G1 F1094.547
G1 X131.212 Y133.8 E.03062
G1 F1177.784
G1 X130.453 Y133.8 E.04124
G1 F1199.998
G1 X94.547 Y133.8 E1.95087
G1 F1177.782
G1 X93.788 Y133.8 E.04124
G1 F1094.547
G1 X93.226 Y133.757 E.03062
G1 F1014.659
G1 X92.681 Y133.616 E.03059
G1 F1007.533
G1 X92.412 Y133.485 E.01626

G1 X92.346 Y133.348 F12000
G1 E-.8 F2400
G1 Z.9 F720
G1 X92.636 Y92.185 F12000
G1 Z.5 F720
G1 E.8 F1800
M201 X1700 Y1700
;TYPE:Solid infill
;WIDTH:0.404381
G1 F5100
G1 X92.187 Y92.633 E.0269
;WIDTH:0.5
G1 X92.121 Y93.136 E.02756
G1 X93.136 Y92.121 E.07799
G1 X93.842 Y92.031 E.03867
G1 X92.028 Y93.845 E.13938
G1 X92.028 Y94.461 E.03347
G1 X94.461 Y92.028 E.18695
G1 X95.077 Y92.028 E.03347
G1 X92.028 Y95.078 E.23432
G1 X92.028 Y95.694 E.03347
G1 X95.693 Y92.028 E.28165
G1 X96.309 Y92.028 E.03347
G1 X92.028 Y96.31 E.32898
G1 X92.028 Y96.926 E.03347
G1 X96.925 Y92.029 E.37628
G1 X97.541 Y92.029 E.03347
G1 X92.028 Y97.542 E.42361
G1 X92.028 Y98.158 E.03347
G1 X98.157 Y92.029 E.47094
G1 X98.773 Y92.029 E.03347
G1 X92.028 Y98.774 E.51827
G1 X92.028 Y99.39 E.03347
G1 X99.388 Y92.029 E.56557
G1 X100.004 Y92.029 E.03347
G1 X92.028 Y100.006 E.6129
G1 X92.028 Y100.622 E.03347
G1 X100.62 Y92.03 E.66019
G1 X101.236 Y92.03 E.03347
G1 X92.028 Y101.238 E.70753
G1 X92.028 Y101.854 E.03347
G1 X101.852 Y92.03 E.75486
G1 X102.468 Y92.03 E.03347
G1 X92.028 Y102.47 E.80219
G1 X92.028 Y103.086 E.03347
G1 X103.084 Y92.03 E.84952
G1 X103.7 Y92.03 E.03347
G1 X92.028 Y103.702 E.89686
G1 X92.028 Y104.318 E.03347
G1 X104.315 Y92.031 E.94411
G1 X104.931 Y92.031 E.03347
G1 X92.028 Y104.934 E.99144
G1 X92.028 Y105.551 E.03352
G1 X105.547 Y92.031 E1.03881
G1 X106.163 Y92.031 E.03347
G1 X92.028 Y106.167 E1.08615
G1 X92.028 Y106.783 E.03347
G1 X106.779 Y92.031 E1.13348
G1 X107.395 Y92.031 E.03347
G1 X92.028 Y107.399 E1.18081
G1 X92.028 Y108.015 E.03347
G1 X108.011 Y92.032 E1.2281
G1 X108.627 Y92.032 E.03347
G1 X92.028 Y108.631 E1.27544
G1 X92.028 Y109.247 E.03347
G1 X109.243 Y92.032 E1.32277
G1 X109.858 Y92.032 E.03341
