; HEADER_BLOCK_START
; generated by GalaxySlicer 1.0.0-alpha2 on 2023-08-02 at 10:12:52
; total layer number: 349
; HEADER_BLOCK_END

; THUMBNAIL_BLOCK_START
; THUMBNAIL_BLOCK_END

; external perimeters extrusion width = 0.40mm
; perimeters extrusion width = 0.45mm
; infill extrusion width = 0.45mm
; solid infill extrusion width = 0.40mm
; top infill extrusion width = 0.40mm
; first layer extrusion width = 0.50mm

; EXECUTABLE_BLOCK_START
M73 P0 R78
;TYPE:Custom
M83 ; use relative distances for extrusion
G90 ; use absolute coordinates
M140 S50 ; set final bed temp
M104 S180 ; set temporary nozzle temp to prevent oozing during homing
M557 X86.3426:135.221 Y46.5884:95.4665 S25
G29 S2
G29 S0
M104 S220 ; set final nozzle temp
M190 S50 ; wait for bed temp to stabilize
M109 S220 ; wait for nozzle temp to stabilize
;M593 P"mzv" F59
M572 D0 S0.06
G90
G1 Y10
M400
G1 Z0.6 F720
G92 E0
G1 X50  Y10 E9 F1000 ; intro line
G1 Y11
M400
G1 X100 Y11 E12.5 F1500 ; intro line
G92 E0
M566 X480.00 Y480.00 Z10.00 E1200.00 P1        ; set maximum instantaneous speed changes (mm/min) // same as M205 but with mm/min
M203 X10800.00 Y10800.00 Z1000.00 E3600.00     ; set maximum speeds (mm/min)
M201 X3000.00 Y3000.00 Z100.00 E3600.00        ; set accelerations (mm/s^2)
   
G90
G21
M83 ; use relative distances for extrusion
; filament start gcode
;LAYER_CHANGE
;Z:0.3
;HEIGHT:0.3
;BEFORE_LAYER_CHANGE
;0.3
G92 E0


G1 E-.9 F2700
;AFTER_LAYER_CHANGE
;0.3

M204 P500
G1 X86.668 Y51.315 F9000
G1 Z.4
G1 Z.3
G1 E.9 F2100
;TYPE:Skirt
;WIDTH:0.5
G1 F2700
G1 X86.886 Y50.472 E.04638
G1 X87.345 Y49.465 E.05891
G1 X87.876 Y48.715 E.04894
G1 X88.72 Y47.922 E.06169
G1 X89.723 Y47.33 E.062
G1 X90.775 Y46.975 E.05912
G1 X91.823 Y46.821 E.05637
G1 X129.414 Y46.808 E2.00159
G1 X130.527 Y46.92 E.05956
G1 X131.603 Y47.23 E.05964
G1 X132.621 Y47.764 E.06123
G1 X133.277 Y48.285 E.04457
G1 X133.887 Y48.966 E.04871
G1 X134.479 Y49.969 E.062
G1 X134.833 Y51.014 E.05874
G1 X134.971 Y51.867 E.04599
G1 X135.001 Y89.664 E2.01256
G1 X134.896 Y90.74 E.05755
G1 X134.677 Y91.583 E.04638
G1 X134.218 Y92.59 E.05891
G1 X133.687 Y93.34 E.04894
G1 X132.843 Y94.133 E.06169
G1 X131.84 Y94.725 E.062
G1 X130.494 Y95.141 E.07503
G1 X129.303 Y95.249 E.06366
G1 X92.145 Y95.246 E1.97852
G1 X91.069 Y95.141 E.05755
G1 X90.226 Y94.923 E.04638
G1 X89.219 Y94.464 E.05891
G1 X88.469 Y93.933 E.04894
G1 X87.676 Y93.089 E.06169
G1 X87.085 Y92.086 E.062
G1 X86.668 Y90.74 E.07503
G1 X86.56 Y89.549 E.06366
G1 X86.563 Y52.391 E1.97852
G1 X86.662 Y51.375 E.05436
G1 X87.093 Y51.416 F9000
G1 F2700
G1 X87.094 Y51.404 E.00065
G1 X87.302 Y50.602 E.04411
G1 X87.727 Y49.675 E.05428
G1 X88.201 Y49.005 E.04372
G1 X88.972 Y48.277 E.05648
G1 X89.894 Y47.731 E.05702
G1 X90.864 Y47.401 E.05457
G1 X91.84 Y47.257 E.05254
G1 X129.397 Y47.244 E1.99977
G1 X130.437 Y47.346 E.05564
G1 X131.433 Y47.631 E.05515
G1 X132.369 Y48.12 E.05624
G1 X132.987 Y48.61 E.04198
G1 X133.532 Y49.218 E.0435
G1 X134.078 Y50.139 E.05702
G1 X134.407 Y51.104 E.05425
G1 X134.538 Y51.919 E.04395
G1 X134.565 Y89.646 E2.00886
G1 X134.469 Y90.651 E.05373
G1 X134.261 Y91.453 E.04411
G1 X133.837 Y92.38 E.05428
G1 X133.362 Y93.05 E.04372
G1 X132.591 Y93.778 E.05648
G1 X131.67 Y94.324 E.05702
G1 X130.405 Y94.715 E.07048
G1 X129.303 Y94.813 E.0589
G1 X92.163 Y94.811 E1.97759
G1 X91.158 Y94.715 E.05373
G1 X90.356 Y94.507 E.04411
G1 X89.429 Y94.083 E.05428
G1 X88.759 Y93.608 E.04372
G1 X88.031 Y92.837 E.05648
G1 X87.485 Y91.915 E.05702
G1 X87.094 Y90.651 E.07048
G1 X86.996 Y89.549 E.0589
G1 X86.998 Y52.408 E1.97759
G1 X87.087 Y51.476 E.04988
; printing object Box-1x1.stl id:0 copy 0
G1 E-.9
G17
G3 Z.7 I-.012 J1.217 P1  F9000
G1 X130.932 Y51.923 Z.7
G1 Z.3
G1 E.9 F2100
;TYPE:Inner wall
;WIDTH:0.5
G1 F2700
G1 X130.937 Y51.937 E.00079
G1 X131.01 Y52.551 E.03292
G1 X131.01 Y89.436 E1.96396
G1 X130.974 Y89.969 E.02848
G1 X130.821 Y90.456 E.0272
G1 X130.582 Y90.815 E.02292
G1 X130.231 Y91.057 E.02274
G1 X129.853 Y91.187 E.02127
G1 X129.26 Y91.256 E.03177
G1 X92.373 Y91.256 E1.96408
G1 X91.84 Y91.22 E.02848
G1 X91.353 Y91.067 E.0272
G1 X90.994 Y90.828 E.02292
G1 X90.752 Y90.476 E.02274
G1 X90.622 Y90.099 E.02127
G1 X90.553 Y89.506 E.03177
G1 X90.553 Y52.549 E1.96784
G1 X90.589 Y52.085 E.02474
G1 X90.742 Y51.598 E.0272
G1 X90.981 Y51.24 E.02292
G1 X91.333 Y50.998 E.02274
G1 X91.71 Y50.868 E.02127
G1 X92.303 Y50.799 E.03177
G1 X129.183 Y50.799 E1.96374
G1 X129.745 Y50.839 E.03
G1 X130.208 Y50.987 E.02586
G1 X130.569 Y51.227 E.02309
G1 X130.811 Y51.578 E.02274
G1 X130.912 Y51.867 E.01626
G1 X131.326 Y51.755 F9000
G1 F2700
G1 X131.402 Y51.99 E.01315
G1 X131.446 Y52.533 E.02902
G1 X131.446 Y89.436 E1.96491
G3 X131.119 Y90.838 I-3.05 J.029 E.07743
G3 X130.242 Y91.536 I-1.585 J-1.093 E.06054
G1 X129.796 Y91.652 E.02457
G1 X129.277 Y91.692 E.02768
G1 X92.373 Y91.692 E1.96498
M73 P0 R77
G3 X90.971 Y91.365 I-.029 J-3.05 E.07743
G3 X90.273 Y90.488 I1.093 J-1.585 E.06054
G1 X90.158 Y90.041 E.02457
G1 X90.117 Y89.523 E.02768
G1 X90.117 Y52.532 E1.96964
G3 X90.444 Y51.216 I3.066 J.063 E.07277
G3 X91.321 Y50.519 I1.585 J1.093 E.06054
G1 X91.768 Y50.403 E.02457
G1 X92.286 Y50.363 E.02768
G1 X129.276 Y50.363 E1.96956
G1 X129.819 Y50.408 E.02902
G1 X130.399 Y50.595 E.03245
G3 X131.214 Y51.41 I-.848 J1.663 E.06239
G1 X131.307 Y51.698 E.01611
G1 X131.744 Y51.58 F9000
;TYPE:Outer wall
G1 F2700
G1 X131.833 Y51.916 E.01853
G1 X131.882 Y52.515 E.032
G1 X131.882 Y89.54 E1.97141
G1 X131.837 Y90.113 E.03062
G1 X131.701 Y90.64 E.02895
G1 X131.49 Y91.072 E.02561
G1 X131.204 Y91.433 E.02453
G1 X130.826 Y91.736 E.02581
G1 X130.394 Y91.947 E.02558
G1 X129.868 Y92.083 E.02895
G1 X129.294 Y92.127 E.03062
G1 X92.269 Y92.127 E1.97143
G1 X91.696 Y92.083 E.03062
G1 X91.169 Y91.947 E.02895
G1 X90.737 Y91.736 E.02561
G1 X90.376 Y91.45 E.02453
G1 X90.073 Y91.071 E.02581
G1 X89.862 Y90.64 E.02558
G1 X89.726 Y90.113 E.02895
G1 X89.682 Y89.54 E.03062
G1 X89.682 Y52.515 E1.97143
G1 X89.726 Y51.942 E.03062
G1 X89.862 Y51.415 E.02895
G1 X90.073 Y50.983 E.02561
G1 X90.359 Y50.622 E.02453
G1 X90.738 Y50.319 E.02581
G1 X91.169 Y50.108 E.02558
G1 X91.696 Y49.972 E.02895
G1 X92.269 Y49.927 E.03062
G1 X129.294 Y49.927 E1.97141
G1 X129.893 Y49.976 E.032
G1 X130.394 Y50.108 E.02757
G1 X130.826 Y50.319 E.02563
G1 X131.187 Y50.605 E.02453
G1 X131.49 Y50.983 E.02581
G1 X131.701 Y51.416 E.0256
G1 X131.729 Y51.522 E.00585
G1 X131.697 Y51.631
G1 E-.9
G17
G3 Z.7 I-.937 J-.777 P1  F9000
G1 X130.88 Y52.617 Z.7
G1 Z.3
G1 E.9 F2100
;TYPE:Bottom surface
;WIDTH:0.500057
G1 F3600
G1 X129.401 Y51.138 E.11136
G2 X128.777 Y51.131 I-.358 J3.81 E.03325
G1 X130.684 Y53.037 E.14357
G1 X130.684 Y53.653 E.03281
G1 X128.161 Y51.131 E.18997
G1 X127.545 Y51.13 E.03282
G1 X130.684 Y54.269 E.23638
G1 X130.684 Y54.885 E.03281
G1 X126.929 Y51.13 E.28279
G1 X126.313 Y51.13 E.03282
G1 X130.684 Y55.502 E.3292
G1 X130.684 Y56.118 E.03281
G1 X125.696 Y51.13 E.37561
G1 X125.08 Y51.13 E.03282
G1 X130.684 Y56.734 E.42202
G1 X130.684 Y57.35 E.03281
G1 X124.464 Y51.13 E.46843
G1 X123.848 Y51.13 E.03282
G1 X130.684 Y57.966 E.51484
G1 X130.684 Y58.582 E.03281
G1 X123.231 Y51.13 E.56125
G1 X122.615 Y51.13 E.03282
G1 X130.684 Y59.198 E.60766
G1 X130.684 Y59.814 E.03281
G1 X121.999 Y51.13 E.65406
G1 X121.383 Y51.13 E.03282
G1 X130.684 Y60.431 E.70047
G1 X130.684 Y61.047 E.03281
G1 X120.766 Y51.13 E.74688
G1 X120.15 Y51.129 E.03282
G1 X130.684 Y61.663 E.79329
G1 X130.684 Y62.279 E.03281
G1 X119.534 Y51.129 E.8397
G1 X118.918 Y51.129 E.03282
G1 X130.684 Y62.895 E.88611
G1 X130.684 Y63.511 E.03281
G1 X118.302 Y51.129 E.93252
G1 X117.685 Y51.129 E.03282
G1 X130.684 Y64.127 E.97893
G1 X130.684 Y64.744 E.03281
G1 X117.069 Y51.129 E1.02534
G1 X116.453 Y51.129 E.03282
G1 X130.684 Y65.36 E1.07174
G1 X130.684 Y65.976 E.03281
G1 X115.837 Y51.129 E1.11815
G1 X115.22 Y51.129 E.03282
G1 X130.684 Y66.592 E1.16456
G1 X130.684 Y67.208 E.03281
G1 X114.604 Y51.129 E1.21097
G1 X113.988 Y51.129 E.03282
G1 X130.684 Y67.824 E1.25738
G1 X130.684 Y68.44 E.03281
G1 X113.372 Y51.128 E1.30379
G1 X112.755 Y51.128 E.03282
G1 X130.684 Y69.057 E1.3502
G1 X130.684 Y69.673 E.03281
G1 X112.139 Y51.128 E1.39661
G1 X111.523 Y51.128 E.03282
G1 X130.684 Y70.289 E1.44302
G1 X130.684 Y70.905 E.03281
G1 X110.907 Y51.128 E1.48943
G1 X110.291 Y51.128 E.03282
G1 X130.684 Y71.521 E1.53583
G1 X130.684 Y72.137 E.03281
G1 X109.674 Y51.128 E1.58224
G1 X109.058 Y51.128 E.03282
G1 X130.684 Y72.753 E1.62865
G1 X130.684 Y73.37 E.03281
G1 X108.442 Y51.128 E1.67506
G1 X107.826 Y51.128 E.03282
G1 X130.684 Y73.986 E1.72147
G1 X130.684 Y74.602 E.03281
G1 X107.209 Y51.128 E1.76788
G1 X106.593 Y51.127 E.03282
G1 X130.684 Y75.218 E1.81429
G1 X130.684 Y75.834 E.03281
G1 X105.977 Y51.127 E1.8607
G1 X105.361 Y51.127 E.03282
G1 X130.684 Y76.45 E1.90711
G1 X130.684 Y77.066 E.03281
G1 X104.745 Y51.127 E1.95351
G1 X104.128 Y51.127 E.03282
G1 X130.684 Y77.683 E1.99992
G1 X130.684 Y78.299 E.03281
G1 X103.512 Y51.127 E2.04633
G1 X102.896 Y51.127 E.03282
G1 X130.684 Y78.915 E2.09274
M73 P1 R77
G1 X130.684 Y79.531 E.03281
G1 X102.28 Y51.127 E2.13915
G1 X101.663 Y51.127 E.03282
G1 X130.684 Y80.147 E2.18556
G1 X130.684 Y80.763 E.03281
G1 X101.047 Y51.127 E2.23197
G1 X100.431 Y51.127 E.03282
G1 X130.684 Y81.379 E2.27838
G1 X130.684 Y81.995 E.03281
G1 X99.815 Y51.126 E2.32479
G1 X99.198 Y51.126 E.03282
G1 X130.684 Y82.612 E2.3712
G1 X130.684 Y83.228 E.03281
G1 X98.582 Y51.126 E2.4176
G1 X97.966 Y51.126 E.03282
G1 X130.684 Y83.844 E2.46401
G1 X130.684 Y84.46 E.03281
G1 X97.35 Y51.126 E2.51042
G1 X96.734 Y51.126 E.03282
G1 X130.684 Y85.076 E2.55683
G1 X130.684 Y85.692 E.03281
G1 X96.117 Y51.126 E2.60324
G1 X95.501 Y51.126 E.03282
G1 X130.684 Y86.308 E2.64965
G1 X130.684 Y86.925 E.03281
G1 X94.885 Y51.126 E2.69606
G1 X94.269 Y51.126 E.03282
G1 X130.684 Y87.541 E2.74247
G1 X130.684 Y88.157 E.03281
G1 X93.652 Y51.126 E2.78888
G1 X93.036 Y51.125 E.03282
G1 X130.684 Y88.773 E2.83528
G1 X130.684 Y89.389 E.03281
G1 X92.42 Y51.125 E2.88169
G2 X91.848 Y51.17 I.101 J4.994 E.03055
G1 X130.639 Y89.961 E2.9214
G3 X130.478 Y90.415 I-1.197 J-.17 E.02586
G1 X91.394 Y51.332 E2.94344
G2 X91.093 Y51.625 I.713 J1.033 E.02249
G1 X91.086 Y51.64 E.00087
G1 X130.169 Y90.723 E2.94344
G3 X129.715 Y90.885 I-.624 J-1.035 E.02586
G1 X90.924 Y52.094 E2.92139
G1 X90.912 Y52.139 E.0025
G2 X90.88 Y52.666 I3.374 J.474 E.02811
G1 X129.143 Y90.929 E2.88169
G1 X128.527 Y90.929 E.03281
G1 X90.88 Y53.282 E2.83529
G1 X90.88 Y53.898 E.03281
G1 X127.911 Y90.929 E2.78889
G1 X127.295 Y90.929 E.03281
G1 X90.88 Y54.514 E2.74249
G1 X90.88 Y55.13 E.03281
G1 X126.679 Y90.929 E2.69608
G1 X126.063 Y90.929 E.03281
G1 X90.88 Y55.746 E2.64968
G1 X90.88 Y56.363 E.03281
G1 X125.447 Y90.929 E2.60328
G1 X124.83 Y90.929 E.03281
G1 X90.88 Y56.979 E2.55688
G1 X90.88 Y57.595 E.03281
G1 X124.214 Y90.929 E2.51047
G1 X123.598 Y90.929 E.03281
G1 X90.88 Y58.211 E2.46407
G1 X90.88 Y58.827 E.03281
G1 X122.982 Y90.929 E2.41767
G1 X122.366 Y90.929 E.03281
G1 X90.88 Y59.443 E2.37127
G1 X90.88 Y60.059 E.03281
G1 X121.75 Y90.929 E2.32487
G1 X121.134 Y90.929 E.03281
G1 X90.88 Y60.676 E2.27846
M73 P1 R76
G1 X90.88 Y61.292 E.03281
G1 X120.517 Y90.929 E2.23206
G1 X119.901 Y90.929 E.03281
G1 X90.88 Y61.908 E2.18566
G1 X90.88 Y62.524 E.03281
G1 X119.285 Y90.929 E2.13926
G1 X118.669 Y90.929 E.03281
G1 X90.88 Y63.14 E2.09285
G1 X90.88 Y63.756 E.03281
G1 X118.053 Y90.929 E2.04645
G1 X117.437 Y90.929 E.03281
G1 X90.88 Y64.372 E2.00005
G1 X90.88 Y64.989 E.03281
G1 X116.821 Y90.929 E1.95365
G1 X116.204 Y90.929 E.03281
G1 X90.88 Y65.605 E1.90725
G1 X90.88 Y66.221 E.03281
G1 X115.588 Y90.929 E1.86084
G1 X114.972 Y90.929 E.03281
G1 X90.88 Y66.837 E1.81444
G1 X90.88 Y67.453 E.03281
G1 X114.356 Y90.929 E1.76804
G1 X113.74 Y90.929 E.03281
G1 X90.88 Y68.069 E1.72164
G1 X90.88 Y68.685 E.03281
G1 X113.124 Y90.929 E1.67523
G1 X112.508 Y90.929 E.03281
G1 X90.88 Y69.301 E1.62883
G1 X90.88 Y69.918 E.03281
G1 X111.891 Y90.929 E1.58243
G1 X111.275 Y90.929 E.03281
G1 X90.88 Y70.534 E1.53603
G1 X90.88 Y71.15 E.03281
G1 X110.659 Y90.929 E1.48963
G1 X110.043 Y90.929 E.03281
G1 X90.88 Y71.766 E1.44322
G1 X90.88 Y72.382 E.03281
G1 X109.427 Y90.929 E1.39682
G1 X108.811 Y90.929 E.03281
G1 X90.88 Y72.998 E1.35042
G1 X90.88 Y73.614 E.03281
G1 X108.195 Y90.929 E1.30402
M73 P2 R76
G1 X107.578 Y90.929 E.03281
G1 X90.88 Y74.231 E1.25762
G1 X90.88 Y74.847 E.03281
G1 X106.962 Y90.929 E1.21121
G1 X106.346 Y90.929 E.03281
G1 X90.88 Y75.463 E1.16481
G1 X90.88 Y76.079 E.03281
G1 X105.73 Y90.929 E1.11841
G1 X105.114 Y90.929 E.03281
G1 X90.88 Y76.695 E1.07201
G1 X90.88 Y77.311 E.03281
G1 X104.498 Y90.929 E1.0256
G1 X103.882 Y90.929 E.03281
G1 X90.88 Y77.927 E.9792
G1 X90.88 Y78.544 E.03281
G1 X103.266 Y90.929 E.9328
G1 X102.649 Y90.929 E.03281
G1 X90.88 Y79.16 E.8864
G1 X90.88 Y79.776 E.03281
G1 X102.033 Y90.929 E.84
G1 X101.417 Y90.929 E.03281
G1 X90.88 Y80.392 E.79359
G1 X90.88 Y81.008 E.03281
G1 X100.801 Y90.929 E.74719
G1 X100.185 Y90.929 E.03281
G1 X90.88 Y81.624 E.70079
G1 X90.88 Y82.24 E.03281
G1 X99.569 Y90.929 E.65439
G1 X98.953 Y90.929 E.03281
G1 X90.88 Y82.857 E.60798
G1 X90.88 Y83.473 E.03281
G1 X98.336 Y90.929 E.56158
G1 X97.72 Y90.929 E.03281
G1 X90.88 Y84.089 E.51518
G1 X90.88 Y84.705 E.03281
G1 X97.104 Y90.929 E.46878
G1 X96.488 Y90.929 E.03281
G1 X90.88 Y85.321 E.42238
G1 X90.88 Y85.937 E.03281
G1 X95.872 Y90.929 E.37597
G1 X95.256 Y90.929 E.03281
G1 X90.88 Y86.553 E.32957
G1 X90.88 Y87.17 E.03281
G1 X94.64 Y90.929 E.28317
G1 X94.023 Y90.929 E.03281
G1 X90.88 Y87.786 E.23677
G1 X90.88 Y88.402 E.03281
G1 X93.407 Y90.929 E.19036
G1 X92.791 Y90.929 E.03281
G1 X90.88 Y89.018 E.14396
G2 X90.891 Y89.646 I4.052 J.238 E.03348
G1 X92.371 Y91.126 E.11143
; stop printing object Box-1x1.stl id:0 copy 0
M106 S255

;LAYER_CHANGE
;Z:0.5
;HEIGHT:0.2
;BEFORE_LAYER_CHANGE
;0.5
G92 E0


G1 E-.9 F2700
;AFTER_LAYER_CHANGE
;0.5

M204 P1000
G10 S210 ; set nozzle temperature
; printing object Box-1x1.stl id:0 copy 0
G17
G3 Z.7 I.866 J.855 P1  F9000
G1 X131.315 Y51.672 Z.7
G1 Z.5
G1 E.9 F2100
;TYPE:Inner wall
;WIDTH:0.449999
G1 F4800
G1 X131.347 Y51.77 E.0034
G1 X131.393 Y52.298 E.0176
G1 X131.393 Y89.688 E1.24028
G1 X131.357 Y90.226 E.01789
G1 X131.186 Y90.772 E.01898
G1 X130.901 Y91.183 E.01659
G1 X130.554 Y91.419 E.01391
G1 X130.123 Y91.566 E.0151
G1 X129.516 Y91.638 E.02028
G1 X120.310 Y91.638 E0.30538
M106 S255
G1 X92.121 Y91.638 E0.93508
G1 X91.583 Y91.603 E.01789
G1 X91.037 Y91.432 E.01898
G1 X90.626 Y91.146 E.01659
G1 X90.39 Y90.8 E.01391
G1 X90.243 Y90.369 E.0151
G1 X90.171 Y89.762 E.02028
G1 X90.171 Y52.293 E1.24291
G1 X90.206 Y51.829 E.01545
G1 X90.377 Y51.282 E.01898
G1 X90.663 Y50.872 E.01659
G1 X91.009 Y50.636 E.01391
G1 X91.44 Y50.489 E.0151
G1 X92.047 Y50.417 E.02028
G1 X129.442 Y50.417 E1.24046
G1 X129.981 Y50.452 E.0179
G1 X130.527 Y50.623 E.01898
G1 X130.937 Y50.908 E.01659
G1 X131.19 Y51.29 E.01518
G1 X131.296 Y51.615 E.01136
G1 X131.7 Y51.549 F9000
G1 F4800
G1 X131.749 Y51.699 E.00525
G1 X131.8 Y52.281 E.01937
G1 X131.8 Y89.777 E1.24383
G3 X131.634 Y90.784 I-2.906 J.039 E.03402
G1 X131.461 Y91.137 E.01303
G1 X131.188 Y91.475 E.01441
G3 X130.047 Y92.006 I-1.483 J-1.693 E.04232
G1 X129.532 Y92.045 E.01716
G1 X92.032 Y92.045 E1.24393
G3 X91.025 Y91.88 I-.039 J-2.906 E.03402
G1 X90.672 Y91.707 E.01303
G1 X90.334 Y91.434 E.01441
G3 X89.803 Y90.293 I1.693 J-1.483 E.04232
G1 X89.764 Y89.777 E.01716
G1 X89.764 Y52.278 E1.24393
G3 X89.929 Y51.271 I2.906 J-.039 E.03402
G1 X90.102 Y50.918 E.01303
G1 X90.375 Y50.58 E.01441
G3 X91.516 Y50.049 I1.483 J1.693 E.04232
G1 X92.032 Y50.01 E.01716
G1 X129.425 Y50.01 E1.24041
G3 X130.705 Y50.257 I-.026 J3.569 E.04349
G3 X131.556 Y51.111 I-.815 J1.662 E.04072
G1 X131.681 Y51.492 E.0133
G1 X132.066 Y51.407 F9000
;TYPE:Outer wall
;WIDTH:0.399999
G1 F1793.374
G1 F1851.467
G1 X132.127 Y51.633 E.00681
G1 F2039.999
G1 X132.138 Y51.762 E.00377
G1 F2288.727
G1 X132.182 Y52.264 E.01466
G1 F2399.987
G1 X132.182 Y52.923 E.01918
G1 F2283.919
G1 X132.182 Y89.132 E1.05359
G1 F2040.005
G1 X132.182 Y89.792 E.0192
G1 X132.147 Y90.247 E.01328
G1 F1871
G1 F1388.084
G1 X132.139 Y90.356 E.00318
G1 F1090.614
