; HEADER_BLOCK_START
; generated by GalaxySlicer 1.0.0-alpha2 on 2023-08-02 at 08:13:51
; total layer number: 133
; HEADER_BLOCK_END

; THUMBNAIL_BLOCK_START
; THUMBNAIL_BLOCK_END

; external perimeters extrusion width = 0.40mm
; perimeters extrusion width = 0.45mm
; infill extrusion width = 0.45mm
; solid infill extrusion width = 0.40mm
; top infill extrusion width = 0.40mm
; first layer extrusion width = 0.50mm

; EXECUTABLE_BLOCK_START
M73 P0 R79
;TYPE:Custom
M83 ; use relative distances for extrusion
G90 ; use absolute coordinates
M140 S50 ; set final bed temp
M104 S180 ; set temporary nozzle temp to prevent oozing during homing
M557 X87.1425:133.321 Y26.7762:72.9543 S25
G29 S2
G29 S0
M104 S220 ; set final nozzle temp
M190 S50 ; wait for bed temp to stabilize
M109 S220 ; wait for nozzle temp to stabilize
;M593 P"mzv" F59
M572 D0 S0.06
G90
G1 Y10
M400
G1 Z0.6 F720
G92 E0
G1 X50  Y10 E9 F1000 ; intro line
G1 Y11
M400
G1 X100 Y11 E12.5 F1500 ; intro line
G92 E0
M566 X480.00 Y480.00 Z10.00 E1200.00 P1        ; set maximum instantaneous speed changes (mm/min) // same as M205 but with mm/min
M203 X10800.00 Y10800.00 Z1000.00 E3600.00     ; set maximum speeds (mm/min)
M201 X3000.00 Y3000.00 Z100.00 E3600.00        ; set accelerations (mm/s^2)
   
G90
G21
M83 ; use relative distances for extrusion
; filament start gcode
M106 S0
;LAYER_CHANGE
;Z:0.3
;HEIGHT:0.3
;BEFORE_LAYER_CHANGE
;0.3
G92 E0


G1 E-.9 F2700
G1 Z.4 F9000
;AFTER_LAYER_CHANGE
;0.3

M204 P500
G1 X88.201 Y37.685
G1 Z.3
G1 E.9 F2100
;TYPE:Skirt
;WIDTH:0.5
G1 F2700
G1 X98.051 Y27.835 E.74172
G1 X100.082 Y26.994 E.11701
G1 X120.382 Y26.994 E1.0809
G1 X122.412 Y27.835 E.11701
G1 X132.262 Y37.685 E.74172
G1 X133.103 Y39.715 E.11701
G1 X133.103 Y65.125 E1.35298
G1 X132.71 Y66.575 E.07999
G1 X131.097 Y67.863 E.1099
G1 X116.097 Y72.603 E.83762
G1 X115.232 Y72.736 E.04661
G1 X100.082 Y72.736 E.80668
G1 X98.051 Y71.896 E.11701
G1 X88.201 Y62.046 E.74172
G1 X87.36 Y60.015 E.11701
G1 X87.36 Y39.715 E1.0809
G1 X88.178 Y37.74 E.11382
G1 X88.509 Y37.993 F9000
G1 F2700
G1 X98.359 Y28.143 E.74172
G1 X100.082 Y27.43 E.09926
G1 X120.382 Y27.43 E1.0809
G1 X122.104 Y28.143 E.09926
G1 X131.954 Y37.993 E.74172
G1 X132.667 Y39.715 E.09926
G1 X132.667 Y65.125 E1.35298
G1 X132.275 Y66.45 E.07356
G1 X130.965 Y67.447 E.08767
G1 X115.965 Y72.188 E.83762
G1 X115.232 Y72.301 E.03954
G1 X100.082 Y72.301 E.80668
G1 X98.359 Y71.587 E.09926
G1 X88.509 Y61.737 E.74172
G1 X87.796 Y60.015 E.09926
G1 X87.796 Y39.715 E1.0809
G1 X88.486 Y38.048 E.09606
; printing object CR-3D_Calibration_Cube_V2.STL id:0 copy 0
G1 E-.9
G1 Z.7 F9000
G1 X127.944 Y58.78
G1 Z.3
G1 E.9 F2100
;TYPE:Inner wall
;WIDTH:0.5
G1 F2700
G1 X127.764 Y58.744 E.0098
G1 X122.699 Y58.744 E.26966
G1 X122.231 Y58.85 E.02556
G1 X121.841 Y59.163 E.02666
G1 X121.633 Y59.614 E.02642
G1 X121.61 Y59.833 E.01174
G1 X121.61 Y63.923 E.21776
G1 X120.791 Y63.923 E.04361
G1 X120.752 Y63.86 E.00394
G1 X120.264 Y63.744 E.02674
G1 X115.199 Y63.744 E.26966
G1 X114.872 Y63.794 E.01761
G1 X114.469 Y64.026 E.02479
G1 X114.194 Y64.414 E.02534
G1 X114.11 Y64.833 E.02274
G1 X114.11 Y68.744 E.20824
G1 X100.546 Y68.744 E.72225
G1 X91.353 Y59.551 E.69226
G1 X91.353 Y40.18 E1.03144
G1 X100.546 Y30.986 E.69226
G1 X119.917 Y30.986 E1.03144
G1 X129.11 Y40.18 E.69226
G1 X129.11 Y59.021 E1.00324
G1 X129.133 Y59.427 E.02165
;WIDTH:0.455476
G1 X129.155 Y59.833 E.01943
;WIDTH:0.410952
G1 X129.155 Y64.048 E.17857
G1 X128.808 Y64.048 E.01468
G1 X128.808 Y59.833 E.17857
;WIDTH:0.455476
G1 X128.722 Y59.506 E.01616
;WIDTH:0.5
G1 X128.635 Y59.18 E.018
G1 X128.183 Y58.828 E.03052
G1 X128.003 Y58.792 E.00975
G1 X127.854 Y59.198 F9000
G1 F2700
G1 X127.764 Y59.18 E.0049
G1 X122.699 Y59.18 E.26966
G1 X122.386 Y59.26 E.01725
G1 X122.137 Y59.501 E.01842
G1 X122.046 Y59.833 E.01836
G1 X122.046 Y64.358 E.24096
G1 X120.624 Y64.358 E.07569
G1 X120.557 Y64.249 E.00684
G1 X120.264 Y64.18 E.01604
G1 X115.599 Y64.18 E.24837
G1 X115.039 Y64.2 E.02986
G1 X114.761 Y64.349 E.01679
G1 X114.596 Y64.582 E.0152
G1 X114.546 Y64.833 E.01364
G1 X114.546 Y69.18 E.23144
G1 X100.366 Y69.18 E.75505
G1 X90.917 Y59.731 E.71148
G1 X90.917 Y39.999 E1.05065
G1 X100.366 Y30.551 E.71148
G1 X120.098 Y30.551 E1.05065
G1 X129.546 Y39.999 E.71148
G1 X129.546 Y64.439 E1.30135
G1 X128.417 Y64.439 E.0601
G1 X128.417 Y59.833 E.24527
G1 X128.286 Y59.441 E.022
G1 X128.015 Y59.23 E.01831
G1 X127.913 Y59.209 E.00555
G1 X127.764 Y59.615 F9000
;TYPE:Outer wall
G1 F2700
G1 X122.699 Y59.615 E.26966
G1 X122.528 Y59.699 E.01017
G1 X122.482 Y59.833 E.00754
G1 X122.482 Y64.794 E.26415
G1 X120.457 Y64.794 E.10777
G1 X120.361 Y64.638 E.00973
G1 X120.264 Y64.615 E.00535
G1 X115.199 Y64.615 E.26966
G1 X115.053 Y64.672 E.00834
G1 X114.982 Y64.833 E.00941
G1 X114.982 Y69.615 E.25463
G1 X100.185 Y69.615 E.78785
G1 X90.482 Y59.912 E.73069
G1 X90.482 Y39.819 E1.06987
G1 X100.185 Y30.115 E.73069
G1 X120.278 Y30.115 E1.06987
G1 X129.982 Y39.819 E.73069
G1 X129.982 Y64.875 E1.33415
G1 X127.982 Y64.875 E.10649
G1 X127.982 Y59.833 E.26847
G1 X127.938 Y59.702 E.00733
G1 X127.817 Y59.642 E.00718
G1 X127.743 Y59.538
G1 E-.9
G1 Z.7 F9000
G1 X98.542 Y42.875
G1 Z.3
G1 E.9 F2100
;TYPE:Inner wall
G1 F2700
G1 X98.93 Y42.264 E.03855
G3 X96.615 Y49.511 I11.299 J7.602 E4.14549
G3 X96.742 Y47.977 I14.062 J.392 E.08197
G3 X98.511 Y42.927 I13.487 J1.888 E.2868
G1 X98.91 Y43.107 F9000
G1 F2700
G1 X99.297 Y42.497 E.03846
G3 X97.051 Y49.511 I10.931 J7.368 E4.01295
G3 X97.175 Y48.025 I13.65 J.394 E.0794
G3 X98.88 Y43.159 I13.054 J1.84 E.27634
G1 X99.251 Y43.389 F9000
;TYPE:Outer wall
G1 F2700
G1 X99.278 Y43.34 E.00299
G3 X97.487 Y49.511 I10.951 J6.525 E3.91885
G3 X97.608 Y48.074 I13.24 J.397 E.07683
G3 X98.927 Y43.97 I12.621 J1.792 E.2306
G1 X99.221 Y43.441 E.03223
G1 X99.245 Y43.379
G1 E-.9
G1 Z.7 F9000
G1 X119.585 Y31.117
G1 Z.3
G1 E.9 F2100
;TYPE:Bottom surface
;WIDTH:0.501101
G1 F3600
G1 X128.784 Y40.316 E.69443
G1 X128.784 Y40.933 E.03297
G1 X119.163 Y31.313 E.72625
G1 X118.546 Y31.313 E.03297
G1 X128.784 Y41.551 E.77288
G1 X128.784 Y42.169 E.03297
G1 X117.928 Y31.313 E.8195
G1 X117.31 Y31.313 E.03297
G1 X128.784 Y42.786 E.86613
G1 X128.784 Y43.404 E.03297
G1 X116.693 Y31.313 E.91275
G1 X116.075 Y31.313 E.03297
G1 X128.784 Y44.022 E.95938
G1 X128.784 Y44.639 E.03297
G1 X115.458 Y31.313 E1.006
G1 X114.84 Y31.313 E.03297
G1 X128.784 Y45.257 E1.05263
G1 X128.784 Y45.874 E.03297
G1 X114.222 Y31.313 E1.09925
G1 X113.605 Y31.313 E.03297
G1 X128.784 Y46.492 E1.14588
G1 X128.784 Y47.11 E.03297
G1 X112.987 Y31.313 E1.1925
G1 X112.37 Y31.313 E.03297
G1 X128.784 Y47.727 E1.23913
G1 X128.784 Y48.345 E.03297
G1 X111.752 Y31.313 E1.28575
G1 X111.134 Y31.313 E.03297
G1 X128.784 Y48.962 E1.33238
G1 X128.784 Y49.58 E.03297
G1 X122.563 Y43.359 E.46962
G3 X123.116 Y44.53 I-13.683 J7.181 E.06914
G1 X128.784 Y50.198 E.42786
G1 X128.784 Y50.815 E.03297
G1 X123.475 Y45.506 E.40078
G3 X123.731 Y46.38 I-7.597 J2.704 E.04865
G1 X128.784 Y51.433 E.38142
G1 X128.784 Y52.051 E.03297
G1 X123.91 Y47.177 E.3679
G3 X124.037 Y47.922 I-6.02 J1.411 E.04036
G1 X128.784 Y52.668 E.3583
G1 X128.784 Y53.286 E.03297
G1 X124.118 Y48.62 E.3522
G3 X124.163 Y49.283 I-6.039 J.746 E.03549
G1 X128.784 Y53.903 E.34878
G1 X128.784 Y54.521 E.03297
G1 X124.178 Y49.916 E.34767
G1 X124.162 Y50.517 E.0321
G1 X128.784 Y55.139 E.34893
G1 X128.784 Y55.756 E.03297
G1 X124.12 Y51.092 E.35209
M73 P0 R78
G3 X124.06 Y51.65 I-4.95 J-.251 E.02995
G1 X128.784 Y56.374 E.35663
G1 X128.784 Y56.991 E.03297
G1 X123.984 Y52.191 E.36236
G1 X123.881 Y52.707 E.02805
G1 X128.784 Y57.609 E.37007
G1 X128.784 Y58.227 E.03297
G1 X123.767 Y53.21 E.37871
G3 X123.64 Y53.701 I-4.323 J-.854 E.02708
G1 X128.784 Y58.844 E.38827
G1 X128.784 Y58.891 E.0025
G1 X128.313 Y58.525 E.03183
G1 X127.739 Y58.417 E.03117
G1 X123.491 Y54.169 E.32071
G3 X123.337 Y54.633 I-4.039 J-1.083 E.02609
G1 X127.121 Y58.417 E.28571
G1 X126.504 Y58.417 E.03297
G1 X123.165 Y55.078 E.25206
G3 X122.98 Y55.511 I-4.097 J-1.501 E.02512
G1 X125.886 Y58.417 E.21943
G1 X125.269 Y58.417 E.03297
G1 X122.788 Y55.937 E.18726
G1 X122.577 Y56.344 E.02446
G1 X124.651 Y58.417 E.15657
G1 X124.034 Y58.418 E.03297
G1 X122.361 Y56.745 E.12627
G1 X122.131 Y57.133 E.02406
G1 X123.416 Y58.418 E.097
G1 X122.798 Y58.418 E.03297
G1 X121.891 Y57.511 E.06847
G1 X121.643 Y57.88 E.02376
G1 X122.269 Y58.505 E.04721
G2 X121.865 Y58.72 I.091 J.659 E.02489
G1 X121.381 Y58.236 E.03652
G1 X121.115 Y58.587 E.02353
G1 X121.544 Y59.016 E.03236
G1 X121.477 Y59.118 E.00654
G1 X121.352 Y59.442 E.01849
G1 X120.831 Y58.921 E.03934
G1 X120.546 Y59.254 E.02338
G1 X121.284 Y59.991 E.05567
G1 X121.284 Y60.609 E.03297
G1 X120.243 Y59.568 E.07854
G3 X119.937 Y59.88 I-3.037 J-2.68 E.02332
G1 X121.284 Y61.226 E.10166
G1 X121.284 Y61.844 E.03297
G1 X119.617 Y60.177 E.1258
G3 X119.288 Y60.466 I-2.837 J-2.902 E.02337
G1 X121.284 Y62.461 E.15063
G1 X121.284 Y63.079 E.03297
G1 X118.952 Y60.747 E.17603
G3 X118.602 Y61.015 I-2.538 J-2.953 E.02353
G1 X121.183 Y63.596 E.19485
G1 X120.935 Y63.596 E.01322
G1 X120.919 Y63.57 E.00166
G1 X120.421 Y63.452 E.02733
G1 X118.248 Y61.278 E.16405
G3 X117.875 Y61.524 I-2.252 J-3.014 E.02382
G1 X119.769 Y63.417 E.14295
G1 X119.151 Y63.417 E.03297
G1 X117.502 Y61.768 E.12453
G1 X117.109 Y61.993 E.02415
G1 X118.534 Y63.417 E.10754
G1 X117.916 Y63.417 E.03297
G1 X116.712 Y62.213 E.09094
G1 X116.3 Y62.419 E.02457
G1 X117.299 Y63.417 E.07538
G1 X116.681 Y63.417 E.03297
G1 X115.877 Y62.614 E.06067
G1 X115.446 Y62.8 E.02508
G1 X116.063 Y63.417 E.04661
G1 X115.446 Y63.417 E.03297
G1 X114.996 Y62.968 E.03393
G3 X114.539 Y63.128 I-1.641 J-3.955 E.02589
G1 X114.869 Y63.458 E.0249
G1 X114.554 Y63.572 E.01785
G1 X114.445 Y63.652 E.00723
G1 X114.065 Y63.272 E.02869
G3 X113.577 Y63.401 I-1.442 J-4.46 E.02698
G1 X114.119 Y63.944 E.04097
G1 X113.891 Y64.288 E.02204
M73 P1 R78
G1 X113.883 Y64.325 E.00204
G1 X113.074 Y63.516 E.06103
G1 X112.554 Y63.613 E.02827
G1 X113.784 Y64.844 E.09289
G1 X113.784 Y65.461 E.03296
G1 X112.015 Y63.693 E.13351
G3 X111.461 Y63.756 I-.834 J-4.862 E.02981
G1 X113.784 Y66.079 E.17537
G1 X113.784 Y66.696 E.03296
G1 X110.883 Y63.795 E.21901
G3 X110.279 Y63.809 I-.428 J-5.568 E.03226
G1 X113.784 Y67.314 E.2646
G1 X113.784 Y67.931 E.03296
G1 X109.648 Y63.795 E.31223
G3 X108.986 Y63.752 I.062 J-5.977 E.03539
G1 X113.652 Y68.417 E.35221
G1 X113.034 Y68.417 E.03297
G1 X108.29 Y63.673 E.35819
G3 X107.545 Y63.546 I.726 J-6.522 E.04032
G1 X112.417 Y68.417 E.36775
G1 X111.799 Y68.417 E.03297
G1 X106.75 Y63.369 E.38114
G3 X105.873 Y63.108 I1.97 J-8.258 E.04889
G1 X111.182 Y68.417 E.40077
G1 X110.564 Y68.417 E.03297
G1 X104.889 Y62.743 E.42837
G3 X103.727 Y62.198 I5.525 J-13.302 E.06854
G1 X110.142 Y68.613 E.48429
G1 E-.9 F2700
G1 Z.7 F9000
G1 X110.321 Y31.117
G1 Z.3
G1 E.9 F2100
G1 F3600
G1 X116.732 Y37.528 E.48399
G2 X115.57 Y36.984 I-5.349 J9.91 E.06851
G1 X109.899 Y31.313 E.42812
G1 X109.281 Y31.313 E.03297
G1 X114.588 Y36.619 E.40057
G2 X113.715 Y36.364 I-2.589 J7.228 E.04859
G1 X108.664 Y31.313 E.38128
G1 X108.046 Y31.313 E.03297
G1 X112.916 Y36.183 E.36764
G2 X112.173 Y36.058 I-1.479 J6.493 E.04026
G1 X107.429 Y31.313 E.35816
G1 X106.811 Y31.313 E.03297
G1 X111.473 Y35.975 E.35195
G2 X110.812 Y35.931 I-.707 J5.63 E.03542
G1 X106.193 Y31.313 E.34863
G1 X105.576 Y31.313 E.03297
G1 X110.186 Y35.924 E.34805
G2 X109.583 Y35.938 I-.174 J5.241 E.03221
G1 X104.958 Y31.313 E.34916
G1 X104.341 Y31.313 E.03297
G1 X109.004 Y35.976 E.35202
G1 X108.443 Y36.033 E.03007
G1 X103.723 Y31.313 E.35634
G1 X103.105 Y31.313 E.03297
G1 X107.909 Y36.116 E.3626
G2 X107.39 Y36.215 I.638 J4.759 E.0282
G1 X102.488 Y31.313 E.37006
G1 X101.87 Y31.313 E.03297
G1 X106.884 Y36.327 E.37851
G1 X106.399 Y36.459 E.02685
G1 X101.252 Y31.313 E.3885
G1 X100.681 Y31.313 E.03049
G1 X100.658 Y31.336 E.00175
G1 X105.926 Y36.604 E.39768
G1 X105.463 Y36.759 E.02605
G1 X100.349 Y31.645 E.38605
G1 X100.04 Y31.954 E.02331
G1 X105.021 Y36.935 E.376
G2 X104.583 Y37.114 I1.294 J3.78 E.02529
G1 X99.732 Y32.263 E.36624
G1 X99.423 Y32.572 E.02331
G1 X104.164 Y37.312 E.35789
G2 X103.752 Y37.518 I1.701 J3.916 E.02459
G1 X99.114 Y32.88 E.35012
G1 X98.805 Y33.189 E.02331
G1 X103.351 Y37.735 E.34316
G2 X102.965 Y37.967 I1.954 J3.689 E.02404
G1 X98.496 Y33.498 E.33734
G1 X98.188 Y33.807 E.02331
G1 X102.584 Y38.203 E.33186
G1 X102.219 Y38.456 E.02369
G1 X97.879 Y34.116 E.32763
G1 X97.57 Y34.424 E.02331
G1 X101.86 Y38.714 E.32384
G1 X101.514 Y38.986 E.02348
G1 X97.261 Y34.733 E.32102
G1 X96.952 Y35.042 E.02331
G1 X101.174 Y39.264 E.31869
G1 X100.846 Y39.554 E.02336
G1 X96.644 Y35.351 E.31726
G1 X96.335 Y35.66 E.02331
G1 X100.528 Y39.853 E.31653
G1 X100.217 Y40.159 E.02331
G1 X96.026 Y35.969 E.31636
G1 X95.717 Y36.277 E.02331
G1 X99.921 Y40.481 E.31737
G2 X99.628 Y40.806 I2.853 J2.87 E.02335
G1 X95.408 Y36.586 E.31856
G1 X95.1 Y36.895 E.02331
G1 X99.351 Y41.147 E.32098
G2 X99.08 Y41.493 I2.918 J2.565 E.0235
G1 X94.791 Y37.204 E.32382
G1 X94.482 Y37.513 E.02331
G1 X98.821 Y41.852 E.32758
G2 X98.571 Y42.22 I3.076 J2.36 E.02375
G1 X94.173 Y37.821 E.33203
G1 X93.864 Y38.13 E.02331
G1 X98.331 Y42.597 E.33718
G2 X98.105 Y42.988 I3.237 J2.13 E.02415
G1 X93.556 Y38.439 E.34343
G1 X93.247 Y38.748 E.02331
G1 X97.883 Y43.384 E.35003
G2 X97.679 Y43.798 I3.379 J1.927 E.02463
G1 X92.938 Y39.057 E.35792
G1 X92.629 Y39.365 E.02331
G1 X97.481 Y44.217 E.36626
G1 X97.3 Y44.653 E.02522
G1 X92.32 Y39.674 E.37589
G1 X92.011 Y39.983 E.02331
G1 X97.128 Y45.1 E.38628
G1 X96.968 Y45.557 E.02587
G1 X91.703 Y40.292 E.39749
G1 X91.679 Y40.315 E.00175
G1 X91.679 Y40.886 E.03049
G1 X96.827 Y46.033 E.38856
G2 X96.695 Y46.519 I4.219 J1.406 E.02688
G1 X91.679 Y41.504 E.3786
G1 X91.679 Y42.121 E.03297
G1 X96.58 Y47.022 E.36996
G2 X96.483 Y47.543 I4.777 J1.158 E.02829
G1 X91.679 Y42.739 E.36265
G1 X91.679 Y43.357 E.03297
G1 X96.404 Y48.081 E.35667
G1 X96.342 Y48.637 E.02984
G1 X91.679 Y43.974 E.35198
G1 X91.679 Y44.592 E.03297
G1 X96.304 Y49.217 E.34913
G2 X96.289 Y49.82 I5.321 J.433 E.0322
G1 X91.679 Y45.21 E.34801
G1 X91.679 Y45.827 E.03297
G1 X96.299 Y50.447 E.34875
G2 X96.342 Y51.107 I6.136 J-.065 E.03533
G1 X91.679 Y46.445 E.35197
G1 X91.679 Y47.062 E.03297
G1 X96.419 Y51.802 E.35782
G1 X96.545 Y52.545 E.04022
G1 X91.679 Y47.68 E.36729
G1 X91.679 Y48.298 E.03297
G1 X96.725 Y53.343 E.38086
G1 X96.982 Y54.217 E.04867
G1 X91.679 Y48.915 E.40027
G1 X91.679 Y49.533 E.03297
G1 X97.353 Y55.206 E.42831
G2 X97.888 Y56.359 I18.316 J-7.804 E.06787
G1 X91.679 Y50.15 E.46872
G1 X91.679 Y50.768 E.03297
G1 X109.329 Y68.417 E1.33237
G1 X108.711 Y68.417 E.03297
G1 X91.679 Y51.386 E1.28574
G1 X91.679 Y52.003 E.03297
G1 X108.093 Y68.417 E1.23912
G1 X107.476 Y68.417 E.03297
G1 X91.679 Y52.621 E1.19249
G1 X91.679 Y53.239 E.03297
G1 X106.858 Y68.417 E1.14587
G1 X106.241 Y68.417 E.03297
G1 X91.679 Y53.856 E1.09924
G1 X91.679 Y54.474 E.03297
G1 X105.623 Y68.417 E1.05262
G1 X105.005 Y68.417 E.03297
G1 X91.679 Y55.091 E1.00599
G1 X91.679 Y55.709 E.03297
G1 X104.388 Y68.417 E.95937
G1 X103.77 Y68.417 E.03297
G1 X91.679 Y56.327 E.91274
G1 X91.679 Y56.944 E.03297
G1 X103.153 Y68.417 E.86612
G1 X102.535 Y68.417 E.03297
G1 X91.679 Y57.562 E.81949
G1 X91.679 Y58.179 E.03297
G1 X101.917 Y68.417 E.77287
G1 X101.3 Y68.417 E.03297
G1 X91.679 Y58.797 E.72624
G1 X91.679 Y59.415 E.03297
G1 X100.878 Y68.613 E.69442
; stop printing object CR-3D_Calibration_Cube_V2.STL id:0 copy 0
M106 S255
;LAYER_CHANGE
;Z:0.6
;HEIGHT:0.3
;BEFORE_LAYER_CHANGE
;0.6
G92 E0


G1 E-.9 F2700
G1 Z.7 F9000
;AFTER_LAYER_CHANGE
;0.6

M204 P1000
G10 S210 ; set nozzle temperature
; printing object CR-3D_Calibration_Cube_V2.STL id:0 copy 0
G1 X127.918 Y58.95
G1 Z.6
G1 E.9 F2100
;TYPE:Inner wall
;WIDTH:0.45
G1 F4800
G1 X127.764 Y58.919 E.00743
G1 X122.699 Y58.919 E.23871
G1 X122.306 Y59.008 E.01899
G1 X121.979 Y59.271 E.0198
G1 X121.804 Y59.649 E.01963
G1 X121.785 Y59.833 E.00872
G1 X121.785 Y64.455 E.21787
G1 X121.051 Y64.455 E.03463
G1 X120.992 Y64.281 E.00869
G1 X120.614 Y63.989 E.02253
G1 X120.264 Y63.919 E.01681
G1 X115.199 Y63.919 E.23871
G1 X114.925 Y63.961 E.01309
G1 X114.586 Y64.155 E.01842
G1 X114.372 Y64.445 E.01696
