; HEADER_BLOCK_START
; generated by GalaxySlicer 1.0.0-alpha3 on 2023-08-11 at 16:19:10
; total layer number: 7
; HEADER_BLOCK_END

; THUMBNAIL_BLOCK_START
; THUMBNAIL_BLOCK_END

; external perimeters extrusion width = 0.40mm
; perimeters extrusion width = 0.45mm
; infill extrusion width = 0.45mm
; solid infill extrusion width = 0.48mm
; top infill extrusion width = 0.48mm
; first layer extrusion width = 0.50mm

; external perimeters extrusion width = 0.40mm
; perimeters extrusion width = 0.45mm
; infill extrusion width = 0.45mm
; solid infill extrusion width = 0.48mm
; top infill extrusion width = 0.48mm
; first layer extrusion width = 0.50mm

; external perimeters extrusion width = 0.40mm
; perimeters extrusion width = 0.45mm
; infill extrusion width = 0.45mm
; solid infill extrusion width = 0.48mm
; top infill extrusion width = 0.48mm
; first layer extrusion width = 0.50mm

; external perimeters extrusion width = 0.40mm
; perimeters extrusion width = 0.45mm
; infill extrusion width = 0.45mm
; solid infill extrusion width = 0.48mm
; top infill extrusion width = 0.48mm
; first layer extrusion width = 0.50mm

; external perimeters extrusion width = 0.40mm
; perimeters extrusion width = 0.45mm
; infill extrusion width = 0.45mm
; solid infill extrusion width = 0.48mm
; top infill extrusion width = 0.48mm
; first layer extrusion width = 0.50mm

; external perimeters extrusion width = 0.40mm
; perimeters extrusion width = 0.45mm
; infill extrusion width = 0.45mm
; solid infill extrusion width = 0.48mm
; top infill extrusion width = 0.48mm
; first layer extrusion width = 0.50mm

; external perimeters extrusion width = 0.40mm
; perimeters extrusion width = 0.45mm
; infill extrusion width = 0.45mm
; solid infill extrusion width = 0.48mm
; top infill extrusion width = 0.48mm
; first layer extrusion width = 0.50mm

; external perimeters extrusion width = 0.40mm
; perimeters extrusion width = 0.45mm
; infill extrusion width = 0.45mm
; solid infill extrusion width = 0.48mm
; top infill extrusion width = 0.48mm
; first layer extrusion width = 0.50mm

; external perimeters extrusion width = 0.40mm
; perimeters extrusion width = 0.45mm
; infill extrusion width = 0.45mm
; solid infill extrusion width = 0.48mm
; top infill extrusion width = 0.48mm
; first layer extrusion width = 0.50mm

; EXECUTABLE_BLOCK_START
M73 P0 R26
;TYPE:Custom
M83 ; use relative distances for extrusion
G90 ; use absolute coordinates
M140 S45 ; set final bed temp
M104 S180 ; set temporary nozzle temp to prevent oozing during homing
M557 X55.5:179.5 Y70.5:164.5 S25
G29 S2
G29 S0
M104 S220 ; set final nozzle temp
M190 S45 ; wait for bed temp to stabilize
M109 S220 ; wait for nozzle temp to stabilize
;M593 P"mzv" F59
;M572 D0 S0.06
G90
G1 Y10
M400
G1 Z0.6 F720
G92 E0
G1 X50  Y10 E9 F1000 ; intro line
G1 Y11
M400
G1 X100 Y11 E12.5 F1500 ; intro line
G92 E0
M566 X480.00 Y480.00 Z10.00 E1200.00 P1        ; set maximum instantaneous speed changes (mm/min) // same as M205 but with mm/min
M203 X10800.00 Y10800.00 Z1000.00 E3600.00     ; set maximum speeds (mm/min)
M201 X3000.00 Y3000.00 Z100.00 E3600.00        ; set accelerations (mm/s^2)
   
G90
G21
M83 ; use relative distances for extrusion
; filament start gcode
M106 S0
;LAYER_CHANGE
;Z:0.2
;HEIGHT:0.2
G1 E-.8 F1800
M204 P1000
M205 X9 Y9
; printing object flowrate_m20 id:7 copy 0
G1 X66.641 Y90.335 F15000
G1 Z.4
G1 Z.2
G1 E.8 F1800
;TYPE:Inner wall
;WIDTH:0.499999
G1 F3000
G1 X66.616 Y90.15 E.00557
G1 X66.469 Y89.839 E.01025
G1 X66.207 Y89.564 E.0113
G1 X65.892 Y89.398 E.01062
G1 X65.521 Y89.336 E.0112
G1 X56.664 Y89.336 E.26392
G1 X56.664 Y71.664 E.52656
G1 X94.336 Y71.664 E1.1225
G1 X94.336 Y89.336 E.52656
G1 X85.5 Y89.336 E.26328
G1 X85.289 Y89.352 E.00629
G1 X84.941 Y89.47 E.01097
G1 X84.613 Y89.733 E.01251
G1 X84.409 Y90.077 E.01194
G1 X84.336 Y90.479 E.01215
G1 X84.336 Y99.336 E.26392
G1 X66.664 Y99.336 E.52656
G1 X66.664 Y90.5 E.26328
G1 X66.65 Y90.395 E.00317
G1 X66.195 Y90.409 F15000
G1 F3000
G1 X66.178 Y90.282 E.00382
G1 X66.041 Y90.031 E.00851
G1 X65.795 Y89.85 E.00909
G1 X65.521 Y89.793 E.00833
G1 X56.207 Y89.793 E.27754
G1 X56.207 Y71.207 E.5538
G1 X94.793 Y71.207 E1.14974
G1 X94.793 Y89.793 E.5538
G1 X85.5 Y89.793 E.2769
G1 X85.31 Y89.814 E.0057
G1 X85.028 Y89.962 E.00949
G1 X84.853 Y90.197 E.00873
G1 X84.793 Y90.479 E.00857
G1 X84.793 Y99.793 E.27754
G1 X66.207 Y99.793 E.5538
G1 X66.207 Y90.5 E.2769
G1 X66.203 Y90.468 E.00096
G1 X65.75 Y90.479 F15000
;TYPE:Outer wall
G1 F3000
G1 X65.684 Y90.318 E.00519
G1 X65.521 Y90.25 E.00524
G1 X55.75 Y90.25 E.29116
G1 X55.75 Y70.75 E.58104
G1 X95.25 Y70.75 E1.17698
G1 X95.25 Y90.25 E.58104
G1 X85.479 Y90.25 E.29116
G1 X85.316 Y90.318 E.00524
G1 X85.25 Y90.479 E.00519
G1 X85.25 Y100.25 E.29116
G1 X65.75 Y100.25 E.58104
G1 X65.75 Y90.539 E.28937
G1 X65.764 Y90.447
G1 E-.64 F1800
;WIPE_START
G1 F3000
G1 X65.684 Y90.318 E-.01753
G1 X65.521 Y90.25 E-.01336
G1 X63.928 Y90.25 E-.12111
;WIPE_END
G1 E-.008 F1800
G1 X70.534 Y86.428 Z.6 F15000
G1 X94.199 Y72.736 Z.6
G1 Z.2
G1 E.8 F1800
;TYPE:Bottom surface
;WIDTH:0.504949
G1 F7500
G1 X93.47 Y72.007 E.03104
G1 X92.817 Y72.007 E.01968
G1 X93.993 Y73.183 E.05011
G1 X93.993 Y73.837 E.01968
G1 X92.163 Y72.007 E.07795
G1 X91.51 Y72.007 E.01968
G1 X93.993 Y74.49 E.10578
G1 X93.993 Y75.144 E.01968
G1 X90.856 Y72.007 E.13361
G1 X90.203 Y72.007 E.01968
G1 X93.993 Y75.797 E.16144
G1 X93.993 Y76.451 E.01968
G1 X89.549 Y72.007 E.18928
M73 P1 R26
G1 X88.896 Y72.007 E.01968
G1 X93.993 Y77.104 E.21711
G1 X93.993 Y77.757 E.01968
G1 X88.243 Y72.007 E.24494
G1 X87.589 Y72.007 E.01968
G1 X93.993 Y78.411 E.27277
G1 X93.993 Y79.064 E.01968
G1 X86.936 Y72.007 E.3006
G1 X86.282 Y72.007 E.01968
G1 X93.993 Y79.718 E.32844
G1 X93.993 Y80.371 E.01968
G1 X85.629 Y72.007 E.35627
G1 X84.976 Y72.007 E.01968
G1 X93.993 Y81.024 E.3841
G1 X93.993 Y81.678 E.01968
G1 X84.322 Y72.007 E.41193
G1 X83.669 Y72.007 E.01968
G1 X93.993 Y82.331 E.43977
G1 X93.993 Y82.985 E.01968
G1 X83.015 Y72.007 E.4676
G1 X82.362 Y72.007 E.01968
G1 X93.993 Y83.638 E.49543
G1 X93.993 Y84.291 E.01968
G1 X81.709 Y72.007 E.52326
G1 X81.055 Y72.007 E.01968
G1 X93.993 Y84.945 E.55109
G1 X93.993 Y85.598 E.01968
G1 X80.402 Y72.007 E.57893
G1 X79.748 Y72.007 E.01968
G1 X93.993 Y86.252 E.60676
G1 X93.993 Y86.905 E.01968
G1 X79.095 Y72.007 E.63459
G1 X78.442 Y72.007 E.01968
G1 X93.993 Y87.558 E.66242
G1 X93.993 Y88.212 E.01968
G1 X77.788 Y72.007 E.69026
G1 X77.135 Y72.007 E.01968
G1 X93.993 Y88.865 E.71809
G1 X93.993 Y88.993 E.00385
G1 X93.468 Y88.993 E.01582
G1 X76.481 Y72.007 E.72355
G1 X75.828 Y72.007 E.01968
G1 X92.815 Y88.994 E.72356
G1 X92.162 Y88.994 E.01967
G1 X75.175 Y72.007 E.72358
G1 X74.521 Y72.007 E.01968
G1 X91.509 Y88.994 E.72359
G1 X90.856 Y88.995 E.01967
G1 X73.868 Y72.007 E.72361
G1 X73.214 Y72.007 E.01968
G1 X90.203 Y88.995 E.72362
G1 X89.549 Y88.996 E.01967
G1 X72.561 Y72.007 E.72364
G1 X71.907 Y72.007 E.01968
G1 X88.896 Y88.996 E.72365
G1 X88.243 Y88.996 E.01967
G1 X71.254 Y72.007 E.72367
G1 X70.601 Y72.007 E.01968
G1 X87.59 Y88.997 E.72368
G1 X86.937 Y88.997 E.01967
G1 X69.947 Y72.007 E.7237
G1 X69.294 Y72.007 E.01968
G1 X86.284 Y88.997 E.72371
G1 X85.631 Y88.998 E.01967
G1 X68.64 Y72.007 E.72373
G1 X67.987 Y72.007 E.01968
G1 X85.043 Y89.062 E.72649
G1 X84.885 Y89.116 E.005
G1 X84.678 Y89.227 E.00707
G1 X84.609 Y89.282 E.00267
G1 X67.334 Y72.007 E.73585
G1 X66.68 Y72.007 E.01968
G1 X84.28 Y89.607 E.74967
G1 X84.123 Y89.87 E.00922
G1 X84.065 Y90.045 E.00556
G1 X66.027 Y72.007 E.76833
G1 X65.373 Y72.007 E.01968
G1 X83.997 Y90.63 E.79327
G1 X83.996 Y91.283 E.01967
G1 X64.72 Y72.007 E.82109
G1 X64.067 Y72.007 E.01968
G1 X83.996 Y91.937 E.84891
G1 X83.996 Y92.59 E.01967
G1 X63.413 Y72.007 E.87673
G1 X62.76 Y72.007 E.01968
G1 X83.996 Y93.243 E.90455
G1 X83.995 Y93.896 E.01967
G1 X62.106 Y72.007 E.93237
G1 X61.453 Y72.007 E.01968
G1 X83.995 Y94.549 E.96019
G1 X83.995 Y95.202 E.01967
G1 X60.8 Y72.007 E.98801
G1 X60.146 Y72.007 E.01968
G1 X83.994 Y95.855 E1.01583
G1 X83.994 Y96.508 E.01967
G1 X59.493 Y72.007 E1.04365
G1 X58.839 Y72.007 E.01968
G1 X83.994 Y97.162 E1.07147
G1 X83.994 Y97.815 E.01967
G1 X58.186 Y72.007 E1.09929
G1 X57.533 Y72.007 E.01968
G1 X83.993 Y98.468 E1.12711
G1 X83.993 Y98.993 E.01582
G1 X83.865 Y98.993 E.00385
G1 X57.007 Y72.135 E1.14404
M73 P2 R26
G1 X57.007 Y72.788 E.01968
G1 X83.212 Y98.993 E1.11621
G1 X82.558 Y98.993 E.01968
G1 X57.007 Y73.442 E1.08838
G1 X57.007 Y74.095 E.01968
G1 X81.905 Y98.993 E1.06055
G1 X81.252 Y98.993 E.01968
G1 X57.007 Y74.748 E1.03271
G1 X57.007 Y75.402 E.01968
G1 X80.598 Y98.993 E1.00488
G1 X79.945 Y98.993 E.01968
G1 X57.007 Y76.055 E.97705
G1 X57.007 Y76.709 E.01968
G1 X79.291 Y98.993 E.94922
G1 X78.638 Y98.993 E.01968
G1 X57.007 Y77.362 E.92138
G1 X57.007 Y78.015 E.01968
G1 X77.985 Y98.993 E.89355
G1 X77.331 Y98.993 E.01968
G1 X57.007 Y78.669 E.86572
G1 X57.007 Y79.322 E.01968
G1 X76.678 Y98.993 E.83789
G1 X76.024 Y98.993 E.01968
G1 X57.007 Y79.976 E.81005
G1 X57.007 Y80.629 E.01968
G1 X65.376 Y88.998 E.35646
G1 X64.722 Y88.997 E.01969
G1 X57.007 Y81.283 E.32862
G1 X57.007 Y81.936 E.01968
G1 X64.068 Y88.997 E.30077
G1 X63.414 Y88.997 E.01969
G1 X57.007 Y82.589 E.27292
G1 X57.007 Y83.243 E.01968
G1 X62.76 Y88.996 E.24507
G1 X62.107 Y88.996 E.01969
G1 X57.007 Y83.896 E.21723
G1 X57.007 Y84.55 E.01968
G1 X61.453 Y88.996 E.18938
G1 X60.799 Y88.995 E.01969
G1 X57.007 Y85.203 E.16153
G1 X57.007 Y85.856 E.01968
G1 X60.145 Y88.995 E.13368
G1 X59.492 Y88.994 E.01969
G1 X57.007 Y86.51 E.10584
G1 X57.007 Y87.163 E.01968
G1 X58.838 Y88.994 E.07799
G1 X58.184 Y88.994 E.01969
G1 X57.007 Y87.817 E.05014
G1 X57.007 Y88.47 E.01968
G1 X57.736 Y89.199 E.03106
G1 E-.64 F1800
;WIPE_START
G1 F7500
G1 X57.007 Y88.47 E-.07837
G1 X57.007 Y87.817 E-.04966
G1 X57.23 Y88.04 E-.02397
;WIPE_END
G1 E-.008 F1800
G1 X64.637 Y89.882 Z.6 F15000
G1 X66.797 Y90.42 Z.6
G1 Z.2
G1 E.8 F1800
G1 F7500
G1 X75.371 Y98.993 E.36519
G1 X74.717 Y98.993 E.01968
G1 X67.004 Y91.279 E.32858
G1 X67.004 Y91.933 E.01969
G1 X74.064 Y98.993 E.30074
G1 X73.411 Y98.993 E.01968
G1 X67.004 Y92.586 E.27289
G1 X67.004 Y93.24 E.01969
G1 X72.757 Y98.993 E.24505
G1 X72.104 Y98.993 E.01968
G1 X67.005 Y93.894 E.2172
G1 X67.005 Y94.548 E.01969
G1 X71.45 Y98.993 E.18936
G1 X70.797 Y98.993 E.01968
G1 X67.005 Y95.201 E.16151
G1 X67.006 Y95.855 E.01969
G1 X70.144 Y98.993 E.13367
G1 X69.49 Y98.993 E.01968
G1 X67.006 Y96.509 E.10583
G1 X67.006 Y97.162 E.01969
G1 X68.837 Y98.993 E.07798
G1 X68.183 Y98.993 E.01968
G1 X67.006 Y97.816 E.05014
G1 X67.007 Y98.47 E.01969
G1 X67.736 Y99.199 E.03105
; stop printing object flowrate_m20 id:7 copy 0
; printing object flowrate_5 id:4 copy 0
G1 E-.64 F1800
;WIPE_START
G1 F7500
G1 X67.007 Y98.47 E-.07836
G1 X67.006 Y97.816 E-.04968
G1 X67.229 Y98.039 E-.02396
;WIPE_END
G1 E-.008 F1800
G1 X67.045 Y105.669 Z.6 F15000
G1 X66.641 Y122.335 Z.6
G1 Z.2
G1 E.8 F1800
;TYPE:Inner wall
;WIDTH:0.499999
G1 F3000
G1 X66.616 Y122.15 E.00731
G1 X66.469 Y121.839 E.01346
G1 X66.207 Y121.564 E.01484
G1 X65.892 Y121.398 E.01394
G1 X65.521 Y121.336 E.01469
G1 X56.664 Y121.336 E.3464
G1 X56.664 Y103.664 E.69111
G1 X94.336 Y103.664 E1.47328
G1 X94.336 Y121.336 E.69111
G1 X85.5 Y121.336 E.34556
G1 X85.289 Y121.352 E.00826
G1 X84.941 Y121.47 E.0144
G1 X84.613 Y121.733 E.01642
G1 X84.409 Y122.077 E.01567
G1 X84.336 Y122.479 E.01595
G1 X84.336 Y131.336 E.3464
G1 X66.664 Y131.336 E.69111
G1 X66.664 Y122.5 E.34556
G1 X66.65 Y122.395 E.00415
G1 X66.195 Y122.409 F15000
G1 F3000
G1 X66.178 Y122.282 E.00501
G1 X66.041 Y122.031 E.01117
G1 X65.795 Y121.85 E.01193
G1 X65.521 Y121.793 E.01094
G1 X56.207 Y121.793 E.36427
G1 X56.207 Y103.207 E.72686
M73 P2 R25
G1 X94.793 Y103.207 E1.50903
G1 X94.793 Y121.793 E.72686
G1 X85.5 Y121.793 E.36343
G1 X85.31 Y121.814 E.00749
G1 X85.028 Y121.962 E.01246
G1 X84.853 Y122.197 E.01145
G1 X84.793 Y122.479 E.01125
G1 X84.793 Y131.793 E.36427
G1 X66.207 Y131.793 E.72686
G1 X66.207 Y122.5 E.36343
G1 X66.203 Y122.468 E.00126
G1 X65.75 Y122.479 F15000
;TYPE:Outer wall
G1 F3000
G1 X65.684 Y122.318 E.00681
G1 X65.521 Y122.25 E.00688
G1 X55.75 Y122.25 E.38215
M73 P3 R25
G1 X55.75 Y102.75 E.76261
G1 X95.25 Y102.75 E1.54478
G1 X95.25 Y122.25 E.76261
G1 X85.479 Y122.25 E.38215
G1 X85.316 Y122.318 E.00688
G1 X85.25 Y122.479 E.00681
G1 X85.25 Y132.25 E.38215
G1 X65.75 Y132.25 E.76261
G1 X65.75 Y122.539 E.3798
G1 X65.764 Y122.447
G1 E-.64 F1800
;WIPE_START
G1 F3000
G1 X65.684 Y122.318 E-.01753
G1 X65.521 Y122.25 E-.01336
G1 X63.928 Y122.25 E-.12111
;WIPE_END
G1 E-.008 F1800
G1 X70.534 Y118.428 Z.6 F15000
G1 X94.199 Y104.736 Z.6
G1 Z.2
G1 E.8 F1800
;TYPE:Bottom surface
;WIDTH:0.504949
G1 F7420.685
G1 X93.47 Y104.007 E.04074
G1 X92.817 Y104.007 E.02583
G1 X93.993 Y105.183 E.06577
G1 X93.993 Y105.837 E.02583
G1 X92.163 Y104.007 E.1023
G1 X91.51 Y104.007 E.02583
G1 X93.993 Y106.49 E.13883
G1 X93.993 Y107.144 E.02583
G1 X90.856 Y104.007 E.17536
G1 X90.203 Y104.007 E.02583
G1 X93.993 Y107.797 E.21189
G1 X93.993 Y108.451 E.02583
G1 X89.549 Y104.007 E.24842
G1 X88.896 Y104.007 E.02583
G1 X93.993 Y109.104 E.28495
G1 X93.993 Y109.757 E.02583
G1 X88.243 Y104.007 E.32148
G1 X87.589 Y104.007 E.02583
G1 X93.993 Y110.411 E.35801
G1 X93.993 Y111.064 E.02583
G1 X86.936 Y104.007 E.39454
G1 X86.282 Y104.007 E.02583
G1 X93.993 Y111.718 E.43107
G1 X93.993 Y112.371 E.02583
G1 X85.629 Y104.007 E.4676
G1 X84.976 Y104.007 E.02583
G1 X93.993 Y113.024 E.50413
G1 X93.993 Y113.678 E.02583
G1 X84.322 Y104.007 E.54066
G1 X83.669 Y104.007 E.02583
G1 X93.993 Y114.331 E.57719
G1 X93.993 Y114.985 E.02583
G1 X83.015 Y104.007 E.61372
G1 X82.362 Y104.007 E.02583
G1 X93.993 Y115.638 E.65025
G1 X93.993 Y116.291 E.02583
G1 X81.709 Y104.007 E.68678
G1 X81.055 Y104.007 E.02583
G1 X93.993 Y116.945 E.72331
G1 X93.993 Y117.598 E.02583
G1 X80.402 Y104.007 E.75984
G1 X79.748 Y104.007 E.02583
G1 X93.993 Y118.252 E.79637
G1 X93.993 Y118.905 E.02583
G1 X79.095 Y104.007 E.8329
G1 X78.442 Y104.007 E.02583
G1 X93.993 Y119.558 E.86943
G1 X93.993 Y120.212 E.02583
G1 X77.788 Y104.007 E.90596
G1 X77.135 Y104.007 E.02583
G1 X93.993 Y120.865 E.94249
G1 X93.993 Y120.993 E.00505
G1 X93.468 Y120.993 E.02076
G1 X76.481 Y104.007 E.94966
G1 X75.828 Y104.007 E.02583
G1 X92.815 Y120.994 E.94967
G1 X92.162 Y120.994 E.02582
G1 X75.175 Y104.007 E.94969
G1 X74.521 Y104.007 E.02583
G1 X91.509 Y120.994 E.94971
G1 X90.856 Y120.995 E.02582
G1 X73.868 Y104.007 E.94973
G1 X73.214 Y104.007 E.02583
G1 X90.203 Y120.995 E.94975
G1 X89.549 Y120.996 E.02582
G1 X72.561 Y104.007 E.94977
G1 X71.907 Y104.007 E.02583
G1 X88.896 Y120.996 E.94979
G1 X88.243 Y120.996 E.02582
G1 X71.254 Y104.007 E.94981
G1 X70.601 Y104.007 E.02583
G1 X87.59 Y120.997 E.94983
G1 X86.937 Y120.997 E.02582
G1 X69.947 Y104.007 E.94985
G1 X69.294 Y104.007 E.02583
G1 X86.284 Y120.997 E.94987
G1 X85.631 Y120.998 E.02582
G1 X68.64 Y104.007 E.94989
G1 X67.987 Y104.007 E.02583
G1 X85.043 Y121.062 E.95351
G1 X84.885 Y121.116 E.00657
G1 X84.678 Y121.227 E.00928
G1 X84.609 Y121.282 E.00351
G1 X67.334 Y104.007 E.96581
G1 X66.68 Y104.007 E.02583
G1 X84.28 Y121.607 E.98395
G1 X84.123 Y121.87 E.0121
G1 X84.065 Y122.045 E.0073
G1 X66.027 Y104.007 E1.00843
G1 X65.373 Y104.007 E.02583
G1 X83.997 Y122.63 E1.04117
G1 X83.996 Y123.283 E.02582
G1 X64.72 Y104.007 E1.07768
G1 X64.067 Y104.007 E.02583
G1 X83.996 Y123.937 E1.1142
G1 X83.996 Y124.59 E.02582
G1 X63.413 Y104.007 E1.15071
M73 P4 R25
G1 X62.76 Y104.007 E.02583
G1 X83.996 Y125.243 E1.18723
G1 X83.995 Y125.896 E.02582
G1 X62.106 Y104.007 E1.22374
G1 X61.453 Y104.007 E.02583
G1 X83.995 Y126.549 E1.26025
G1 X83.995 Y127.202 E.02582
G1 X60.8 Y104.007 E1.29677
G1 X60.146 Y104.007 E.02583
G1 X83.994 Y127.855 E1.33328
G1 X83.994 Y128.508 E.02582
G1 X59.493 Y104.007 E1.36979
G1 X58.839 Y104.007 E.02583
G1 X83.994 Y129.162 E1.40631
G1 X83.994 Y129.815 E.02582
G1 X58.186 Y104.007 E1.44282
G1 X57.533 Y104.007 E.02583
G1 X83.993 Y130.468 E1.47934
G1 X83.993 Y130.993 E.02077
G1 X83.865 Y130.993 E.00506
G1 X57.007 Y104.135 E1.50156
G1 X57.007 Y104.788 E.02583
G1 X83.212 Y130.993 E1.46503
G1 X82.558 Y130.993 E.02583
G1 X57.007 Y105.442 E1.4285
