; HEADER_BLOCK_START
; generated by GalaxySlicer 1.0.0-beta on 2023-09-04 at 20:40:00
; total layer number: 7
; HEADER_BLOCK_END

; THUMBNAIL_BLOCK_START
; THUMBNAIL_BLOCK_END

; external perimeters extrusion width = 0.42mm
; perimeters extrusion width = 0.45mm
; infill extrusion width = 0.45mm
; solid infill extrusion width = 0.48mm
; top infill extrusion width = 0.48mm
; first layer extrusion width = 0.43mm

; external perimeters extrusion width = 0.42mm
; perimeters extrusion width = 0.45mm
; infill extrusion width = 0.45mm
; solid infill extrusion width = 0.48mm
; top infill extrusion width = 0.48mm
; first layer extrusion width = 0.43mm

; external perimeters extrusion width = 0.42mm
; perimeters extrusion width = 0.45mm
; infill extrusion width = 0.45mm
; solid infill extrusion width = 0.48mm
; top infill extrusion width = 0.48mm
; first layer extrusion width = 0.43mm

; external perimeters extrusion width = 0.42mm
; perimeters extrusion width = 0.45mm
; infill extrusion width = 0.45mm
; solid infill extrusion width = 0.48mm
; top infill extrusion width = 0.48mm
; first layer extrusion width = 0.43mm

; external perimeters extrusion width = 0.42mm
; perimeters extrusion width = 0.45mm
; infill extrusion width = 0.45mm
; solid infill extrusion width = 0.48mm
; top infill extrusion width = 0.48mm
; first layer extrusion width = 0.43mm

; external perimeters extrusion width = 0.42mm
; perimeters extrusion width = 0.45mm
; infill extrusion width = 0.45mm
; solid infill extrusion width = 0.48mm
; top infill extrusion width = 0.48mm
; first layer extrusion width = 0.43mm

; external perimeters extrusion width = 0.42mm
; perimeters extrusion width = 0.45mm
; infill extrusion width = 0.45mm
; solid infill extrusion width = 0.48mm
; top infill extrusion width = 0.48mm
; first layer extrusion width = 0.43mm

; external perimeters extrusion width = 0.42mm
; perimeters extrusion width = 0.45mm
; infill extrusion width = 0.45mm
; solid infill extrusion width = 0.48mm
; top infill extrusion width = 0.48mm
; first layer extrusion width = 0.43mm

; external perimeters extrusion width = 0.42mm
; perimeters extrusion width = 0.45mm
; infill extrusion width = 0.45mm
; solid infill extrusion width = 0.48mm
; top infill extrusion width = 0.48mm
; first layer extrusion width = 0.43mm

; external perimeters extrusion width = 0.42mm
; perimeters extrusion width = 0.45mm
; infill extrusion width = 0.45mm
; solid infill extrusion width = 0.48mm
; top infill extrusion width = 0.48mm
; first layer extrusion width = 0.43mm

; EXECUTABLE_BLOCK_START
M73 P0 R42
;TYPE:Custom
G90 ; use absolute coordinates
M83 ; extruder relative mode
M104 S110
M140 S60 ; set bed temp

M104 S170 ; set extruder temp for bed leveling
M109 S170 ; wait for temp

M302 S160 ; lower cold extrusion limit to 160C

G1 E-2 F2400 ; retraction

M106 S100
M190 S60 ; wait for bed temp
M107
M557 X55.5:179.5 Y54.5:180.5 S25
G29 S2
G29 S0
; prepare for purge
G0 X0 Y0 F2800
M104 S220
M109 S220
G92 E0
;
; Extrude purge line
;
G92 E0 ; reset extruder position
G1 E2 F2400 ; deretraction after the initial one before nozzle cleaning

G0 E7 X-5 Y-7 Z0.6 F500 ; purge
G0 X5 E4 F500 ; purge
G0 X15 E4 F650 ; purge
G0 X25 E4 F800 ; purge
G0 X38 Z0.3 F8000 ; wipe, move close to the bed
G0 X51 Z0.5 F8000 ; wipe, move quickly away from the bed
G92 E0
M221 S100 ; set flow to 100%
M593 P"mzv" F43.6
G90
G21
M83 ; use relative distances for extrusion
; filament start gcode
M572 D0 S0.08; Override pressure advance value
M106 S0
;LAYER_CHANGE
;Z:0.25
;HEIGHT:0.25
;BEFORE_LAYER_CHANGE
;0.25
G92 E0

G1 E-.8 F1800
;AFTER_LAYER_CHANGE
;0.25

;_SET_FAN_SPEED_CHANGING_LAYER
M204 P500
; printing object flowrate_m3 id:13441382585338656353 copy 0
M204 T500
G1 Z.4 F4500
G1 X149.715 Y138.5
G1 Z.4
G1 Z.25
G1 E.8 F1800
;TYPE:Outer wall
;WIDTH:0.429999
G1 F2100
G1 X149.669 Y138.35 E.00582
G1 X149.527 Y138.285 E.00583
G1 X139.715 Y138.285 E.36485
G1 X139.715 Y118.715 E.7277
G1 X179.285 Y118.715 E1.47139
G1 X179.285 Y138.285 E.7277
G1 X169.5 Y138.285 E.36385
G1 X169.349 Y138.331 E.00586
G1 X169.285 Y138.473 E.00579
G1 X169.285 Y148.285 E.36485
G1 X149.715 Y148.285 E.7277
G1 X149.715 Y138.54 E.36236
G1 E-.8 F1800
G1 Z.65 F4500
G1 X179.172 Y119.592 Z.65
G1 Z.25
G1 E.8 F1800
;TYPE:Bottom surface
;WIDTH:0.431397
G1 F3600
G1 X178.578 Y118.997 E.03137
G1 X178.043 Y118.997 E.01994
G1 X179.003 Y119.957 E.05063
G1 X179.003 Y120.491 E.01994
G1 X177.509 Y118.997 E.07883
G1 X176.975 Y118.997 E.01994
G1 X179.003 Y121.025 E.10703
G1 X179.003 Y121.559 E.01994
G1 X176.441 Y118.997 E.13522
G1 X175.907 Y118.997 E.01994
G1 X179.003 Y122.093 E.16342
G1 X179.003 Y122.628 E.01994
G1 X175.372 Y118.997 E.19162
G1 X174.838 Y118.997 E.01994
G1 X179.003 Y123.162 E.21981
G1 X179.003 Y123.696 E.01994
G1 X174.304 Y118.997 E.24801
G1 X173.77 Y118.997 E.01994
G1 X179.003 Y124.23 E.27621
G1 X179.003 Y124.764 E.01994
G1 X173.236 Y118.997 E.30441
G1 X172.701 Y118.997 E.01994
G1 X179.003 Y125.299 E.3326
G1 X179.003 Y125.833 E.01994
G1 X172.167 Y118.997 E.3608
G1 X171.633 Y118.997 E.01994
G1 X179.003 Y126.367 E.389
G1 X179.003 Y126.901 E.01994
G1 X171.099 Y118.997 E.41719
G1 X170.564 Y118.997 E.01994
G1 X179.003 Y127.436 E.44539
G1 X179.003 Y127.97 E.01994
G1 X170.03 Y118.997 E.47359
G1 X169.496 Y118.997 E.01994
G1 X179.003 Y128.504 E.50178
G1 X179.003 Y129.038 E.01994
G1 X168.962 Y118.997 E.52998
G1 X168.428 Y118.997 E.01994
G1 X179.003 Y129.572 E.55818
G1 X179.003 Y130.107 E.01994
G1 X167.893 Y118.997 E.58638
G1 X167.359 Y118.997 E.01994
G1 X179.003 Y130.641 E.61457
G1 X179.003 Y131.175 E.01994
G1 X166.825 Y118.997 E.64277
G1 X166.291 Y118.997 E.01994
G1 X179.003 Y131.709 E.67097
G1 X179.003 Y132.243 E.01994
G1 X165.757 Y118.997 E.69916
G1 X165.222 Y118.997 E.01994
G1 X179.003 Y132.778 E.72736
G1 X179.003 Y133.312 E.01994
G1 X164.688 Y118.997 E.75556
G1 X164.154 Y118.997 E.01994
G1 X179.003 Y133.846 E.78376
G1 X179.003 Y134.38 E.01994
G1 X163.62 Y118.997 E.81195
G1 X163.085 Y118.997 E.01994
G1 X179.003 Y134.915 E.84015
G1 X179.003 Y135.449 E.01994
G1 X162.551 Y118.997 E.86835
G1 X162.017 Y118.997 E.01994
G1 X179.003 Y135.983 E.89654
G1 X179.003 Y136.517 E.01994
G1 X161.483 Y118.997 E.92474
G1 X160.949 Y118.997 E.01994
G1 X179.003 Y137.051 E.95294
G1 X179.003 Y137.586 E.01994
G1 X160.414 Y118.997 E.98113
G1 X159.88 Y118.997 E.01994
G1 X178.886 Y138.003 E1.00315
G1 X178.351 Y138.003 E.01994
G1 X159.346 Y118.997 E1.00315
G1 X158.812 Y118.997 E.01994
G1 X177.817 Y138.003 E1.00315
G1 X177.283 Y138.003 E.01994
G1 X158.278 Y118.997 E1.00315
G1 X157.743 Y118.997 E.01994
G1 X176.749 Y138.003 E1.00315
G1 X176.215 Y138.003 E.01994
G1 X157.209 Y118.997 E1.00315
G1 X156.675 Y118.997 E.01994
G1 X175.68 Y138.003 E1.00315
G1 X175.146 Y138.003 E.01994
M73 P1 R42
G1 X156.141 Y118.997 E1.00315
G1 X155.606 Y118.997 E.01994
G1 X174.612 Y138.003 E1.00315
G1 X174.078 Y138.003 E.01994
G1 X155.072 Y118.997 E1.00315
G1 X154.538 Y118.997 E.01994
G1 X173.544 Y138.003 E1.00315
G1 X173.009 Y138.003 E.01994
G1 X154.004 Y118.997 E1.00315
G1 X153.47 Y118.997 E.01994
G1 X172.475 Y138.003 E1.00315
G1 X171.941 Y138.003 E.01994
G1 X152.935 Y118.997 E1.00315
G1 X152.401 Y118.997 E.01994
G1 X171.407 Y138.003 E1.00315
G1 X170.872 Y138.003 E.01994
G1 X151.867 Y118.997 E1.00315
G1 X151.333 Y118.997 E.01994
G1 X170.338 Y138.003 E1.00315
G1 X169.804 Y138.003 E.01994
G1 X150.799 Y118.997 E1.00315
G1 X150.264 Y118.997 E.01994
G1 X169.303 Y138.036 E1.00492
G1 X169.137 Y138.141 E.00734
G1 X169.034 Y138.302 E.0071
G1 X149.73 Y118.997 E1.01892
G1 X149.196 Y118.997 E.01994
G1 X169.003 Y138.804 E1.04545
G1 X169.003 Y139.338 E.01994
G1 X148.662 Y118.997 E1.07365
G1 X148.127 Y118.997 E.01994
G1 X169.003 Y139.873 E1.10185
G1 X169.003 Y140.407 E.01994
G1 X147.593 Y118.997 E1.13004
G1 X147.059 Y118.997 E.01994
G1 X169.003 Y140.941 E1.15824
G1 X169.003 Y141.475 E.01994
G1 X146.525 Y118.997 E1.18644
G1 X145.991 Y118.997 E.01994
G1 X169.003 Y142.009 E1.21463
G1 X169.003 Y142.544 E.01994
G1 X145.456 Y118.997 E1.24283
G1 X144.922 Y118.997 E.01994
G1 X169.003 Y143.078 E1.27103
G1 X169.003 Y143.612 E.01994
G1 X144.388 Y118.997 E1.29922
G1 X143.854 Y118.997 E.01994
G1 X169.003 Y144.146 E1.32742
G1 X169.003 Y144.68 E.01994
G1 X143.32 Y118.997 E1.35562
G1 X142.785 Y118.997 E.01994
G1 X169.003 Y145.215 E1.38382
G1 X169.003 Y145.749 E.01994
G1 X142.251 Y118.997 E1.41201
G1 X141.717 Y118.997 E.01994
G1 X169.003 Y146.283 E1.44021
G1 X169.003 Y146.817 E.01994
G1 X141.183 Y118.997 E1.46841
G1 X140.648 Y118.997 E.01994
G1 X169.003 Y147.352 E1.4966
G1 X169.003 Y147.886 E.01994
G1 X140.114 Y118.997 E1.5248
G1 X139.997 Y118.997 E.00437
G1 X139.997 Y119.414 E.01557
G1 X168.586 Y148.003 E1.50895
G1 X168.051 Y148.003 E.01994
G1 X139.997 Y119.949 E1.48076
M73 P1 R41
G1 X139.997 Y120.483 E.01994
G1 X167.517 Y148.003 E1.45256
G1 X166.983 Y148.003 E.01994
G1 X139.997 Y121.017 E1.42436
G1 X139.997 Y121.551 E.01994
G1 X166.449 Y148.003 E1.39616
G1 X165.914 Y148.003 E.01994
G1 X139.997 Y122.086 E1.36797
G1 X139.997 Y122.62 E.01994
G1 X165.38 Y148.003 E1.33977
G1 X164.846 Y148.003 E.01994
G1 X139.997 Y123.154 E1.31157
G1 X139.997 Y123.688 E.01994
G1 X164.312 Y148.003 E1.28338
G1 X163.778 Y148.003 E.01994
M73 P2 R41
G1 X139.997 Y124.222 E1.25518
G1 X139.997 Y124.757 E.01994
G1 X163.243 Y148.003 E1.22698
G1 X162.709 Y148.003 E.01994
G1 X139.997 Y125.291 E1.19879
G1 X139.997 Y125.825 E.01994
G1 X162.175 Y148.003 E1.17059
G1 X161.641 Y148.003 E.01994
G1 X139.997 Y126.359 E1.14239
G1 X139.997 Y126.893 E.01994
G1 X161.107 Y148.003 E1.11419
G1 X160.572 Y148.003 E.01994
G1 X139.997 Y127.428 E1.086
G1 X139.997 Y127.962 E.01994
G1 X160.038 Y148.003 E1.0578
G1 X159.504 Y148.003 E.01994
G1 X139.997 Y128.496 E1.0296
G1 X139.997 Y129.03 E.01994
G1 X148.97 Y138.003 E.47358
G1 X148.435 Y138.003 E.01994
G1 X139.997 Y129.565 E.44539
G1 X139.997 Y130.099 E.01994
G1 X147.901 Y138.003 E.41719
G1 X147.367 Y138.003 E.01994
G1 X139.997 Y130.633 E.38899
G1 X139.997 Y131.167 E.01994
G1 X146.833 Y138.003 E.3608
G1 X146.299 Y138.003 E.01994
G1 X139.997 Y131.701 E.3326
G1 X139.997 Y132.236 E.01994
G1 X145.764 Y138.003 E.3044
G1 X145.23 Y138.003 E.01994
G1 X139.997 Y132.77 E.2762
G1 X139.997 Y133.304 E.01994
G1 X144.696 Y138.003 E.24801
G1 X144.162 Y138.003 E.01994
G1 X139.997 Y133.838 E.21981
G1 X139.997 Y134.372 E.01994
G1 X143.628 Y138.003 E.19161
G1 X143.093 Y138.003 E.01994
G1 X139.997 Y134.907 E.16342
G1 X139.997 Y135.441 E.01994
G1 X142.559 Y138.003 E.13522
G1 X142.025 Y138.003 E.01994
G1 X139.997 Y135.975 E.10702
G1 X139.997 Y136.509 E.01994
G1 X141.491 Y138.003 E.07882
G1 X140.956 Y138.003 E.01994
G1 X139.997 Y137.044 E.05063
G1 X139.997 Y137.578 E.01994
G1 X140.592 Y138.172 E.03137
G1 E-.64 F1800
;WIPE_START
G1 F3600
G1 X139.997 Y137.578 E-.12776
G1 X139.997 Y137.418 E-.02425
;WIPE_END
G1 E-.008 F1800
G1 Z.65 F4500
G1 X140.065 Y137.428 Z.65
G1 X150.065 Y137.935
G1 X150.065 Y138.861
G1 X149.828 Y138.861
G1 Z.25
G1 E.8 F1800
G1 F3600
G1 X158.97 Y148.003 E.48252
G1 X158.435 Y148.003 E.01994
G1 X149.997 Y139.565 E.44539
G1 X149.997 Y140.099 E.01994
G1 X157.901 Y148.003 E.41719
G1 X157.367 Y148.003 E.01994
G1 X149.997 Y140.633 E.38899
G1 X149.997 Y141.167 E.01994
G1 X156.833 Y148.003 E.3608
G1 X156.299 Y148.003 E.01994
G1 X149.997 Y141.701 E.3326
G1 X149.997 Y142.236 E.01994
G1 X155.764 Y148.003 E.3044
G1 X155.23 Y148.003 E.01994
G1 X149.997 Y142.77 E.2762
G1 X149.997 Y143.304 E.01994
G1 X154.696 Y148.003 E.24801
G1 X154.162 Y148.003 E.01994
G1 X149.997 Y143.838 E.21981
G1 X149.997 Y144.373 E.01994
G1 X153.628 Y148.003 E.19161
G1 X153.093 Y148.003 E.01994
G1 X149.997 Y144.907 E.16342
G1 X149.997 Y145.441 E.01994
G1 X152.559 Y148.003 E.13522
G1 X152.025 Y148.003 E.01994
G1 X149.997 Y145.975 E.10702
G1 X149.997 Y146.509 E.01994
G1 X151.491 Y148.003 E.07882
G1 X150.956 Y148.003 E.01994
G1 X149.997 Y147.044 E.05063
G1 X149.997 Y147.578 E.01994
G1 X150.592 Y148.172 E.03137
; stop printing object flowrate_m3 id:13441382585338656353 copy 0
; printing object flowrate_m6 id:31084746153813366 copy 0
G1 E-.64 F1800
;WIPE_START
G1 F3600
G1 X149.997 Y147.578 E-.12775
G1 X149.997 Y147.418 E-.02425
;WIPE_END
G1 E-.008 F1800
G1 Z.65 F4500
G1 X149.715 Y106.5 Z.65
G1 Z.25
G1 E.8 F1800
;TYPE:Outer wall
;WIDTH:0.429999
G1 F2100
G1 X149.669 Y106.35 E.00564
G1 X149.527 Y106.285 E.00565
G1 X139.715 Y106.285 E.35356
G1 X139.715 Y86.715 E.7052
G1 X179.285 Y86.715 E1.42589
G1 X179.285 Y106.285 E.7052
G1 X169.5 Y106.285 E.3526
G1 X169.349 Y106.331 E.00568
G1 X169.285 Y106.473 E.00561
G1 X169.285 Y116.285 E.35356
G1 X149.715 Y116.285 E.7052
G1 X149.715 Y106.54 E.35116
G1 E-.8 F1800
G1 Z.65 F4500
G1 X179.172 Y87.592 Z.65
G1 Z.25
G1 E.8 F1800
;TYPE:Bottom surface
;WIDTH:0.431397
G1 F3600
G1 X178.578 Y86.997 E.0304
G1 X178.043 Y86.997 E.01932
G1 X179.003 Y87.957 E.04907
G1 X179.003 Y88.491 E.01932
G1 X177.509 Y86.997 E.07639
G1 X176.975 Y86.997 E.01932
G1 X179.003 Y89.025 E.10372
G1 X179.003 Y89.559 E.01932
G1 X176.441 Y86.997 E.13104
G1 X175.907 Y86.997 E.01932
G1 X179.003 Y90.093 E.15837
G1 X179.003 Y90.628 E.01932
G1 X175.372 Y86.997 E.18569
G1 X174.838 Y86.997 E.01932
G1 X179.003 Y91.162 E.21302
G1 X179.003 Y91.696 E.01932
G1 X174.304 Y86.997 E.24034
G1 X173.77 Y86.997 E.01932
G1 X179.003 Y92.23 E.26767
G1 X179.003 Y92.764 E.01932
G1 X173.236 Y86.997 E.29499
G1 X172.701 Y86.997 E.01932
G1 X179.003 Y93.299 E.32232
G1 X179.003 Y93.833 E.01932
G1 X172.167 Y86.997 E.34964
G1 X171.633 Y86.997 E.01932
G1 X179.003 Y94.367 E.37697
G1 X179.003 Y94.901 E.01932
G1 X171.099 Y86.997 E.40429
G1 X170.564 Y86.997 E.01932
G1 X179.003 Y95.436 E.43162
G1 X179.003 Y95.97 E.01932
G1 X170.03 Y86.997 E.45894
G1 X169.496 Y86.997 E.01932
G1 X179.003 Y96.504 E.48627
G1 X179.003 Y97.038 E.01932
G1 X168.962 Y86.997 E.51359
G1 X168.428 Y86.997 E.01932
G1 X179.003 Y97.572 E.54092
G1 X179.003 Y98.107 E.01932
M73 P3 R41
G1 X167.893 Y86.997 E.56824
G1 X167.359 Y86.997 E.01932
G1 X179.003 Y98.641 E.59557
G1 X179.003 Y99.175 E.01932
G1 X166.825 Y86.997 E.62289
G1 X166.291 Y86.997 E.01932
G1 X179.003 Y99.709 E.65022
G1 X179.003 Y100.243 E.01932
G1 X165.757 Y86.997 E.67754
G1 X165.222 Y86.997 E.01932
G1 X179.003 Y100.778 E.70487
G1 X179.003 Y101.312 E.01932
G1 X164.688 Y86.997 E.73219
G1 X164.154 Y86.997 E.01932
G1 X179.003 Y101.846 E.75952
G1 X179.003 Y102.38 E.01932
G1 X163.62 Y86.997 E.78684
G1 X163.085 Y86.997 E.01932
G1 X179.003 Y102.915 E.81417
G1 X179.003 Y103.449 E.01932
G1 X162.551 Y86.997 E.84149
G1 X162.017 Y86.997 E.01932
G1 X179.003 Y103.983 E.86882
G1 X179.003 Y104.517 E.01932
G1 X161.483 Y86.997 E.89614
G1 X160.949 Y86.997 E.01932
G1 X179.003 Y105.051 E.92347
G1 X179.003 Y105.586 E.01932
G1 X160.414 Y86.997 E.95079
G1 X159.88 Y86.997 E.01932
G1 X178.886 Y106.003 E.97213
G1 X178.351 Y106.003 E.01932
G1 X159.346 Y86.997 E.97213
G1 X158.812 Y86.997 E.01932
G1 X177.817 Y106.003 E.97213
G1 X177.283 Y106.003 E.01932
G1 X158.278 Y86.997 E.97213
G1 X157.743 Y86.997 E.01932
G1 X176.749 Y106.003 E.97213
G1 X176.215 Y106.003 E.01932
G1 X157.209 Y86.997 E.97213
G1 X156.675 Y86.997 E.01932
G1 X175.68 Y106.003 E.97213
G1 X175.146 Y106.003 E.01932
G1 X156.141 Y86.997 E.97213
G1 X155.606 Y86.997 E.01932
G1 X174.612 Y106.003 E.97213
G1 X174.078 Y106.003 E.01932
G1 X155.072 Y86.997 E.97213
G1 X154.538 Y86.997 E.01932
G1 X173.544 Y106.003 E.97213
G1 X173.009 Y106.003 E.01932
G1 X154.004 Y86.997 E.97213
G1 X153.47 Y86.997 E.01932
G1 X172.475 Y106.003 E.97213
G1 X171.941 Y106.003 E.01932
G1 X152.935 Y86.997 E.97213
G1 X152.401 Y86.997 E.01932
G1 X171.407 Y106.003 E.97213
G1 X170.872 Y106.003 E.01932
G1 X151.867 Y86.997 E.97213
G1 X151.333 Y86.997 E.01932
G1 X170.338 Y106.003 E.97213
G1 X169.804 Y106.003 E.01932
G1 X150.799 Y86.997 E.97213
G1 X150.264 Y86.997 E.01932
G1 X169.303 Y106.036 E.97384
G1 X169.137 Y106.141 E.00711
G1 X169.034 Y106.302 E.00688
G1 X149.73 Y86.997 E.98741
G1 X149.196 Y86.997 E.01932
G1 X169.003 Y106.804 E1.01312
G1 X169.003 Y107.338 E.01932
G1 X148.662 Y86.997 E1.04044
G1 X148.127 Y86.997 E.01932
G1 X169.003 Y107.873 E1.06777
G1 X169.003 Y108.407 E.01932
