; generated by PrusaSlicer 2.6.0+MacOS-arm64 on 2023-08-11 at 10:58:00 UTC


;
;

;
;
; 

; external perimeters extrusion width = 0.40mm
; perimeters extrusion width = 0.42mm
; infill extrusion width = 0.42mm
; solid infill extrusion width = 0.42mm
; top infill extrusion width = 0.42mm
; first layer extrusion width = 0.45mm

M73 P0 R32
;TYPE:Custom
M83 ; use relative distances for extrusion
G90 ; use absolute coordinates
M140 S60 ; set final bed temp
M104 S180 ; set temporary nozzle temp to prevent oozing during homing
M557 X87.0512:137.949 Y95.8012:129.199 S25
G29 S2
G29 S0
M104 S225 ; set final nozzle temp
M190 S60 ; wait for bed temp to stabilize
M109 S225 ; wait for nozzle temp to stabilize
;M98 P"sys/print_area_mesh.g" A87.0512 B137.949 C95.8012 D129.199



M593 P"mzv" F59
M572 D0 S0.06
;M572 D0 S0.11
;M207 S0.80 R0.0 F1620 T900 Z0.25 
;M592 D0 A0.018 B-0.0019 L0.2
;M98 P"0:/sys/primeLine.g"
;Prime Line
G1 Y10
M400
G1 Z0.6 F720
G92 E0
G1 X50  Y10 E9 F1000 ; intro line
G1 Y11
M400
G1 X100 Y11 E12.5 F1500 ; intro line
G92 E0
;M566 X1200.00 Y1200.00 Z10.00 E300 P1
;; set maximum speeds (mm/min)                                              
;M203 X18000.00 Y18000.00 Z600.00 E7200.00
;; set accelerations (mm/s^2)                                                                               
;M201 X2500.00 Y2500.00 Z200.00 E10000
;M204 P500 T2000

M566 X400.00 Y400.00 Z6.00 E120.00 P1          ; set maximum instantaneous speed changes (mm/min) // same as M205 but with mm/min
M203 X10800.00 Y10800.00 Z1000.00 E3600.00     ; set maximum speeds (mm/min)
M201 X3000.00 Y3000.00 Z100.00 E3600.00        ; set accelerations (mm/s^2)

G21 ; set units to millimeters
G90 ; use absolute coordinates
M83 ; use relative distances for extrusion
M572 D0 S0.035
M107
;LAYER_CHANGE
;Z:0.2
;HEIGHT:0.2
;BEFORE_LAYER_CHANGE
;0.2
G92 E0

G1 Z.2 F7200
;AFTER_LAYER_CHANGE
;0.2

G1 E-.8 F2400
G1 Z.6 F7200
M202 X2000 Y2000
G1 X91.401 Y98.53
G1 Z.2
G1 E.8 F1800
M201 X500 Y500
;TYPE:Skirt/Brim
;WIDTH:0.45
G1 F2400
G1 X92.599 Y97.678 E.04976
G1 X93.848 Y97.013 E.0479
G1 X95.224 Y96.494 E.04978
G1 X96.712 Y96.149 E.0517
G1 X98.458 Y96.007 E.0593
G1 X127.426 Y96.044 E.98053
G1 X129.041 Y96.297 E.05533
G1 X130.502 Y96.742 E.0517
G1 X131.839 Y97.354 E.04977
G1 X133.039 Y98.103 E.04788
G1 X134.177 Y99.035 E.04979
G1 X135.22 Y100.151 E.0517
G1 X136.072 Y101.35 E.04979
G1 X136.76 Y102.649 E.04976
G1 X137.256 Y103.974 E.04789
G1 X137.592 Y105.406 E.04979
G1 X137.743 Y107.206 E.06114
G1 X137.745 Y117.748 E.35683
G1 X137.699 Y118.747 E.03385
G1 X137.453 Y120.291 E.05292
G1 X137.028 Y121.699 E.04978
G1 X136.396 Y123.089 E.05168
G1 X135.647 Y124.29 E.04791
G1 X134.715 Y125.427 E.04976
G1 X133.599 Y126.47 E.0517
G1 X132.448 Y127.292 E.04788
G1 X131.152 Y127.987 E.04978
G1 X129.776 Y128.506 E.04978
G1 X128.288 Y128.851 E.0517
G1 X126.542 Y128.993 E.0593
G1 X98.501 Y128.995 E.94915
G1 X97.503 Y128.949 E.03382
G1 X95.904 Y128.69 E.05483
G1 X94.498 Y128.258 E.04979
G1 X93.211 Y127.672 E.04787
G1 X91.961 Y126.897 E.04978
G1 X90.823 Y125.966 E.04977
G1 X89.78 Y124.849 E.05173
G1 X88.928 Y123.65 E.04979
G1 X88.24 Y122.351 E.04976
G1 X87.727 Y120.972 E.0498
G1 X87.399 Y119.539 E.04976
G1 X87.257 Y117.794 E.05926
G1 X87.294 Y106.324 E.38825
G1 X87.56 Y104.654 E.05724
G1 X87.972 Y103.301 E.04787
G1 X88.578 Y101.961 E.04978
G1 X89.386 Y100.665 E.0517
G1 X90.323 Y99.532 E.04977
G1 X91.357 Y98.571 E.04778
M201 X1500 Y1500
G1 X91.633 Y98.869 F7200
M201 X500 Y500
G1 F2400
G1 X92.814 Y98.024 E.04915
G1 X94.016 Y97.384 E.04609
G1 X95.341 Y96.883 E.04795
G1 X96.778 Y96.551 E.04992
G1 X98.458 Y96.414 E.05705
G1 X127.391 Y96.45 E.97935
G1 X128.948 Y96.693 E.05334
G1 X130.358 Y97.123 E.0499
G1 X131.597 Y97.686 E.04607
G1 X132.802 Y98.434 E.04801
G1 X133.899 Y99.332 E.04799
G1 X134.905 Y100.409 E.04988
G1 X135.726 Y101.564 E.04797
G1 X136.389 Y102.817 E.04798
G1 X136.867 Y104.092 E.04609
G1 X137.19 Y105.472 E.04797
G1 X137.336 Y107.206 E.0589
G1 X137.338 Y117.748 E.35683
G1 X137.294 Y118.712 E.03266
G1 X137.057 Y120.198 E.05094
G1 X136.647 Y121.555 E.04798
G1 X136.037 Y122.897 E.0499
G1 X135.316 Y124.052 E.04609
G1 X134.419 Y125.149 E.04797
G1 X133.341 Y126.155 E.04991
G1 X132.234 Y126.946 E.04605
G1 X130.984 Y127.616 E.04801
G1 X129.658 Y128.117 E.04798
G1 X128.223 Y128.449 E.04986
G1 X126.542 Y128.586 E.05709
G1 X98.501 Y128.588 E.94915
G1 X97.538 Y128.544 E.03263
G1 X95.997 Y128.294 E.05284
G1 X94.642 Y127.877 E.04799
G1 X93.403 Y127.314 E.04607
G1 X92.198 Y126.566 E.04801
G1 X91.102 Y125.669 E.04794
G1 X90.095 Y124.591 E.04993
G1 X89.274 Y123.436 E.04797
G1 X88.611 Y122.183 E.04798
G1 X88.117 Y120.854 E.04799
G1 X87.801 Y119.473 E.04795
G1 X87.664 Y117.794 E.05702
G1 X87.7 Y106.359 E.38706
G1 X87.956 Y104.747 E.05525
G1 X88.353 Y103.445 E.04607
G1 X88.936 Y102.153 E.04798
G1 X89.716 Y100.903 E.04987
G1 X90.62 Y99.81 E.04801
G1 X91.589 Y98.91 E.04476
M201 X1500 Y1500
; printing object halter id:0 copy 0
G1 E-.8
G1 Z.6 F7200
G1 X121.608 Y116.882
G1 Z.2
G1 E.8 F1800
M201 X500 Y500
;TYPE:Perimeter
;WIDTH:0.625152
G1 F2400
G1 X121.805 Y116.954 E.01015
G1 X121.726 Y116.972 E.00392
;WIDTH:0.590485
G1 X121.647 Y116.989 E.00368
;WIDTH:0.555818
G1 X121.568 Y117.006 E.00345
;WIDTH:0.521151
G1 X121.228 Y117.024 E.01354
;WIDTH:0.485575
G1 X120.887 Y117.042 E.01257
;WIDTH:0.449999
G1 X104.208 Y117.042 E.56456
;WIDTH:0.491873
G1 X104.049 Y117.021 E.00599
;WIDTH:0.533746
G1 X103.89 Y117 E.00655
;WIDTH:0.57562
G1 X103.73 Y116.979 E.00715
;WIDTH:0.617493
G1 X103.571 Y116.958 E.00766
;WIDTH:0.659366
G1 X103.412 Y116.937 E.00822
G1 X103.478 Y116.901 E.00385
;WIDTH:0.619627
G1 X103.545 Y116.864 E.00367
;WIDTH:0.579888
G1 X103.797 Y116.756 E.01224
;WIDTH:0.536592
G1 X104.049 Y116.649 E.01124
;WIDTH:0.493296
G1 X104.3 Y116.541 E.01023
;WIDTH:0.449999
G1 X104.926 Y116.194 E.02423
G1 X105.755 Y115.494 E.03673
G1 X106.247 Y114.846 E.02754
G1 X106.664 Y113.988 E.03229
G1 X106.873 Y113.163 E.02881
G1 X106.92 Y112.389 E.02625
G1 X106.79 Y111.431 E.03272
G1 X106.471 Y110.551 E.03168
G1 X106.103 Y109.937 E.02423
G1 X105.488 Y109.241 E.03144
G1 X104.732 Y108.681 E.03185
G1 X104.055 Y108.361 E.02535
;WIDTH:0.494756
G1 X103.851 Y108.282 E.00822
;WIDTH:0.539512
G1 X103.647 Y108.204 E.00902
;WIDTH:0.584268
G1 X103.443 Y108.126 E.00983
;WIDTH:0.629024
G1 X103.239 Y108.048 E.01064
G1 X103.335 Y108.026 E.0048
;WIDTH:0.585681
G1 X103.432 Y108.004 E.00449
;WIDTH:0.542337
G1 X103.772 Y107.981 E.01415
;WIDTH:0.496168
G1 X104.113 Y107.958 E.01288
;WIDTH:0.449999
G1 X121.257 Y107.958 E.5803
;WIDTH:0.489919
G1 X121.412 Y107.978 E.00581
;WIDTH:0.529838
G1 X121.568 Y107.998 E.00637
;WIDTH:0.569757
G1 X121.723 Y108.018 E.00685
;WIDTH:0.609676
G1 X121.878 Y108.038 E.00737
G1 X121.839 Y108.055 E.002
;WIDTH:0.592675
G1 X121.655 Y108.118 E.00889
;WIDTH:0.545117
G1 X121.471 Y108.182 E.00813
;WIDTH:0.497558
G1 X121.288 Y108.246 E.00733
;WIDTH:0.449999
G1 X120.7 Y108.459 E.02117
G1 X120.074 Y108.806 E.02423
G1 X119.245 Y109.506 E.03673
G1 X118.753 Y110.154 E.02754
G1 X118.336 Y111.012 E.03229
G1 X118.127 Y111.837 E.02881
G1 X118.08 Y112.611 E.02625
G1 X118.21 Y113.569 E.03272
G1 X118.529 Y114.449 E.03168
G1 X118.897 Y115.063 E.02423
G1 X119.512 Y115.759 E.03144
G1 X120.268 Y116.319 E.03185
G1 X120.945 Y116.639 E.02535
;WIDTH:0.493788
G1 X121.16 Y116.718 E.00859
;WIDTH:0.537576
G1 X121.375 Y116.797 E.00942
;WIDTH:0.581364
G1 X121.551 Y116.862 E.0084
M201 X1500 Y1500
G1 E-.8
G1 Z.6 F7200
G1 X125.792 Y109.567
G1 Z.2
G1 E.8 F1800
M201 X500 Y500
;WIDTH:0.449999
G1 F2400
G1 X125.488 Y109.241 E.01509
G1 X124.732 Y108.681 E.03185
G1 X124.055 Y108.361 E.02535
;WIDTH:0.494689
G1 X123.851 Y108.282 E.00822
;WIDTH:0.539378
G1 X123.647 Y108.204 E.00902
;WIDTH:0.584067
G1 X123.443 Y108.126 E.00983
;WIDTH:0.628756
G1 X123.239 Y108.048 E.01064
G1 X123.335 Y108.026 E.0048
;WIDTH:0.585483
G1 X123.432 Y108.004 E.00449
;WIDTH:0.542209
G1 X123.772 Y107.981 E.01415
;WIDTH:0.496104
G1 X124.113 Y107.958 E.01288
;WIDTH:0.449999
G1 X125.792 Y107.958 E.05683
G1 X125.792 Y109.507 E.05243
M201 X1500 Y1500
G1 E-.8
G1 Z.6 F7200
G1 X123.412 Y116.937
G1 Z.2
G1 E.8 F1800
M201 X500 Y500
;WIDTH:0.659364
G1 F2400
G1 X123.478 Y116.901 E.00385
;WIDTH:0.619626
G1 X123.545 Y116.864 E.00367
;WIDTH:0.579888
G1 X123.797 Y116.756 E.01224
;WIDTH:0.536592
G1 X124.049 Y116.649 E.01124
;WIDTH:0.493296
G1 X124.3 Y116.541 E.01023
;WIDTH:0.449999
G1 X124.926 Y116.194 E.02423
G1 X125.599 Y115.651 E.02927
G1 X125.792 Y115.448 E.00948
G1 X125.792 Y117.042 E.05395
G1 X124.208 Y117.042 E.05362
;WIDTH:0.491872
G1 X124.049 Y117.021 E.00599
;WIDTH:0.533745
G1 X123.89 Y117 E.00655
;WIDTH:0.575618
G1 X123.73 Y116.979 E.00715
;WIDTH:0.617491
G1 X123.571 Y116.958 E.00766
;WIDTH:0.659364
G1 X123.471 Y116.945 E.00517
M201 X1500 Y1500
G1 E-.8
G1 Z.6 F7200
G1 X101.878 Y108.038
G1 Z.2
G1 E.8 F1800
M201 X500 Y500
;WIDTH:0.609948
G1 F2400
G1 X101.839 Y108.055 E.00201
;WIDTH:0.592915
G1 X101.655 Y108.118 E.00889
;WIDTH:0.545277
G1 X101.471 Y108.182 E.00814
;WIDTH:0.497638
G1 X101.288 Y108.246 E.00733
;WIDTH:0.449999
G1 X100.7 Y108.459 E.02117
G1 X100.074 Y108.806 E.02423
G1 X99.401 Y109.349 E.02927
G1 X99.208 Y109.552 E.00948
G1 X99.208 Y107.958 E.05395
G1 X101.257 Y107.958 E.06936
;WIDTH:0.489987
G1 X101.412 Y107.978 E.00581
;WIDTH:0.529974
G1 X101.568 Y107.998 E.00637
;WIDTH:0.569961
G1 X101.723 Y108.018 E.00685
;WIDTH:0.609948
G1 X101.819 Y108.03 E.00456
M201 X1500 Y1500
G1 E-.8
G1 Z.6 F7200
M73 P0 R31
G1 X99.208 Y115.433
G1 Z.2
G1 E.8 F1800
M201 X500 Y500
;WIDTH:0.449999
G1 F2400
G1 X99.512 Y115.759 E.01509
G1 X100.268 Y116.319 E.03185
G1 X100.945 Y116.639 E.02535
;WIDTH:0.493788
G1 X101.16 Y116.718 E.00859
;WIDTH:0.537577
G1 X101.375 Y116.797 E.00942
;WIDTH:0.581366
G1 X101.59 Y116.876 E.01026
;WIDTH:0.625154
G1 X101.805 Y116.954 E.01107
G1 X101.726 Y116.972 E.00392
;WIDTH:0.590487
G1 X101.647 Y116.989 E.00368
;WIDTH:0.55582
G1 X101.568 Y117.006 E.00345
;WIDTH:0.521152
G1 X101.228 Y117.024 E.01354
;WIDTH:0.485576
G1 X100.887 Y117.042 E.01257
;WIDTH:0.449999
M73 P1 R31
G1 X99.208 Y117.042 E.05683
G1 X99.208 Y115.493 E.05243
M201 X1500 Y1500
G1 X98.801 Y117.449 F7200
M201 X500 Y500
G1 F2400
G1 X98.801 Y114.041 E.11536
G1 X98.883 Y114.248 E.00754
G1 X99.208 Y114.801 E.02171
G1 X99.761 Y115.437 E.02853
G1 X100.451 Y115.955 E.0292
G1 X101.058 Y116.248 E.02281
G1 X101.84 Y116.461 E.02743
G1 X102.723 Y116.511 E.02994
G1 X103.402 Y116.414 E.02322
G1 X104.114 Y116.179 E.02538
G1 X104.67 Y115.877 E.02142
G1 X105.437 Y115.24 E.03375
G1 X105.885 Y114.66 E.02481
G1 X106.272 Y113.88 E.02947
G1 X106.468 Y113.128 E.0263
G1 X106.515 Y112.433 E.02358
G1 X106.405 Y111.562 E.02972
G1 X106.117 Y110.752 E.0291
G1 X105.792 Y110.199 E.02171
G1 X105.239 Y109.563 E.02853
G1 X104.549 Y109.045 E.0292
G1 X103.942 Y108.752 E.02281
G1 X103.185 Y108.541 E.0266
G1 X102.597 Y108.484 E.02
G1 X101.939 Y108.522 E.02231
G1 X101.374 Y108.644 E.01957
G1 X100.887 Y108.821 E.01754
G1 X100.278 Y109.164 E.02366
G1 X99.563 Y109.76 E.03151
G1 X99.115 Y110.34 E.02481
G1 X98.801 Y110.95 E.02322
G1 X98.801 Y107.551 E.11505
G1 X126.199 Y107.551 E.92739
G1 X126.199 Y110.959 E.11536
G1 X126.117 Y110.752 E.00754
G1 X125.792 Y110.199 E.02171
G1 X125.239 Y109.563 E.02853
G1 X124.549 Y109.045 E.0292
G1 X123.942 Y108.752 E.02281
G1 X123.185 Y108.541 E.0266
G1 X122.597 Y108.484 E.02
G1 X121.939 Y108.522 E.02231
G1 X121.374 Y108.644 E.01957
G1 X120.886 Y108.821 E.01757
G1 X120.33 Y109.123 E.02142
G1 X119.563 Y109.76 E.03375
G1 X119.115 Y110.34 E.02481
G1 X118.728 Y111.12 E.02947
G1 X118.532 Y111.872 E.0263
G1 X118.485 Y112.567 E.02358
G1 X118.595 Y113.438 E.02972
G1 X118.883 Y114.248 E.0291
G1 X119.208 Y114.801 E.02171
G1 X119.761 Y115.437 E.02853
G1 X120.451 Y115.955 E.0292
G1 X121.058 Y116.248 E.02281
G1 X121.84 Y116.461 E.02743
G1 X122.723 Y116.511 E.02994
G1 X123.402 Y116.414 E.02322
G1 X124.113 Y116.179 E.02535
G1 X124.722 Y115.836 E.02366
G1 X125.437 Y115.24 E.03151
G1 X125.885 Y114.66 E.02481
G1 X126.199 Y114.05 E.02322
G1 X126.199 Y117.449 E.11505
G1 X98.861 Y117.449 E.92536
M201 X1500 Y1500
G1 X98.394 Y117.728 F7200
M201 X500 Y500
;TYPE:External perimeter
G1 F2400
G1 X98.394 Y114.15 E.12111
;WIDTH:0.49291
G1 X98.415 Y113.722 E.01603
;WIDTH:0.53582
G1 X98.437 Y113.295 E.01752
G1 X98.416 Y112.461 E.03419
;WIDTH:0.503848
G1 X98.407 Y111.463 E.03825
;WIDTH:0.476924
G1 X98.394 Y111.13 E.01203
;WIDTH:0.449999
G1 X98.394 Y107.311 E.12927
G1 X98.423 Y107.193 E.00411
G1 X98.522 Y107.144 E.00374
G1 X126.424 Y107.144 E.94445
G1 X126.567 Y107.191 E.0051
G1 X126.606 Y107.326 E.00476
G1 X126.606 Y110.85 E.11928
;WIDTH:0.492909
G1 X126.585 Y111.278 E.01603
;WIDTH:0.535819
G1 X126.563 Y111.705 E.01752
G1 X126.584 Y112.539 E.03419
;WIDTH:0.513579
G1 X126.574 Y113.204 E.02603
G1 X126.59 Y113.537 E.01305
;WIDTH:0.481789
G1 X126.606 Y113.87 E.01217
;WIDTH:0.449999
G1 X126.606 Y117.689 E.12927
G1 X126.577 Y117.807 E.00411
G1 X126.478 Y117.856 E.00374
G1 X98.561 Y117.856 E.94496
G1 X98.443 Y117.827 E.00411
G1 X98.421 Y117.782 E.0017
M201 X1500 Y1500
G1 X98.664 Y117.433 F7200
G1 E-.8 F2400
G1 Z.6 F7200
G1 X121.878 Y108.038
G1 Z.2
G1 E.8 F1800
M201 X500 Y500
;TYPE:Perimeter
;WIDTH:0.609676
G1 F2400
G1 X122.576 Y108.018 E.03291
;WIDTH:0.598891
G1 X122.907 Y108.033 E.01532
;WIDTH:0.628756
G1 X123.239 Y108.048 E.01619
M201 X1500 Y1500
G1 E-.8
G1 Z.6 F7200
G1 X122.402 Y116.09
G1 Z.2
G1 E.8 F1800
M201 X500 Y500
;TYPE:External perimeter
;WIDTH:0.449999
G1 F2400
G1 X121.868 Y116.055 E.01811
G1 X121.171 Y115.858 E.02452
G1 X120.633 Y115.591 E.02033
G1 X120.01 Y115.115 E.02654
G1 X119.52 Y114.539 E.0256
G1 X119.237 Y114.047 E.01921
G1 X118.981 Y113.306 E.02654
G1 X118.889 Y112.522 E.02672
G1 X118.938 Y111.907 E.02088
G1 X119.136 Y111.188 E.02524
G1 X119.477 Y110.526 E.02521
G1 X119.881 Y110.014 E.02208
G1 X120.585 Y109.439 E.03077
G1 X121.073 Y109.182 E.01867
G1 X121.459 Y109.042 E.0139
G1 X122.025 Y108.92 E.0196
G1 X122.615 Y108.891 E.01999
G1 X123.14 Y108.946 E.01787
G1 X123.829 Y109.142 E.02425
G1 X124.367 Y109.409 E.02033
G1 X124.99 Y109.885 E.02654
G1 X125.48 Y110.461 E.0256
G1 X125.763 Y110.953 E.01921
;WIDTH:0.481135
G1 X125.906 Y111.318 E.01428
;WIDTH:0.51227
G1 X126.049 Y111.684 E.01534
G1 X126.133 Y112.475 E.03104
;WIDTH:0.51901
G1 X126.096 Y113.096 E.02463
G1 X125.988 Y113.434 E.01405
;WIDTH:0.484505
G1 X125.879 Y113.772 E.01304
;WIDTH:0.449999
G1 X125.523 Y114.474 E.02664
G1 X125.119 Y114.986 E.02208
G1 X124.466 Y115.519 E.02853
G1 X123.927 Y115.818 E.02086
G1 X123.279 Y116.026 E.02304
G1 X122.671 Y116.107 E.02076
G1 X122.462 Y116.093 E.00709
M201 X1500 Y1500
G1 X122.195 Y116.432 F7200
G1 X123.412 Y116.937
M201 X500 Y500
;TYPE:Perimeter
;WIDTH:0.659364
G1 F2400
G1 X123.097 Y116.958 E.01618
;WIDTH:0.618596
G1 X122.783 Y116.978 E.01506
;WIDTH:0.625152
G1 X121.805 Y116.954 E.04736
M201 X1500 Y1500
G1 E-.8
G1 Z.6 F7200
G1 X103.412 Y116.937
G1 Z.2
G1 E.8 F1800
M201 X500 Y500
;WIDTH:0.659366
G1 F2400
G1 X103.097 Y116.958 E.01618
;WIDTH:0.618598
G1 X102.783 Y116.978 E.01506
;WIDTH:0.625154
G1 X101.805 Y116.954 E.04736
M201 X1500 Y1500
G1 E-.8
G1 Z.6 F7200
G1 X104.677 Y109.646
G1 Z.2
G1 E.8 F1800
M201 X500 Y500
;TYPE:External perimeter
;WIDTH:0.449999
G1 F2400
G1 X104.99 Y109.885 E.01333
G1 X105.48 Y110.461 E.0256
G1 X105.763 Y110.953 E.01921
G1 X106.019 Y111.694 E.02654
G1 X106.111 Y112.478 E.02672
G1 X106.062 Y113.093 E.02088
G1 X105.879 Y113.772 E.0238
G1 X105.523 Y114.474 E.02664
G1 X105.119 Y114.986 E.02208
G1 X104.415 Y115.561 E.03077
G1 X103.927 Y115.818 E.01867
G1 X103.279 Y116.026 E.02304
G1 X102.671 Y116.107 E.02076
G1 X101.868 Y116.055 E.02724
G1 X101.171 Y115.858 E.02452
G1 X100.633 Y115.591 E.02033
G1 X100.01 Y115.115 E.02654
G1 X99.52 Y114.539 E.0256
G1 X99.237 Y114.047 E.01921
;WIDTH:0.485439
G1 X99.092 Y113.683 E.01442
;WIDTH:0.520878
G1 X98.947 Y113.318 E.01561
G1 X98.867 Y112.525 E.03168
;WIDTH:0.494946
G1 X98.866 Y112.5 E.00094
;WIDTH:0.519011
G1 X98.904 Y111.904 E.02364
G1 X99.012 Y111.566 E.01405
;WIDTH:0.484505
G1 X99.121 Y111.228 E.01304
;WIDTH:0.449999
G1 X99.477 Y110.526 E.02664
G1 X99.881 Y110.014 E.02208
