; HEADER_BLOCK_START
; generated by GalaxySlicer 1.0.0-beta on 2023-09-04 at 12:50:15
; total layer number: 25
; HEADER_BLOCK_END

; THUMBNAIL_BLOCK_START
; THUMBNAIL_BLOCK_END

; external perimeters extrusion width = 0.42mm
; perimeters extrusion width = 0.45mm
; infill extrusion width = 0.45mm
; solid infill extrusion width = 0.42mm
; top infill extrusion width = 0.42mm
; first layer extrusion width = 0.43mm

; EXECUTABLE_BLOCK_START
M73 P0 R7
;TYPE:Custom
G90 ; use absolute coordinates
M83 ; extruder relative mode
M104 S110
M140 S60 ; set bed temp

M104 S170 ; set extruder temp for bed leveling
M109 S170 ; wait for temp

M302 S160 ; lower cold extrusion limit to 160C

G1 E-2 F2400 ; retraction

M106 S100
M190 S60 ; wait for bed temp
M107
M557 X17.5:217.5 Y114:121 S25
G29 S2
G29 S0
; prepare for purge
G0 X0 Y0 F2800
M104 S220
M109 S220
G92 E0
;
; Extrude purge line
;
G92 E0 ; reset extruder position
G1 E2 F2400 ; deretraction after the initial one before nozzle cleaning

G0 E7 X-5 Y-7 Z0.6 F500 ; purge
G0 X5 E4 F500 ; purge
G0 X15 E4 F650 ; purge
G0 X25 E4 F800 ; purge
G0 X38 Z0.3 F8000 ; wipe, move close to the bed
G0 X51 Z0.5 F8000 ; wipe, move quickly away from the bed
G92 E0
M221 S100 ; set flow to 100%
M593 P"mzv" F43.6
G90
G21
M83 ; use relative distances for extrusion
; filament start gcode
M572 D0 S0.08; Override pressure advance value
M106 S0
;LAYER_CHANGE
;Z:0.2
;HEIGHT:0.2
;BEFORE_LAYER_CHANGE
;0.2
G92 E0

G1 E-.8 F1800
;AFTER_LAYER_CHANGE
;0.2

;_SET_FAN_SPEED_CHANGING_LAYER
M204 P500
; printing object Nut_6_Abdeckung_-_200.stl id:5004749709515567158 copy 0
M204 T500
G1 Z.4 F4500
G1 X17.715 Y114.215
G1 Z.4
G1 Z.2
G1 E.8 F1800
;TYPE:Outer wall
;WIDTH:0.429999
G1 F2100
G1 X217.285 Y114.215 E6.29484
G1 X217.285 Y120.785 E.20723
G1 X17.715 Y120.785 E6.29484
M73 P1 R7
G1 X17.715 Y114.255 E.20597
G1 E-.64 F1800
;WIPE_START
G1 F2100
G1 X18.715 Y114.255 E-.152
;WIPE_END
G1 E-.008 F1800
M73 P2 R7
G1 Z.6 F4500
G1 X216.385 Y114.331 Z.6
M73 P3 R7
G1 Z.2
M73 P4 R7
G1 E.8 F1800
;TYPE:Bottom surface
;WIDTH:0.430891
G1 F3600
G1 X216.995 Y114.941 E.02728
G1 X216.995 Y115.49 E.01735
G1 X216.01 Y114.505 E.04402
G1 X215.461 Y114.505 E.01735
G1 X216.995 Y116.039 E.06856
G1 X216.995 Y116.587 E.01735
G1 X214.913 Y114.505 E.09309
G1 X214.364 Y114.505 E.01735
G1 X216.995 Y117.136 E.11762
G1 X216.995 Y117.685 E.01735
G1 X213.815 Y114.505 E.14215
G1 X213.267 Y114.505 E.01735
G1 X216.995 Y118.233 E.16668
G1 X216.995 Y118.782 E.01735
G1 X212.718 Y114.505 E.19121
G1 X212.169 Y114.505 E.01735
G1 X216.995 Y119.331 E.21574
G1 X216.995 Y119.879 E.01735
G1 X211.621 Y114.505 E.24027
G1 X211.072 Y114.505 E.01735
G1 X216.995 Y120.428 E.26481
G1 X216.995 Y120.495 E.00211
G1 X216.513 Y120.495 E.01524
G1 X210.523 Y114.505 E.26779
M73 P5 R7
G1 X209.975 Y114.505 E.01735
G1 X215.964 Y120.495 E.26779
G1 X215.415 Y120.495 E.01735
G1 X209.426 Y114.505 E.26779
G1 X208.877 Y114.505 E.01735
G1 X214.867 Y120.495 E.26779
G1 X214.318 Y120.495 E.01735
G1 X208.329 Y114.505 E.26779
G1 X207.78 Y114.505 E.01735
G1 X213.769 Y120.495 E.26779
G1 X213.221 Y120.495 E.01735
G1 X207.231 Y114.505 E.26779
G1 X206.683 Y114.505 E.01735
G1 X212.672 Y120.495 E.26779
G1 X212.123 Y120.495 E.01735
G1 X206.134 Y114.505 E.26779
G1 X205.585 Y114.505 E.01735
G1 X211.575 Y120.495 E.26779
G1 X211.026 Y120.495 E.01735
G1 X205.037 Y114.505 E.26779
G1 X204.488 Y114.505 E.01735
G1 X210.477 Y120.495 E.26779
G1 X209.929 Y120.495 E.01735
G1 X203.939 Y114.505 E.26779
G1 X203.391 Y114.505 E.01735
G1 X209.38 Y120.495 E.26779
G1 X208.831 Y120.495 E.01735
G1 X202.842 Y114.505 E.26779
G1 X202.293 Y114.505 E.01735
G1 X208.283 Y120.495 E.26779
G1 X207.734 Y120.495 E.01735
G1 X201.745 Y114.505 E.26779
G1 X201.196 Y114.505 E.01735
G1 X207.185 Y120.495 E.26779
G1 X206.637 Y120.495 E.01735
M73 P6 R7
G1 X200.647 Y114.505 E.26779
G1 X200.098 Y114.505 E.01735
G1 X206.088 Y120.495 E.26779
G1 X205.539 Y120.495 E.01735
G1 X199.55 Y114.505 E.26779
G1 X199.001 Y114.505 E.01735
G1 X204.991 Y120.495 E.26779
G1 X204.442 Y120.495 E.01735
G1 X198.452 Y114.505 E.26779
G1 X197.904 Y114.505 E.01735
M73 P6 R6
G1 X203.893 Y120.495 E.26779
G1 X203.345 Y120.495 E.01735
G1 X197.355 Y114.505 E.26779
G1 X196.806 Y114.505 E.01735
G1 X202.796 Y120.495 E.26779
G1 X202.247 Y120.495 E.01735
G1 X196.258 Y114.505 E.26779
G1 X195.709 Y114.505 E.01735
G1 X201.699 Y120.495 E.26779
G1 X201.15 Y120.495 E.01735
G1 X195.16 Y114.505 E.26779
G1 X194.612 Y114.505 E.01735
G1 X200.601 Y120.495 E.26779
G1 X200.052 Y120.495 E.01735
G1 X194.063 Y114.505 E.26779
G1 X193.514 Y114.505 E.01735
G1 X199.504 Y120.495 E.26779
G1 X198.955 Y120.495 E.01735
G1 X192.966 Y114.505 E.26779
G1 X192.417 Y114.505 E.01735
G1 X198.406 Y120.495 E.26779
G1 X197.858 Y120.495 E.01735
G1 X191.868 Y114.505 E.26779
G1 X191.32 Y114.505 E.01735
G1 X197.309 Y120.495 E.26779
M73 P7 R6
G1 X196.76 Y120.495 E.01735
G1 X190.771 Y114.505 E.26779
G1 X190.222 Y114.505 E.01735
G1 X196.212 Y120.495 E.26779
G1 X195.663 Y120.495 E.01735
G1 X189.674 Y114.505 E.26779
G1 X189.125 Y114.505 E.01735
G1 X195.114 Y120.495 E.26779
G1 X194.566 Y120.495 E.01735
G1 X188.576 Y114.505 E.26779
G1 X188.028 Y114.505 E.01735
G1 X194.017 Y120.495 E.26779
G1 X193.468 Y120.495 E.01735
G1 X187.479 Y114.505 E.26779
G1 X186.93 Y114.505 E.01735
G1 X192.92 Y120.495 E.26779
G1 X192.371 Y120.495 E.01735
G1 X186.382 Y114.505 E.26779
G1 X185.833 Y114.505 E.01735
G1 X191.822 Y120.495 E.26779
G1 X191.274 Y120.495 E.01735
G1 X185.284 Y114.505 E.26779
G1 X184.736 Y114.505 E.01735
G1 X190.725 Y120.495 E.26779
G1 X190.176 Y120.495 E.01735
G1 X184.187 Y114.505 E.26779
G1 X183.638 Y114.505 E.01735
G1 X189.628 Y120.495 E.26779
G1 X189.079 Y120.495 E.01735
G1 X183.09 Y114.505 E.26779
G1 X182.541 Y114.505 E.01735
G1 X188.53 Y120.495 E.26779
G1 X187.982 Y120.495 E.01735
G1 X181.992 Y114.505 E.26779
G1 X181.444 Y114.505 E.01735
M73 P8 R6
G1 X187.433 Y120.495 E.26779
G1 X186.884 Y120.495 E.01735
G1 X180.895 Y114.505 E.26779
G1 X180.346 Y114.505 E.01735
G1 X186.336 Y120.495 E.26779
G1 X185.787 Y120.495 E.01735
G1 X179.798 Y114.505 E.26779
G1 X179.249 Y114.505 E.01735
G1 X185.238 Y120.495 E.26779
G1 X184.69 Y120.495 E.01735
G1 X178.7 Y114.505 E.26779
G1 X178.152 Y114.505 E.01735
G1 X184.141 Y120.495 E.26779
G1 X183.592 Y120.495 E.01735
G1 X177.603 Y114.505 E.26779
G1 X177.054 Y114.505 E.01735
G1 X183.044 Y120.495 E.26779
G1 X182.495 Y120.495 E.01735
G1 X176.506 Y114.505 E.26779
G1 X175.957 Y114.505 E.01735
G1 X181.946 Y120.495 E.26779
G1 X181.398 Y120.495 E.01735
G1 X175.408 Y114.505 E.26779
G1 X174.859 Y114.505 E.01735
G1 X180.849 Y120.495 E.26779
G1 X180.3 Y120.495 E.01735
G1 X174.311 Y114.505 E.26779
G1 X173.762 Y114.505 E.01735
G1 X179.752 Y120.495 E.26779
G1 X179.203 Y120.495 E.01735
G1 X173.213 Y114.505 E.26779
G1 X172.665 Y114.505 E.01735
G1 X178.654 Y120.495 E.26779
G1 X178.106 Y120.495 E.01735
M73 P9 R6
G1 X172.116 Y114.505 E.26779
G1 X171.567 Y114.505 E.01735
G1 X177.557 Y120.495 E.26779
G1 X177.008 Y120.495 E.01735
G1 X171.019 Y114.505 E.26779
G1 X170.47 Y114.505 E.01735
G1 X176.46 Y120.495 E.26779
G1 X175.911 Y120.495 E.01735
G1 X169.921 Y114.505 E.26779
G1 X169.373 Y114.505 E.01735
G1 X175.362 Y120.495 E.26779
G1 X174.813 Y120.495 E.01735
G1 X168.824 Y114.505 E.26779
G1 X168.275 Y114.505 E.01735
G1 X174.265 Y120.495 E.26779
G1 X173.716 Y120.495 E.01735
G1 X167.727 Y114.505 E.26779
G1 X167.178 Y114.505 E.01735
G1 X173.167 Y120.495 E.26779
G1 X172.619 Y120.495 E.01735
G1 X166.629 Y114.505 E.26779
G1 X166.081 Y114.505 E.01735
G1 X172.07 Y120.495 E.26779
G1 X171.521 Y120.495 E.01735
G1 X165.532 Y114.505 E.26779
G1 X164.983 Y114.505 E.01735
G1 X170.973 Y120.495 E.26779
G1 X170.424 Y120.495 E.01735
G1 X164.435 Y114.505 E.26779
G1 X163.886 Y114.505 E.01735
G1 X169.875 Y120.495 E.26779
G1 X169.327 Y120.495 E.01735
G1 X163.337 Y114.505 E.26779
G1 X162.789 Y114.505 E.01735
G1 X168.778 Y120.495 E.26779
M73 P10 R6
G1 X168.229 Y120.495 E.01735
G1 X162.24 Y114.505 E.26779
G1 X161.691 Y114.505 E.01735
G1 X167.681 Y120.495 E.26779
G1 X167.132 Y120.495 E.01735
G1 X161.143 Y114.505 E.26779
G1 X160.594 Y114.505 E.01735
G1 X166.583 Y120.495 E.26779
G1 X166.035 Y120.495 E.01735
G1 X160.045 Y114.505 E.26779
G1 X159.497 Y114.505 E.01735
G1 X165.486 Y120.495 E.26779
G1 X164.937 Y120.495 E.01735
G1 X158.948 Y114.505 E.26779
G1 X158.399 Y114.505 E.01735
G1 X164.389 Y120.495 E.26779
G1 X163.84 Y120.495 E.01735
G1 X157.851 Y114.505 E.26779
G1 X157.302 Y114.505 E.01735
G1 X163.291 Y120.495 E.26779
G1 X162.743 Y120.495 E.01735
G1 X156.753 Y114.505 E.26779
G1 X156.205 Y114.505 E.01735
G1 X162.194 Y120.495 E.26779
G1 X161.645 Y120.495 E.01735
G1 X155.656 Y114.505 E.26779
G1 X155.107 Y114.505 E.01735
G1 X161.097 Y120.495 E.26779
G1 X160.548 Y120.495 E.01735
G1 X154.559 Y114.505 E.26779
G1 X154.01 Y114.505 E.01735
G1 X159.999 Y120.495 E.26779
G1 X159.451 Y120.495 E.01735
G1 X153.461 Y114.505 E.26779
G1 X152.913 Y114.505 E.01735
M73 P11 R6
G1 X158.902 Y120.495 E.26779
G1 X158.353 Y120.495 E.01735
G1 X152.364 Y114.505 E.26779
G1 X151.815 Y114.505 E.01735
G1 X157.805 Y120.495 E.26779
G1 X157.256 Y120.495 E.01735
G1 X151.267 Y114.505 E.26779
G1 X150.718 Y114.505 E.01735
G1 X156.707 Y120.495 E.26779
G1 X156.159 Y120.495 E.01735
G1 X150.169 Y114.505 E.26779
G1 X149.62 Y114.505 E.01735
G1 X155.61 Y120.495 E.26779
G1 X155.061 Y120.495 E.01735
G1 X149.072 Y114.505 E.26779
G1 X148.523 Y114.505 E.01735
G1 X154.513 Y120.495 E.26779
G1 X153.964 Y120.495 E.01735
G1 X147.974 Y114.505 E.26779
G1 X147.426 Y114.505 E.01735
G1 X153.415 Y120.495 E.26779
G1 X152.867 Y120.495 E.01735
G1 X146.877 Y114.505 E.26779
G1 X146.328 Y114.505 E.01735
G1 X152.318 Y120.495 E.26779
G1 X151.769 Y120.495 E.01735
G1 X145.78 Y114.505 E.26779
G1 X145.231 Y114.505 E.01735
G1 X151.221 Y120.495 E.26779
G1 X150.672 Y120.495 E.01735
G1 X144.682 Y114.505 E.26779
G1 X144.134 Y114.505 E.01735
G1 X150.123 Y120.495 E.26779
G1 X149.574 Y120.495 E.01735
M73 P12 R6
G1 X143.585 Y114.505 E.26779
G1 X143.036 Y114.505 E.01735
G1 X149.026 Y120.495 E.26779
G1 X148.477 Y120.495 E.01735
G1 X142.488 Y114.505 E.26779
G1 X141.939 Y114.505 E.01735
G1 X147.928 Y120.495 E.26779
G1 X147.38 Y120.495 E.01735
G1 X141.39 Y114.505 E.26779
G1 X140.842 Y114.505 E.01735
G1 X146.831 Y120.495 E.26779
G1 X146.282 Y120.495 E.01735
G1 X140.293 Y114.505 E.26779
G1 X139.744 Y114.505 E.01735
G1 X145.734 Y120.495 E.26779
G1 X145.185 Y120.495 E.01735
G1 X139.196 Y114.505 E.26779
G1 X138.647 Y114.505 E.01735
G1 X144.636 Y120.495 E.26779
G1 X144.088 Y120.495 E.01735
G1 X138.098 Y114.505 E.26779
G1 X137.55 Y114.505 E.01735
G1 X143.539 Y120.495 E.26779
G1 X142.99 Y120.495 E.01735
G1 X137.001 Y114.505 E.26779
G1 X136.452 Y114.505 E.01735
G1 X142.442 Y120.495 E.26779
G1 X141.893 Y120.495 E.01735
G1 X135.904 Y114.505 E.26779
G1 X135.355 Y114.505 E.01735
G1 X141.344 Y120.495 E.26779
G1 X140.796 Y120.495 E.01735
G1 X134.806 Y114.505 E.26779
G1 X134.258 Y114.505 E.01735
G1 X140.247 Y120.495 E.26779
G1 X139.698 Y120.495 E.01735
M73 P13 R6
G1 X133.709 Y114.505 E.26779
G1 X133.16 Y114.505 E.01735
G1 X139.15 Y120.495 E.26779
G1 X138.601 Y120.495 E.01735
G1 X132.612 Y114.505 E.26779
G1 X132.063 Y114.505 E.01735
G1 X138.052 Y120.495 E.26779
G1 X137.504 Y120.495 E.01735
G1 X131.514 Y114.505 E.26779
G1 X130.966 Y114.505 E.01735
G1 X136.955 Y120.495 E.26779
G1 X136.406 Y120.495 E.01735
G1 X130.417 Y114.505 E.26779
G1 X129.868 Y114.505 E.01735
G1 X135.858 Y120.495 E.26779
G1 X135.309 Y120.495 E.01735
G1 X129.32 Y114.505 E.26779
G1 X128.771 Y114.505 E.01735
G1 X134.76 Y120.495 E.26779
G1 X134.212 Y120.495 E.01735
G1 X128.222 Y114.505 E.26779
G1 X127.674 Y114.505 E.01735
G1 X133.663 Y120.495 E.26779
G1 X133.114 Y120.495 E.01735
G1 X127.125 Y114.505 E.26779
G1 X126.576 Y114.505 E.01735
G1 X132.566 Y120.495 E.26779
G1 X132.017 Y120.495 E.01735
G1 X126.028 Y114.505 E.26779
G1 X125.479 Y114.505 E.01735
G1 X131.468 Y120.495 E.26779
G1 X130.92 Y120.495 E.01735
G1 X124.93 Y114.505 E.26779
G1 X124.381 Y114.505 E.01735
M73 P14 R6
G1 X130.371 Y120.495 E.26779
G1 X129.822 Y120.495 E.01735
G1 X123.833 Y114.505 E.26779
G1 X123.284 Y114.505 E.01735
G1 X129.274 Y120.495 E.26779
G1 X128.725 Y120.495 E.01735
G1 X122.735 Y114.505 E.26779
G1 X122.187 Y114.505 E.01735
G1 X128.176 Y120.495 E.26779
G1 X127.628 Y120.495 E.01735
G1 X121.638 Y114.505 E.26779
G1 X121.089 Y114.505 E.01735
G1 X127.079 Y120.495 E.26779
G1 X126.53 Y120.495 E.01735
G1 X120.541 Y114.505 E.26779
G1 X119.992 Y114.505 E.01735
G1 X125.982 Y120.495 E.26779
G1 X125.433 Y120.495 E.01735
G1 X119.443 Y114.505 E.26779
G1 X118.895 Y114.505 E.01735
G1 X124.884 Y120.495 E.26779
G1 X124.335 Y120.495 E.01735
G1 X118.346 Y114.505 E.26779
G1 X117.797 Y114.505 E.01735
G1 X123.787 Y120.495 E.26779
G1 X123.238 Y120.495 E.01735
G1 X117.249 Y114.505 E.26779
G1 X116.7 Y114.505 E.01735
G1 X122.689 Y120.495 E.26779
G1 X122.141 Y120.495 E.01735
G1 X116.151 Y114.505 E.26779
G1 X115.603 Y114.505 E.01735
G1 X121.592 Y120.495 E.26779
G1 X121.043 Y120.495 E.01735
M73 P15 R6
G1 X115.054 Y114.505 E.26779
G1 X114.505 Y114.505 E.01735
G1 X120.495 Y120.495 E.26779
G1 X119.946 Y120.495 E.01735
G1 X113.957 Y114.505 E.26779
G1 X113.408 Y114.505 E.01735
G1 X119.397 Y120.495 E.26779
G1 X118.849 Y120.495 E.01735
G1 X112.859 Y114.505 E.26779
G1 X112.311 Y114.505 E.01735
G1 X118.3 Y120.495 E.26779
G1 X117.751 Y120.495 E.01735
G1 X111.762 Y114.505 E.26779
G1 X111.213 Y114.505 E.01735
G1 X117.203 Y120.495 E.26779
G1 X116.654 Y120.495 E.01735
G1 X110.665 Y114.505 E.26779
G1 X110.116 Y114.505 E.01735
G1 X116.105 Y120.495 E.26779
G1 X115.557 Y120.495 E.01735
G1 X109.567 Y114.505 E.26779
G1 X109.019 Y114.505 E.01735
G1 X115.008 Y120.495 E.26779
G1 X114.459 Y120.495 E.01735
G1 X108.47 Y114.505 E.26779
G1 X107.921 Y114.505 E.01735
G1 X113.911 Y120.495 E.26779
G1 X113.362 Y120.495 E.01735
G1 X107.373 Y114.505 E.26779
G1 X106.824 Y114.505 E.01735
G1 X112.813 Y120.495 E.26779
G1 X112.265 Y120.495 E.01735
G1 X106.275 Y114.505 E.26779
G1 X105.727 Y114.505 E.01735
G1 X111.716 Y120.495 E.26779
G1 X111.167 Y120.495 E.01735
M73 P16 R6
G1 X105.178 Y114.505 E.26779
G1 X104.629 Y114.505 E.01735
G1 X110.619 Y120.495 E.26779
G1 X110.07 Y120.495 E.01735
G1 X104.081 Y114.505 E.26779
G1 X103.532 Y114.505 E.01735
G1 X109.521 Y120.495 E.26779
G1 X108.973 Y120.495 E.01735
G1 X102.983 Y114.505 E.26779
G1 X102.435 Y114.505 E.01735
G1 X108.424 Y120.495 E.26779
G1 X107.875 Y120.495 E.01735
G1 X101.886 Y114.505 E.26779
G1 X101.337 Y114.505 E.01735
G1 X107.327 Y120.495 E.26779
G1 X106.778 Y120.495 E.01735
G1 X100.789 Y114.505 E.26779
G1 X100.24 Y114.505 E.01735
G1 X106.229 Y120.495 E.26779
G1 X105.681 Y120.495 E.01735
G1 X99.691 Y114.505 E.26779
G1 X99.142 Y114.505 E.01735
G1 X105.132 Y120.495 E.26779
G1 X104.583 Y120.495 E.01735
G1 X98.594 Y114.505 E.26779
G1 X98.045 Y114.505 E.01735
G1 X104.035 Y120.495 E.26779
G1 X103.486 Y120.495 E.01735
G1 X97.496 Y114.505 E.26779
G1 X96.948 Y114.505 E.01735
G1 X102.937 Y120.495 E.26779
G1 X102.389 Y120.495 E.01735
G1 X96.399 Y114.505 E.26779
G1 X95.85 Y114.505 E.01735
M73 P17 R6
G1 X101.84 Y120.495 E.26779
G1 X101.291 Y120.495 E.01735
G1 X95.302 Y114.505 E.26779
G1 X94.753 Y114.505 E.01735
G1 X100.743 Y120.495 E.26779
G1 X100.194 Y120.495 E.01735
G1 X94.204 Y114.505 E.26779
G1 X93.656 Y114.505 E.01735
G1 X99.645 Y120.495 E.26779
G1 X99.096 Y120.495 E.01735
G1 X93.107 Y114.505 E.26779
G1 X92.558 Y114.505 E.01735
G1 X98.548 Y120.495 E.26779
G1 X97.999 Y120.495 E.01735
G1 X92.01 Y114.505 E.26779
G1 X91.461 Y114.505 E.01735
G1 X97.45 Y120.495 E.26779
G1 X96.902 Y120.495 E.01735
G1 X90.912 Y114.505 E.26779
G1 X90.364 Y114.505 E.01735
G1 X96.353 Y120.495 E.26779
G1 X95.804 Y120.495 E.01735
G1 X89.815 Y114.505 E.26779
G1 X89.266 Y114.505 E.01735
G1 X95.256 Y120.495 E.26779
G1 X94.707 Y120.495 E.01735
G1 X88.718 Y114.505 E.26779
G1 X88.169 Y114.505 E.01735
G1 X94.158 Y120.495 E.26779
G1 X93.61 Y120.495 E.01735
G1 X87.62 Y114.505 E.26779
G1 X87.072 Y114.505 E.01735
G1 X93.061 Y120.495 E.26779
G1 X92.512 Y120.495 E.01735
M73 P18 R6
G1 X86.523 Y114.505 E.26779
G1 X85.974 Y114.505 E.01735
G1 X91.964 Y120.495 E.26779
