; HEADER_BLOCK_START
; generated by GalaxySlicer 1.0.0-alpha2 on 2023-08-01 at 23:20:06
; total layer number: 6
; HEADER_BLOCK_END

; THUMBNAIL_BLOCK_START
; THUMBNAIL_BLOCK_END

; external perimeters extrusion width = 0.40mm
; perimeters extrusion width = 0.45mm
; infill extrusion width = 0.45mm
; solid infill extrusion width = 0.40mm
; top infill extrusion width = 0.40mm
; first layer extrusion width = 0.50mm

; EXECUTABLE_BLOCK_START
M73 P0 R2
;TYPE:Custom
M83 ; use relative distances for extrusion
G90 ; use absolute coordinates\nM140 S50 ; set final bed temp\
M104 S180 ; set temporary nozzle temp to prevent oozing during homing
M557 X89.7589:115.83 Y50.416:76.4868 S25
G29 S2
G29 S0
M104 S220 ; set final nozzle temp
M190 S50 ; wait for bed temp to stabilize
M109 S220 ; wait for nozzle temp to stabilize
;M593 P\"mzv\" F59
M572 D0 S0.06
G90
G1 Y10
M400
G1 Z0.6 F720
G92 E0
G1 X50  Y10 E9 F1000 ; intro line
M73 P1 R2
G1 Y11
M400
G1 X100 Y11 E12.5 F1500 ; intro line
G92 E0
M566 X480.00 Y480.00 Z10.00 E1200.00 P1        ; set maximum instantaneous speed changes (mm/min) // same as M205 but with mm/min
M203 X10800.00 Y10800.00 Z1000.00 E3600.00     ; set maximum speeds (mm/min)
M201 X3000.00 Y3000.00 Z100.00 E3600.00        ; set accelerations (mm/s^2)\n",
   
G90
G21
M83 ; use relative distances for extrusion
; filament start gcode
M106 S0
;LAYER_CHANGE
;Z:0.4
;HEIGHT:0.4
;BEFORE_LAYER_CHANGE
;0.4
G92 E0


M73 P3 R2
G1 E-.9 F2700
G1 Z.4 F9000
;AFTER_LAYER_CHANGE
;0.4

M204 P500
G1 X90.359 Y52.013
G1 E.9 F2100
;TYPE:Skirt
;WIDTH:0.5
G1 F2700
G1 X91.429 Y50.975 E.10063
G1 X92.794 Y50.623 E.09519
G1 X112.794 Y50.623 E1.34995
G1 X114.232 Y51.016 E.10063
M73 P4 R2
G1 X115.271 Y52.086 E.10063
G1 X115.623 Y53.451 E.09519
G1 X115.623 Y73.451 E1.34995
G1 X115.23 Y74.89 E.10063
G1 X114.16 Y75.928 E.10063
G1 X112.794 Y76.28 E.09519
G1 X92.794 Y76.28 E1.34995
G1 X91.356 Y75.887 E.10063
G1 X90.318 Y74.817 E.10063
G1 X89.966 Y73.451 E.09519
G1 X89.966 Y53.451 E1.34995
M73 P5 R2
G1 X90.343 Y52.071 E.09658
G1 X90.754 Y52.193 F9000
G1 F2700
G1 X90.772 Y52.133 E.00423
G1 X91.82 Y51.243 E.09283
G1 X92.794 Y51.037 E.06722
G1 X112.794 Y51.037 E1.34995
G1 X114.113 Y51.429 E.09283
G1 X115.003 Y52.477 E.09283
G1 X115.208 Y53.451 E.06722
G1 X115.208 Y73.451 E1.34995
G1 X114.817 Y74.77 E.09283
G1 X113.769 Y75.66 E.09283
G1 X112.794 Y75.866 E.06722
M73 P6 R2
G1 X92.794 Y75.866 E1.34995
G1 X91.476 Y75.474 E.09283
G1 X90.586 Y74.426 E.09283
G1 X90.38 Y73.451 E.06722
G1 X90.38 Y53.451 E1.34995
G1 X90.737 Y52.251 E.08454
; printing object Pad - 20x20.stl id:0 copy 0
G1 E-.9
G1 Z.8 F9000
G1 X93.873 Y54.53
G1 Z.4
G1 E.9 F2100
;TYPE:Inner wall
;WIDTH:0.5
G1 F2700
G1 X111.716 Y54.53 E1.20438
M73 P7 R2
G1 X111.716 Y72.373 E1.20438
G1 X93.873 Y72.373 E1.20438
G1 X93.873 Y54.59 E1.20033
M73 P8 R2
G1 X93.458 Y54.116 F9000
G1 F2700
G1 X112.13 Y54.116 E1.26029
G1 X112.13 Y72.787 E1.26029
G1 X93.458 Y72.787 E1.26029
M73 P9 R2
G1 X93.458 Y54.176 E1.25624
G1 X93.044 Y53.701 F9000
;TYPE:Outer wall
G1 F2700
G1 X112.544 Y53.701 E1.3162
G1 X112.544 Y73.201 E1.3162
G1 X93.044 Y73.201 E1.3162
M73 P10 R2
G1 X93.044 Y53.761 E1.31215
G1 X93.122 Y53.722
G1 E-.9
G1 Z.8 F9000
G1 X110.751 Y54.654
G1 Z.4
G1 E.9 F2100
;TYPE:Bottom surface
;WIDTH:0.501532
G1 F3600
G1 X111.405 Y55.308 E.06267
G1 X111.405 Y55.896 E.03983
G1 X110.35 Y54.84 E.10114
M73 P11 R2
G1 X109.762 Y54.84 E.03983
G1 X111.405 Y56.484 E.15746
G1 X111.405 Y57.072 E.03983
G1 X109.174 Y54.84 E.21378
G1 X108.586 Y54.84 E.03983
G1 X111.405 Y57.66 E.27011
G1 X111.405 Y58.247 E.03983
G1 X107.998 Y54.84 E.32643
G1 X107.41 Y54.84 E.03983
G1 X111.405 Y58.835 E.38275
G1 X111.405 Y59.423 E.03983
G1 X106.823 Y54.84 E.43908
G1 X106.235 Y54.84 E.03983
G1 X111.405 Y60.011 E.4954
G1 X111.405 Y60.599 E.03983
G1 X105.647 Y54.84 E.55173
M73 P12 R2
G1 X105.059 Y54.84 E.03983
G1 X111.405 Y61.187 E.60805
G1 X111.405 Y61.775 E.03983
G1 X104.471 Y54.84 E.66437
G1 X103.883 Y54.84 E.03983
G1 X111.405 Y62.363 E.7207
G1 X111.405 Y62.95 E.03983
G1 X103.295 Y54.84 E.77702
G1 X102.707 Y54.84 E.03983
G1 X111.405 Y63.538 E.83334
M73 P13 R2
G1 X111.405 Y64.126 E.03983
G1 X102.12 Y54.84 E.88967
G1 X101.532 Y54.84 E.03983
G1 X111.405 Y64.714 E.94599
G1 X111.405 Y65.302 E.03983
G1 X100.944 Y54.84 E1.00232
G1 X100.356 Y54.84 E.03983
G1 X111.405 Y65.89 E1.05864
G1 X111.405 Y66.478 E.03983
G1 X99.768 Y54.84 E1.11496
M73 P14 R2
G1 X99.18 Y54.84 E.03983
G1 X111.405 Y67.066 E1.17129
G1 X111.405 Y67.653 E.03983
G1 X98.592 Y54.84 E1.22761
G1 X98.004 Y54.84 E.03983
G1 X111.405 Y68.241 E1.28393
G1 X111.405 Y68.829 E.03983
M73 P15 R2
G1 X97.417 Y54.84 E1.34026
G1 X96.829 Y54.84 E.03983
G1 X111.405 Y69.417 E1.39658
G1 X111.405 Y70.005 E.03983
G1 X96.241 Y54.84 E1.45291
G1 X95.653 Y54.84 E.03983
G1 X111.405 Y70.593 E1.50923
M73 P16 R2
G1 X111.405 Y71.181 E.03983
G1 X95.065 Y54.84 E1.56555
G1 X94.477 Y54.84 E.03983
G1 X111.405 Y71.769 E1.62188
G1 X111.405 Y72.062 E.01991
G1 X111.111 Y72.062 E.01992
G1 X94.183 Y55.134 E1.62187
M73 P17 R2
G1 X94.183 Y55.722 E.03983
G1 X110.524 Y72.062 E1.56555
G1 X109.936 Y72.062 E.03983
G1 X94.183 Y56.31 E1.50922
G1 X94.183 Y56.898 E.03983
G1 X109.348 Y72.062 E1.4529
M73 P18 R2
G1 X108.76 Y72.062 E.03983
G1 X94.183 Y57.486 E1.39657
G1 X94.183 Y58.074 E.03983
G1 X108.172 Y72.062 E1.34025
G1 X107.584 Y72.062 E.03983
G1 X94.183 Y58.662 E1.28393
G1 X94.183 Y59.249 E.03983
G1 X106.996 Y72.062 E1.2276
M73 P19 R2
G1 X106.408 Y72.062 E.03983
G1 X94.183 Y59.837 E1.17128
G1 X94.183 Y60.425 E.03983
G1 X105.821 Y72.062 E1.11496
G1 X105.233 Y72.062 E.03983
G1 X94.183 Y61.013 E1.05863
G1 X94.183 Y61.601 E.03983
G1 X104.645 Y72.062 E1.00231
M73 P20 R2
G1 X104.057 Y72.062 E.03983
G1 X94.183 Y62.189 E.94598
G1 X94.183 Y62.777 E.03983
G1 X103.469 Y72.062 E.88966
G1 X102.881 Y72.062 E.03983
G1 X94.183 Y63.365 E.83334
G1 X94.183 Y63.952 E.03983
G1 X102.293 Y72.062 E.77701
M73 P21 R2
G1 X101.705 Y72.062 E.03983
G1 X94.183 Y64.54 E.72069
G1 X94.183 Y65.128 E.03983
G1 X101.118 Y72.062 E.66437
G1 X100.53 Y72.062 E.03983
G1 X94.183 Y65.716 E.60804
G1 X94.183 Y66.304 E.03983
G1 X99.942 Y72.062 E.55172
G1 X99.354 Y72.062 E.03983
G1 X94.183 Y66.892 E.49539
G1 X94.183 Y67.48 E.03983
G1 X98.766 Y72.062 E.43907
M73 P22 R2
G1 X98.178 Y72.062 E.03983
G1 X94.183 Y68.068 E.38275
G1 X94.183 Y68.655 E.03983
G1 X97.59 Y72.062 E.32642
G1 X97.002 Y72.062 E.03983
G1 X94.183 Y69.243 E.2701
G1 X94.183 Y69.831 E.03983
G1 X96.415 Y72.062 E.21378
G1 X95.827 Y72.062 E.03983
G1 X94.183 Y70.419 E.15745
G1 X94.183 Y71.007 E.03983
G1 X95.239 Y72.062 E.10113
G1 X94.651 Y72.062 E.03983
G1 X93.997 Y71.408 E.06266
; stop printing object Pad - 20x20.stl id:0 copy 0
M106 S255
;LAYER_CHANGE
;Z:0.7
;HEIGHT:0.3
;BEFORE_LAYER_CHANGE
;0.7
G92 E0


G1 E-.9 F2700
G1 Z.8 F9000
;AFTER_LAYER_CHANGE
;0.7

M204 P1000
G10 S210 ; set nozzle temperature
; printing object Pad - 20x20.stl id:0 copy 0
G1 X93.741 Y54.398
G1 Z.7
M73 P23 R2
G1 E.9 F2100
;TYPE:Inner wall
;WIDTH:0.45
G1 F4800
G1 X111.848 Y54.398 E.85349
G1 X111.848 Y72.505 E.85349
G1 X93.741 Y72.505 E.85349
G1 X93.741 Y54.458 E.85066
G1 X93.355 Y54.012 F9000
G1 F4800
G1 X112.234 Y54.012 E.88984
G1 X112.234 Y72.891 E.88984
M73 P24 R2
G1 X93.355 Y72.891 E.88984
G1 X93.355 Y54.072 E.88701
G1 X92.994 Y53.651 F9000
;TYPE:Outer wall
;WIDTH:0.4
G1 F3600
G1 X112.594 Y53.651 E.80405
G1 X112.594 Y73.251 E.80405
M73 P25 R1
G1 X92.994 Y73.251 E.80405
G1 X92.994 Y53.711 E.80159
G1 X93.072 Y53.672
G1 E-.9 F2700
G1 Z1.1 F9000
G1 X111.735 Y71.709 Z.7
G1 E.9 F2100
;TYPE:Internal solid infill
;WIDTH:0.402184
G1 F4800
G1 X111.203 Y72.241 E.03107
G1 X110.725 Y72.241 E.01973
G1 X111.584 Y71.382 E.05015
G1 X111.584 Y70.904 E.01973
G1 X110.247 Y72.241 E.07804
G1 X109.77 Y72.241 E.01973
G1 X111.584 Y70.427 E.10594
M73 P26 R1
G1 X111.584 Y69.949 E.01973
G1 X109.292 Y72.241 E.13383
G1 X108.814 Y72.241 E.01973
G1 X111.584 Y69.471 E.16173
G1 X111.584 Y68.994 E.01973
G1 X108.336 Y72.241 E.18962
G1 X107.859 Y72.241 E.01973
G1 X111.584 Y68.516 E.21752
G1 X111.584 Y68.038 E.01973
G1 X107.381 Y72.241 E.24542
G1 X106.903 Y72.241 E.01973
G1 X111.584 Y67.56 E.27331
G1 X111.584 Y67.083 E.01973
G1 X106.426 Y72.241 E.30121
G1 X105.948 Y72.241 E.01973
G1 X111.584 Y66.605 E.3291
G1 X111.584 Y66.127 E.01973
G1 X105.47 Y72.241 E.357
G1 X104.992 Y72.241 E.01973
G1 X111.584 Y65.649 E.3849
M73 P27 R1
G1 X111.584 Y65.172 E.01973
G1 X104.515 Y72.241 E.41279
G1 X104.037 Y72.241 E.01973
G1 X111.584 Y64.694 E.44069
G1 X111.584 Y64.216 E.01973
G1 X103.559 Y72.241 E.46858
G1 X103.082 Y72.241 E.01973
G1 X111.584 Y63.739 E.49648
G1 X111.584 Y63.261 E.01973
G1 X102.604 Y72.241 E.52437
G1 X102.126 Y72.241 E.01973
G1 X111.584 Y62.783 E.55227
G1 X111.584 Y62.305 E.01973
G1 X101.648 Y72.241 E.58017
M73 P28 R1
G1 X101.171 Y72.241 E.01973
G1 X111.584 Y61.828 E.60806
G1 X111.584 Y61.35 E.01973
G1 X100.693 Y72.241 E.63596
G1 X100.215 Y72.241 E.01973
G1 X111.584 Y60.872 E.66385
G1 X111.584 Y60.394 E.01973
G1 X99.737 Y72.241 E.69175
G1 X99.26 Y72.241 E.01973
G1 X111.584 Y59.917 E.71964
M73 P29 R1
G1 X111.584 Y59.439 E.01973
G1 X98.782 Y72.241 E.74754
G1 X98.304 Y72.241 E.01973
G1 X111.584 Y58.961 E.77544
G1 X111.584 Y58.484 E.01973
G1 X97.827 Y72.241 E.80333
G1 X97.349 Y72.241 E.01973
G1 X111.584 Y58.006 E.83123
G1 X111.584 Y57.528 E.01973
G1 X96.871 Y72.241 E.85912
M73 P30 R1
G1 X96.393 Y72.241 E.01973
G1 X111.584 Y57.05 E.88702
G1 X111.584 Y56.573 E.01973
G1 X95.916 Y72.241 E.91491
G1 X95.438 Y72.241 E.01973
G1 X111.584 Y56.095 E.94281
G1 X111.584 Y55.617 E.01973
G1 X94.96 Y72.241 E.97071
M73 P31 R1
G1 X94.482 Y72.241 E.01973
G1 X111.584 Y55.14 E.9986
G1 X111.584 Y54.662 E.01972
G1 X94.005 Y72.241 E1.02649
G1 X94.005 Y71.763 E.01973
G1 X111.106 Y54.662 E.99859
G1 X110.628 Y54.662 E.01973
G1 X94.005 Y71.285 E.9707
M73 P32 R1
G1 X94.005 Y70.808 E.01973
G1 X110.151 Y54.662 E.9428
G1 X109.673 Y54.662 E.01973
G1 X94.005 Y70.33 E.91491
G1 X94.005 Y69.852 E.01973
G1 X109.195 Y54.662 E.88701
G1 X108.717 Y54.662 E.01973
G1 X94.005 Y69.375 E.85912
G1 X94.005 Y68.897 E.01973
G1 X108.24 Y54.662 E.83122
M73 P33 R1
G1 X107.762 Y54.662 E.01973
G1 X94.005 Y68.419 E.80332
G1 X94.005 Y67.941 E.01973
G1 X107.284 Y54.662 E.77543
G1 X106.807 Y54.662 E.01973
G1 X94.005 Y67.464 E.74753
G1 X94.005 Y66.986 E.01973
G1 X106.329 Y54.662 E.71964
G1 X105.851 Y54.662 E.01973
G1 X94.005 Y66.508 E.69174
M73 P34 R1
G1 X94.005 Y66.03 E.01973
G1 X105.373 Y54.662 E.66385
G1 X104.896 Y54.662 E.01973
G1 X94.005 Y65.553 E.63595
G1 X94.005 Y65.075 E.01973
G1 X104.418 Y54.662 E.60805
G1 X103.94 Y54.662 E.01973
G1 X94.005 Y64.597 E.58016
G1 X94.005 Y64.12 E.01973
G1 X103.462 Y54.662 E.55226
M73 P35 R1
G1 X102.985 Y54.662 E.01973
G1 X94.005 Y63.642 E.52437
G1 X94.005 Y63.164 E.01973
G1 X102.507 Y54.662 E.49647
G1 X102.029 Y54.662 E.01973
G1 X94.005 Y62.686 E.46858
G1 X94.005 Y62.209 E.01973
G1 X101.552 Y54.662 E.44068
G1 X101.074 Y54.662 E.01973
G1 X94.005 Y61.731 E.41278
G1 X94.005 Y61.253 E.01973
G1 X100.596 Y54.662 E.38489
G1 X100.118 Y54.662 E.01973
G1 X94.005 Y60.775 E.35699
G1 X94.005 Y60.298 E.01973
M73 P36 R1
G1 X99.641 Y54.662 E.3291
G1 X99.163 Y54.662 E.01973
G1 X94.005 Y59.82 E.3012
G1 X94.005 Y59.342 E.01973
G1 X98.685 Y54.662 E.2733
G1 X98.208 Y54.662 E.01973
G1 X94.005 Y58.865 E.24541
G1 X94.005 Y58.387 E.01973
G1 X97.73 Y54.662 E.21751
G1 X97.252 Y54.662 E.01973
G1 X94.005 Y57.909 E.18962
G1 X94.005 Y57.431 E.01973
G1 X96.774 Y54.662 E.16172
G1 X96.297 Y54.662 E.01973
G1 X94.005 Y56.954 E.13383
G1 X94.005 Y56.476 E.01973
G1 X95.819 Y54.662 E.10593
G1 X95.341 Y54.662 E.01973
G1 X94.005 Y55.998 E.07803
G1 X94.005 Y55.52 E.01973
G1 X94.863 Y54.662 E.05014
G1 X94.386 Y54.662 E.01973
M73 P37 R1
G1 X93.854 Y55.194 E.03106
; stop printing object Pad - 20x20.stl id:0 copy 0
;LAYER_CHANGE
;Z:1
;HEIGHT:0.3
;BEFORE_LAYER_CHANGE
;1
G92 E0


G1 E-.9 F2700
G1 Z1.1 F9000
;AFTER_LAYER_CHANGE
;1

; printing object Pad - 20x20.stl id:0 copy 0
G1 X93.741 Y54.398
G1 Z1
G1 E.9 F2100
;TYPE:Inner wall
;WIDTH:0.45
G1 F4800
G1 X111.848 Y54.398 E.85349
G1 X111.848 Y72.505 E.85349
G1 X93.741 Y72.505 E.85349
G1 X93.741 Y63.451 E.42675
G1 X93.741 Y54.458 E.42392
G1 X93.355 Y54.012 F9000
G1 F4800
G1 X112.234 Y54.012 E.88984
M73 P38 R1
G1 X112.234 Y72.891 E.88984
G1 X93.355 Y72.891 E.88984
G1 X93.355 Y63.451 E.44492
G1 X93.355 Y54.072 E.44209
G1 X92.994 Y53.651 F9000
;TYPE:Outer wall
;WIDTH:0.4
G1 F3600
G1 X112.594 Y53.651 E.80405
G1 X112.594 Y73.251 E.80405
M73 P39 R1
G1 X92.994 Y73.251 E.80405
G1 X92.994 Y63.451 E.40203
G1 X92.994 Y53.711 E.39956
G1 X93.064 Y53.691
G1 E-.9 F2700
G1 Z1.4 F9000
G1 X111.052 Y54.511
G1 Z1
G1 E.9 F2100
;TYPE:Internal solid infill
;WIDTH:0.402184
G1 F4800
G1 X111.584 Y55.043 E.03107
M73 P40 R1
G1 X111.584 Y55.521 E.01973
G1 X110.725 Y54.662 E.05015
G1 X110.247 Y54.662 E.01973
G1 X111.584 Y55.998 E.07804
G1 X111.584 Y56.476 E.01973
G1 X109.77 Y54.662 E.10594
G1 X109.292 Y54.662 E.01973
G1 X111.584 Y56.954 E.13383
G1 X111.584 Y57.432 E.01973
G1 X108.814 Y54.662 E.16173
G1 X108.336 Y54.662 E.01973
G1 X111.584 Y57.909 E.18962
G1 X111.584 Y58.387 E.01973
G1 X107.859 Y54.662 E.21752
G1 X107.381 Y54.662 E.01973
G1 X111.584 Y58.865 E.24542
G1 X111.584 Y59.342 E.01973
G1 X106.903 Y54.662 E.27331
G1 X106.426 Y54.662 E.01973
G1 X111.584 Y59.82 E.30121
G1 X111.584 Y60.298 E.01973
G1 X105.948 Y54.662 E.3291
G1 X105.47 Y54.662 E.01973
M73 P41 R1
G1 X111.584 Y60.776 E.357
G1 X111.584 Y61.253 E.01973
G1 X104.992 Y54.662 E.3849
G1 X104.515 Y54.662 E.01973
G1 X111.584 Y61.731 E.41279
G1 X111.584 Y62.209 E.01973
G1 X104.037 Y54.662 E.44069
G1 X103.559 Y54.662 E.01973
G1 X111.584 Y62.686 E.46858
G1 X111.584 Y63.164 E.01973
G1 X103.082 Y54.662 E.49648
G1 X102.604 Y54.662 E.01973
G1 X111.584 Y63.642 E.52437
G1 X111.584 Y64.12 E.01973
G1 X102.126 Y54.662 E.55227
M73 P42 R1
G1 X101.648 Y54.662 E.01973
G1 X111.584 Y64.597 E.58017
G1 X111.584 Y65.075 E.01973
G1 X101.171 Y54.662 E.60806
G1 X100.693 Y54.662 E.01973
G1 X111.584 Y65.553 E.63596
G1 X111.584 Y66.031 E.01973
G1 X100.215 Y54.662 E.66385
G1 X99.737 Y54.662 E.01973
G1 X111.584 Y66.508 E.69175
M73 P43 R1
G1 X111.584 Y66.986 E.01973
G1 X99.26 Y54.662 E.71964
G1 X98.782 Y54.662 E.01973
G1 X111.584 Y67.464 E.74754
G1 X111.584 Y67.941 E.01973
G1 X98.304 Y54.662 E.77544
G1 X97.827 Y54.662 E.01973
G1 X111.584 Y68.419 E.80333
G1 X111.584 Y68.897 E.01973
G1 X97.349 Y54.662 E.83123
M73 P44 R1
G1 X96.871 Y54.662 E.01973
G1 X111.584 Y69.375 E.85912
G1 X111.584 Y69.852 E.01973
G1 X96.393 Y54.662 E.88702
G1 X95.916 Y54.662 E.01973
G1 X111.584 Y70.33 E.91491
G1 X111.584 Y70.808 E.01973
G1 X95.438 Y54.662 E.94281
G1 X94.96 Y54.662 E.01973
G1 X111.584 Y71.286 E.97071
M73 P45 R1
G1 X111.584 Y71.763 E.01973
G1 X94.482 Y54.662 E.9986
G1 X94.005 Y54.662 E.01972
G1 X111.584 Y72.241 E1.02649
G1 X111.106 Y72.241 E.01973
G1 X94.005 Y55.14 E.99859
G1 X94.005 Y55.617 E.01973
G1 X110.628 Y72.241 E.9707
M73 P46 R1
G1 X110.151 Y72.241 E.01973
G1 X94.005 Y56.095 E.9428
G1 X94.005 Y56.573 E.01973
G1 X109.673 Y72.241 E.91491
G1 X109.195 Y72.241 E.01973
G1 X94.005 Y57.051 E.88701
G1 X94.005 Y57.528 E.01973
G1 X108.717 Y72.241 E.85912
M73 P47 R1
G1 X108.24 Y72.241 E.01973
G1 X94.005 Y58.006 E.83122
G1 X94.005 Y58.484 E.01973
G1 X107.762 Y72.241 E.80332
G1 X107.284 Y72.241 E.01973
G1 X94.005 Y58.961 E.77543
G1 X94.005 Y59.439 E.01973
G1 X106.807 Y72.241 E.74753
G1 X106.329 Y72.241 E.01973
G1 X94.005 Y59.917 E.71964
M73 P48 R1
G1 X94.005 Y60.395 E.01973
G1 X105.851 Y72.241 E.69174
G1 X105.373 Y72.241 E.01973
G1 X94.005 Y60.872 E.66385
G1 X94.005 Y61.35 E.01973
G1 X104.896 Y72.241 E.63595
G1 X104.418 Y72.241 E.01973
G1 X94.005 Y61.828 E.60805
G1 X94.005 Y62.306 E.01973
G1 X103.94 Y72.241 E.58016
M73 P49 R1
G1 X103.462 Y72.241 E.01973
G1 X94.005 Y62.783 E.55226
G1 X94.005 Y63.261 E.01973
G1 X102.985 Y72.241 E.52437
G1 X102.507 Y72.241 E.01973
G1 X94.005 Y63.739 E.49647
G1 X94.005 Y64.216 E.01973
G1 X102.029 Y72.241 E.46858
G1 X101.552 Y72.241 E.01973
G1 X94.005 Y64.694 E.44068
G1 X94.005 Y65.172 E.01973
G1 X101.074 Y72.241 E.41278
G1 X100.596 Y72.241 E.01973
G1 X94.005 Y65.65 E.38489
M73 P50 R1
