; generated by PrusaSlicer 2.6.0+MacOS-arm64 on 2023-08-11 at 09:07:39 UTC


;
;

;
;
; 

; external perimeters extrusion width = 0.40mm
; perimeters extrusion width = 0.40mm
; infill extrusion width = 0.40mm
; solid infill extrusion width = 0.40mm
; top infill extrusion width = 0.40mm
; first layer extrusion width = 0.45mm

M73 P0 R3
;TYPE:Custom
M83 ; use relative distances for extrusion
G90 ; use absolute coordinates
M140 S60 ; set final bed temp
M104 S180 ; set temporary nozzle temp to prevent oozing during homing
M557 X88.129:130.164 Y54.7781:96.8135 S25
G29 S2
G29 S0
M104 S215 ; set final nozzle temp
M190 S60 ; wait for bed temp to stabilize
M109 S215 ; wait for nozzle temp to stabilize
;M98 P"sys/print_area_mesh.g" A88.129 B130.164 C54.7781 D96.8135



M593 P"mzv" F59
M572 D0 S0.06
;M572 D0 S0.11
;M207 S0.80 R0.0 F1620 T900 Z0.25 
;M592 D0 A0.018 B-0.0019 L0.2
;M98 P"0:/sys/primeLine.g"
;Prime Line
G1 Y10
M400
G1 Z0.6 F720
G92 E0
G1 X50  Y10 E9 F1000 ; intro line
M73 P1 R3
G1 Y11
M400
G1 X100 Y11 E12.5 F1500 ; intro line
G92 E0
;M566 X1200.00 Y1200.00 Z10.00 E300 P1
;; set maximum speeds (mm/min)                                              
;M203 X18000.00 Y18000.00 Z600.00 E7200.00
;; set accelerations (mm/s^2)                                                                               
;M201 X2500.00 Y2500.00 Z200.00 E10000
;M204 P500 T2000

M566 X400.00 Y400.00 Z6.00 E120.00 P1          ; set maximum instantaneous speed changes (mm/min) // same as M205 but with mm/min
M203 X10800.00 Y10800.00 Z1000.00 E3600.00     ; set maximum speeds (mm/min)
M201 X3000.00 Y3000.00 Z100.00 E3600.00        ; set accelerations (mm/s^2)

G21 ; set units to millimeters
G90 ; use absolute coordinates
M83 ; use relative distances for extrusion
; Filament gcode
M107
;LAYER_CHANGE
;Z:0.2
;HEIGHT:0.2
;BEFORE_LAYER_CHANGE
;0.2
G92 E0

M73 P2 R3
G1 Z.2 F15000
;AFTER_LAYER_CHANGE
;0.2

G1 E-.8 F2400
G1 Z.6 F15000
G1 X89.896 Y60.195
G1 Z.2
G1 E.8 F1800
M201 X1000 Y1000
;TYPE:Skirt/Brim
;WIDTH:0.45
G1 F2400
G1 X91.742 Y57.914 E.09933
G1 X94.134 Y56.214 E.09933
G1 X96.894 Y55.219 E.09931
G1 X99.147 Y54.982 E.07668
G1 X119.147 Y54.982 E.67698
M73 P3 R3
G1 X122.054 Y55.38 E.09932
G1 X124.747 Y56.545 E.09932
G1 X127.028 Y58.391 E.09933
G1 X128.729 Y60.783 E.09935
G1 X129.724 Y63.543 E.09931
G1 X129.961 Y65.796 E.07668
G1 X129.961 Y85.796 E.67698
G1 X129.563 Y88.703 E.09932
G1 X128.398 Y91.396 E.09932
G1 X126.551 Y93.677 E.09935
G1 X124.16 Y95.378 E.09932
G1 X121.399 Y96.373 E.09934
G1 X119.147 Y96.61 E.07665
G1 X99.147 Y96.61 E.67698
M73 P4 R3
G1 X96.239 Y96.212 E.09935
G1 X93.546 Y95.047 E.09932
G1 X91.265 Y93.2 E.09935
G1 X89.565 Y90.809 E.0993
G1 X88.57 Y88.048 E.09934
G1 X88.333 Y85.796 E.07665
G1 X88.333 Y65.796 E.67698
G1 X88.731 Y62.888 E.09935
G1 X89.872 Y60.25 E.09729
M201 X3000 Y3000
G1 X90.254 Y60.419 F15000
M201 X1000 Y1000
G1 F2400
G1 X90.301 Y60.312 E.00396
G1 X92.142 Y58.099 E.09744
G1 X94.518 Y56.475 E.09742
G1 X97.249 Y55.563 E.09746
G1 X99.147 Y55.389 E.06451
G1 X119.147 Y55.389 E.67698
M73 P5 R3
G1 X121.998 Y55.787 E.09744
G1 X124.63 Y56.951 E.09741
G1 X126.843 Y58.791 E.09742
G1 X128.468 Y61.167 E.09744
G1 X129.379 Y63.898 E.09745
G1 X129.554 Y65.796 E.06452
G1 X129.554 Y85.796 E.67698
G1 X129.156 Y88.647 E.09744
G1 X127.992 Y91.279 E.09741
G1 X126.151 Y93.493 E.09747
G1 X123.775 Y95.117 E.09742
G1 X121.045 Y96.028 E.09742
G1 X119.147 Y96.203 E.06452
G1 X99.147 Y96.203 E.67698
G1 X96.296 Y95.805 E.09744
G1 X93.663 Y94.641 E.09744
G1 X91.45 Y92.801 E.09742
M73 P6 R3
G1 X89.825 Y90.424 E.09746
G1 X88.914 Y87.694 E.09742
G1 X88.74 Y85.796 E.06451
G1 X88.74 Y65.796 E.67698
G1 X89.138 Y62.945 E.09744
G1 X90.23 Y60.474 E.09144
M201 X3000 Y3000
; printing object Pad - 20x20.stl id:0 copy 0
G1 E-.8
G1 Z.6 F15000
G1 X118.415 Y85.064
G1 Z.2
G1 E.8 F1800
M201 X1000 Y1000
;TYPE:Perimeter
;WIDTH:0.449999
G1 F2400
G1 X99.879 Y85.064 E.62742
G1 X99.879 Y66.528 E.62742
M73 P7 R3
G1 X118.415 Y66.528 E.62742
G1 X118.415 Y85.004 E.62539
M201 X3000 Y3000
G1 X118.822 Y85.471 F15000
M201 X1000 Y1000
;TYPE:External perimeter
G1 F2400
G1 X99.472 Y85.471 E.65497
G1 X99.472 Y66.121 E.65497
M73 P8 R3
G1 X118.822 Y66.121 E.65497
G1 X118.822 Y85.411 E.65294
M201 X3000 Y3000
G1 X118.435 Y85.367 F15000
G1 E-.8 F2400
G1 Z.6 F15000
G1 X117.434 Y66.678
G1 Z.2
G1 E.8 F1800
M201 X1000 Y1000
;TYPE:Solid infill
;WIDTH:0.453161
G1 F2400
G1 X118.081 Y67.325 E.03121
M73 P9 R3
G1 X118.081 Y67.905 E.01978
G1 X117.037 Y66.862 E.05034
G1 X116.457 Y66.862 E.01978
G1 X118.081 Y68.485 E.07832
G1 X118.081 Y69.065 E.01978
G1 X115.877 Y66.862 E.1063
G1 X115.297 Y66.862 E.01978
G1 X118.081 Y69.646 E.1343
G1 X118.081 Y70.226 E.01978
G1 X114.717 Y66.862 E.16228
G1 X114.137 Y66.862 E.01978
G1 X118.081 Y70.806 E.19026
G1 X118.081 Y71.386 E.01978
G1 X113.556 Y66.862 E.21827
G1 X112.976 Y66.862 E.01978
G1 X118.081 Y71.966 E.24625
G1 X118.081 Y72.546 E.01978
G1 X112.396 Y66.862 E.27423
G1 X111.816 Y66.862 E.01978
G1 X118.081 Y73.127 E.30223
G1 X118.081 Y73.707 E.01978
G1 X111.236 Y66.862 E.33021
M73 P10 R3
G1 X110.656 Y66.862 E.01978
G1 X118.081 Y74.287 E.35819
G1 X118.081 Y74.867 E.01978
G1 X110.075 Y66.862 E.38619
G1 X109.495 Y66.862 E.01978
G1 X118.081 Y75.447 E.41417
G1 X118.081 Y76.027 E.01978
G1 X108.915 Y66.862 E.44215
G1 X108.335 Y66.862 E.01978
G1 X118.081 Y76.608 E.47016
G1 X118.081 Y77.188 E.01978
G1 X107.755 Y66.862 E.49814
M73 P11 R3
G1 X107.175 Y66.862 E.01978
G1 X118.081 Y77.768 E.52612
G1 X118.081 Y78.348 E.01978
G1 X106.594 Y66.862 E.55412
G1 X106.014 Y66.862 E.01978
G1 X118.081 Y78.928 E.5821
G1 X118.081 Y79.508 E.01978
G1 X105.434 Y66.862 E.61008
M73 P12 R3
G1 X104.854 Y66.862 E.01978
G1 X118.081 Y80.089 E.63809
G1 X118.081 Y80.669 E.01978
G1 X104.274 Y66.862 E.66607
G1 X103.694 Y66.862 E.01978
G1 X118.081 Y81.249 E.69405
G1 X118.081 Y81.829 E.01978
G1 X103.113 Y66.862 E.72205
M73 P13 R3
G1 X102.533 Y66.862 E.01978
G1 X118.081 Y82.409 E.75003
G1 X118.081 Y82.989 E.01978
G1 X101.953 Y66.862 E.77801
M73 P13 R2
G1 X101.373 Y66.862 E.01978
G1 X118.081 Y83.57 E.80601
M73 P14 R2
G1 X118.081 Y84.15 E.01978
G1 X100.793 Y66.862 E.83399
G1 X100.213 Y66.862 E.01978
G1 X118.081 Y84.73 E.86197
G1 X117.501 Y84.73 E.01978
G1 X100.213 Y67.442 E.83399
M73 P15 R2
G1 X100.213 Y68.022 E.01978
G1 X116.92 Y84.73 E.80599
G1 X116.34 Y84.73 E.01978
G1 X100.213 Y68.602 E.77801
G1 X100.213 Y69.182 E.01978
G1 X115.76 Y84.73 E.75003
G1 X115.18 Y84.73 E.01978
G1 X100.213 Y69.763 E.72203
M73 P16 R2
G1 X100.213 Y70.343 E.01978
G1 X114.6 Y84.73 E.69405
G1 X114.02 Y84.73 E.01978
G1 X100.213 Y70.923 E.66607
G1 X100.213 Y71.503 E.01978
G1 X113.439 Y84.73 E.63806
M73 P17 R2
G1 X112.859 Y84.73 E.01978
G1 X100.213 Y72.083 E.61008
G1 X100.213 Y72.663 E.01978
G1 X112.279 Y84.73 E.5821
G1 X111.699 Y84.73 E.01978
G1 X100.213 Y73.244 E.5541
G1 X100.213 Y73.824 E.01978
G1 X111.119 Y84.73 E.52612
G1 X110.539 Y84.73 E.01978
G1 X100.213 Y74.404 E.49814
M73 P18 R2
G1 X100.213 Y74.984 E.01978
G1 X109.958 Y84.73 E.47013
G1 X109.378 Y84.73 E.01978
G1 X100.213 Y75.564 E.44215
G1 X100.213 Y76.144 E.01978
G1 X108.798 Y84.73 E.41417
G1 X108.218 Y84.73 E.01978
G1 X100.213 Y76.725 E.38617
G1 X100.213 Y77.305 E.01978
G1 X107.638 Y84.73 E.35819
M73 P19 R2
G1 X107.058 Y84.73 E.01978
G1 X100.213 Y77.885 E.33021
G1 X100.213 Y78.465 E.01978
G1 X106.477 Y84.73 E.30221
G1 X105.897 Y84.73 E.01978
G1 X100.213 Y79.045 E.27423
G1 X100.213 Y79.625 E.01978
G1 X105.317 Y84.73 E.24625
G1 X104.737 Y84.73 E.01978
G1 X100.213 Y80.206 E.21824
G1 X100.213 Y80.786 E.01978
G1 X104.157 Y84.73 E.19026
G1 X103.577 Y84.73 E.01978
G1 X100.213 Y81.366 E.16228
G1 X100.213 Y81.946 E.01978
G1 X102.996 Y84.73 E.13428
G1 X102.416 Y84.73 E.01978
G1 X100.213 Y82.526 E.1063
G1 X100.213 Y83.106 E.01978
G1 X101.836 Y84.73 E.07832
M73 P20 R2
G1 X101.256 Y84.73 E.01978
G1 X100.213 Y83.687 E.05032
G1 X100.213 Y84.267 E.01978
G1 X100.859 Y84.913 E.03116
M201 X3000 Y3000
; stop printing object Pad - 20x20.stl id:0 copy 0
M106 S127.5
;LAYER_CHANGE
;Z:0.4
;HEIGHT:0.2
;BEFORE_LAYER_CHANGE
;0.4
G92 E0

G1 Z.4 F15000
;AFTER_LAYER_CHANGE
;0.4

; printing object Pad - 20x20.stl id:0 copy 0
G1 E-.8 F2400
G1 Z.8 F15000
G1 X118.59 Y85.239
G1 Z.4
G1 E.8 F1800
;TYPE:Perimeter
;WIDTH:0.399999
G1 F6972
G1 X99.704 Y85.239 E.56075
G1 X99.704 Y66.353 E.56075
G1 X118.59 Y66.353 E.56075
G1 X118.59 Y85.179 E.55897
G1 X118.947 Y85.596 F15000
;TYPE:External perimeter
G1 F6972
G1 X99.347 Y85.596 E.58195
G1 X99.347 Y65.996 E.58195
M73 P21 R2
G1 X118.947 Y65.996 E.58195
G1 X118.947 Y85.536 E.58017
G1 X118.56 Y85.492 F15000
G1 E-.8 F2400
G1 Z.8 F15000
G1 X100.093 Y66.675
G1 Z.4
G1 E.8 F1800
M201 X4000 Y4000
;TYPE:Solid infill
;WIDTH:0.486634
G1 F6972
G1 X100.054 Y66.635 E.00206
G1 X100.001 Y66.65 E.00203
G1 X99.986 Y66.703 E.00203
G1 X100.026 Y66.743 E.00209
G1 X100.079 Y66.728 E.00203
;WIDTH:0.399999
G1 X99.997 Y67.299 E.01713
G1 X100.649 Y66.646 E.0274
G1 X101.154 Y66.646 E.01499
G1 X99.997 Y67.804 E.0486
G1 X99.997 Y68.309 E.01499
G1 X101.659 Y66.646 E.06981
G1 X102.164 Y66.646 E.01499
G1 X99.997 Y68.814 E.09101
G1 X99.997 Y69.318 E.01496
G1 X102.669 Y66.646 E.1122
G1 X103.174 Y66.646 E.01499
G1 X99.997 Y69.823 E.1334
G1 X99.997 Y70.328 E.01499
G1 X103.679 Y66.646 E.15461
M73 P22 R2
G1 X104.184 Y66.646 E.01499
G1 X99.997 Y70.833 E.17581
G1 X99.997 Y71.338 E.01499
G1 X104.689 Y66.646 E.19702
G1 X105.194 Y66.646 E.01499
G1 X99.997 Y71.843 E.21822
G1 X99.997 Y72.348 E.01499
G1 X105.699 Y66.646 E.23943
G1 X106.204 Y66.646 E.01499
G1 X99.997 Y72.853 E.26063
G1 X99.997 Y73.358 E.01499
G1 X106.709 Y66.646 E.28184
G1 X107.214 Y66.646 E.01499
G1 X99.997 Y73.863 E.30304
G1 X99.997 Y74.368 E.01499
G1 X107.719 Y66.646 E.32424
G1 X108.224 Y66.646 E.01499
G1 X99.997 Y74.873 E.34545
G1 X99.997 Y75.378 E.01499
G1 X108.729 Y66.646 E.36665
G1 X109.234 Y66.646 E.01499
G1 X99.997 Y75.883 E.38786
G1 X99.997 Y76.388 E.01499
G1 X109.739 Y66.646 E.40906
M73 P23 R2
G1 X110.244 Y66.646 E.01499
G1 X99.997 Y76.893 E.43027
G1 X99.997 Y77.398 E.01499
G1 X110.749 Y66.646 E.45147
G1 X111.254 Y66.646 E.01499
G1 X99.997 Y77.903 E.47268
G1 X99.997 Y78.408 E.01499
G1 X111.759 Y66.646 E.49388
G1 X112.264 Y66.646 E.01499
G1 X99.997 Y78.913 E.51509
G1 X99.997 Y79.418 E.01499
G1 X112.769 Y66.646 E.53629
G1 X113.274 Y66.646 E.01499
G1 X99.997 Y79.923 E.5575
G1 X99.997 Y80.428 E.01499
G1 X113.779 Y66.646 E.5787
G1 X114.284 Y66.646 E.01499
G1 X99.997 Y80.933 E.59991
M73 P24 R2
G1 X99.997 Y81.438 E.01499
G1 X114.789 Y66.646 E.62111
G1 X115.294 Y66.646 E.01499
G1 X99.997 Y81.943 E.64232
G1 X99.997 Y82.448 E.01499
G1 X115.799 Y66.646 E.66352
G1 X116.304 Y66.646 E.01499
G1 X99.997 Y82.953 E.68473
G1 X99.997 Y83.458 E.01499
G1 X116.809 Y66.646 E.70593
G1 X117.314 Y66.646 E.01499
G1 X99.997 Y83.963 E.72714
G1 X99.997 Y84.468 E.01499
G1 X117.819 Y66.646 E.74834
M73 P25 R2
G1 X118.297 Y66.673 E.01422
G1 X100.024 Y84.946 E.76728
G1 X100.529 Y84.946 E.01499
G1 X118.297 Y67.178 E.74607
G1 X118.297 Y67.683 E.01499
G1 X101.034 Y84.946 E.72487
G1 X101.539 Y84.946 E.01499
G1 X118.297 Y68.188 E.70366
G1 X118.297 Y68.693 E.01499
G1 X102.044 Y84.946 E.68246
G1 X102.549 Y84.946 E.01499
G1 X118.297 Y69.198 E.66125
G1 X118.297 Y69.703 E.01499
G1 X103.054 Y84.946 E.64005
M73 P26 R2
G1 X103.559 Y84.946 E.01499
G1 X118.297 Y70.208 E.61885
G1 X118.297 Y70.713 E.01499
G1 X104.064 Y84.946 E.59764
G1 X104.569 Y84.946 E.01499
G1 X118.297 Y71.218 E.57644
G1 X118.297 Y71.723 E.01499
G1 X105.074 Y84.946 E.55523
G1 X105.579 Y84.946 E.01499
G1 X118.297 Y72.228 E.53403
G1 X118.297 Y72.733 E.01499
G1 X106.084 Y84.946 E.51282
G1 X106.589 Y84.946 E.01499
G1 X118.297 Y73.238 E.49162
G1 X118.297 Y73.743 E.01499
G1 X107.094 Y84.946 E.47041
M73 P27 R2
G1 X107.599 Y84.946 E.01499
G1 X118.297 Y74.248 E.44921
G1 X118.297 Y74.753 E.01499
G1 X108.104 Y84.946 E.428
G1 X108.609 Y84.946 E.01499
G1 X118.297 Y75.258 E.4068
G1 X118.297 Y75.763 E.01499
G1 X109.113 Y84.946 E.38561
G1 X109.618 Y84.946 E.01499
G1 X118.297 Y76.268 E.36441
G1 X118.297 Y76.773 E.01499
G1 X110.123 Y84.946 E.3432
G1 X110.628 Y84.946 E.01499
G1 X118.297 Y77.278 E.322
G1 X118.297 Y77.783 E.01499
G1 X111.133 Y84.946 E.30079
G1 X111.638 Y84.946 E.01499
G1 X118.297 Y78.288 E.27959
G1 X118.297 Y78.792 E.01496
G1 X112.143 Y84.946 E.2584
M73 P28 R2
G1 X112.648 Y84.946 E.01499
G1 X118.297 Y79.297 E.2372
G1 X118.297 Y79.802 E.01499
G1 X113.153 Y84.946 E.216
G1 X113.658 Y84.946 E.01499
G1 X118.297 Y80.307 E.19479
G1 X118.297 Y80.812 E.01499
G1 X114.163 Y84.946 E.17359
G1 X114.668 Y84.946 E.01499
G1 X118.297 Y81.317 E.15238
G1 X118.297 Y81.822 E.01499
G1 X115.173 Y84.946 E.13118
G1 X115.678 Y84.946 E.01499
G1 X118.297 Y82.327 E.10997
G1 X118.297 Y82.832 E.01499
G1 X116.183 Y84.946 E.08877
G1 X116.688 Y84.946 E.01499
G1 X118.297 Y83.337 E.06756
G1 X118.297 Y83.842 E.01499
G1 X117.193 Y84.946 E.04636
G1 X117.698 Y84.946 E.01499
G1 X118.297 Y84.347 E.02515
G1 X118.319 Y84.905 E.01658
;WIDTH:0.454806
G1 X118.283 Y84.869 E.00174
G1 X118.233 Y84.882 E.00177
G1 X118.22 Y84.932 E.00177
G1 X118.256 Y84.968 E.00174
G1 X118.306 Y84.955 E.00177
M201 X3000 Y3000
; stop printing object Pad - 20x20.stl id:0 copy 0
M106 S255
;LAYER_CHANGE
;Z:0.6
;HEIGHT:0.2
;BEFORE_LAYER_CHANGE
;0.6
G92 E0

G1 Z.6 F15000
;AFTER_LAYER_CHANGE
;0.6

; printing object Pad - 20x20.stl id:0 copy 0
G1 X118.59 Y85.239
;TYPE:Perimeter
;WIDTH:0.399999
G1 F6862
G1 X99.704 Y85.239 E.56075
G1 X99.704 Y66.353 E.56075
G1 X118.59 Y66.353 E.56075
M73 P29 R2
G1 X118.59 Y85.179 E.55897
G1 X118.947 Y85.596 F15000
;TYPE:External perimeter
G1 F6862
G1 X99.347 Y85.596 E.58195
G1 X99.347 Y65.996 E.58195
G1 X118.947 Y65.996 E.58195
G1 X118.947 Y85.536 E.58017
G1 X118.56 Y85.492 F15000
G1 E-.8 F2400
G1 Z1 F15000
G1 X100.026 Y84.849
G1 Z.6
G1 E.8 F1800
M201 X4000 Y4000
;TYPE:Solid infill
;WIDTH:0.486634
G1 F6862
G1 X99.986 Y84.888 E.00206
G1 X100.001 Y84.942 E.00207
G1 X100.054 Y84.956 E.00202
G1 X100.093 Y84.917 E.00203
G1 X100.079 Y84.863 E.00206
;WIDTH:0.399999
G1 X99.997 Y84.293 E.0171
G1 X100.649 Y84.946 E.0274
G1 X101.154 Y84.946 E.01499
G1 X99.997 Y83.788 E.0486
M73 P30 R2
G1 X99.997 Y83.283 E.01499
G1 X101.659 Y84.946 E.06981
G1 X102.164 Y84.946 E.01499
G1 X99.997 Y82.778 E.09101
G1 X99.997 Y82.273 E.01499
G1 X102.669 Y84.946 E.11222
G1 X103.174 Y84.946 E.01499
G1 X99.997 Y81.768 E.13342
G1 X99.997 Y81.263 E.01499
G1 X103.679 Y84.946 E.15463
G1 X104.184 Y84.946 E.01499
G1 X99.997 Y80.758 E.17583
G1 X99.997 Y80.253 E.01499
G1 X104.689 Y84.946 E.19704
G1 X105.194 Y84.946 E.01499
G1 X99.997 Y79.748 E.21824
G1 X99.997 Y79.243 E.01499
G1 X105.699 Y84.946 E.23945
G1 X106.204 Y84.946 E.01499
G1 X99.997 Y78.738 E.26065
G1 X99.997 Y78.233 E.01499
G1 X106.709 Y84.946 E.28186
G1 X107.214 Y84.946 E.01499
G1 X99.997 Y77.728 E.30306
G1 X99.997 Y77.223 E.01499
G1 X107.719 Y84.946 E.32427
G1 X108.224 Y84.946 E.01499
G1 X99.997 Y76.718 E.34547
M73 P31 R2
G1 X99.997 Y76.213 E.01499
G1 X108.729 Y84.946 E.36668
G1 X109.234 Y84.946 E.01499
G1 X99.997 Y75.708 E.38788
G1 X99.997 Y75.203 E.01499
G1 X109.739 Y84.946 E.40909
G1 X110.244 Y84.946 E.01499
G1 X99.997 Y74.698 E.43029
G1 X99.997 Y74.193 E.01499
G1 X110.749 Y84.946 E.45149
G1 X111.254 Y84.946 E.01499
G1 X99.997 Y73.688 E.4727
G1 X99.997 Y73.183 E.01499
G1 X111.759 Y84.946 E.4939
G1 X112.264 Y84.946 E.01499
G1 X99.997 Y72.678 E.51511
G1 X99.997 Y72.173 E.01499
G1 X112.769 Y84.946 E.53631
M73 P32 R2
G1 X113.274 Y84.946 E.01499
G1 X99.997 Y71.668 E.55752
G1 X99.997 Y71.163 E.01499
G1 X113.779 Y84.946 E.57872
G1 X114.284 Y84.946 E.01499
G1 X99.997 Y70.658 E.59993
G1 X99.997 Y70.153 E.01499
G1 X114.789 Y84.946 E.62113
G1 X115.294 Y84.946 E.01499
G1 X99.997 Y69.648 E.64234
G1 X99.997 Y69.143 E.01499
G1 X115.799 Y84.946 E.66354
G1 X116.304 Y84.946 E.01499
G1 X99.997 Y68.638 E.68475
G1 X99.997 Y68.133 E.01499
G1 X116.809 Y84.946 E.70595
M73 P33 R2
G1 X117.314 Y84.946 E.01499
G1 X99.997 Y67.628 E.72716
G1 X99.997 Y67.123 E.01499
G1 X117.819 Y84.946 E.74836
G1 X118.297 Y84.919 E.01422
G1 X100.024 Y66.646 E.76728
G1 X100.529 Y66.646 E.01499
G1 X118.297 Y84.414 E.74607
G1 X118.297 Y83.909 E.01499
