; HEADER_BLOCK_START
; generated by GalaxySlicer 1.0.0-alpha2 on 2023-08-01 at 23:00:33
; total layer number: 7
; HEADER_BLOCK_END

; THUMBNAIL_BLOCK_START
; THUMBNAIL_BLOCK_END

; external perimeters extrusion width = 0.40mm
; perimeters extrusion width = 0.45mm
; infill extrusion width = 0.45mm
; solid infill extrusion width = 0.40mm
; top infill extrusion width = 0.40mm
; first layer extrusion width = 0.50mm

; EXECUTABLE_BLOCK_START
M73 P0 R3
;TYPE:Custom
M83 ; use relative distances for extrusion
G90 ; use absolute coordinates\nM140 S60 ; set final bed temp\
M104 S180 ; set temporary nozzle temp to prevent oozing during homing
M557 X89.7053:115.883 Y50.3623:76.5404 S25
G29 S2
G29 S0
M104 S235 ; set final nozzle temp
M190 S60 ; wait for bed temp to stabilize
M109 S235 ; wait for nozzle temp to stabilize
;M593 P\"mzv\" F59
M572 D0 S0.06
G90
G1 Y10
M400
G1 Z0.6 F720
G92 E0
G1 X50  Y10 E9 F1000 ; intro line
M73 P1 R2
G1 Y11
M400
G1 X100 Y11 E12.5 F1500 ; intro line
G92 E0
M566 X480.00 Y480.00 Z10.00 E1200.00 P1        ; set maximum instantaneous speed changes (mm/min) // same as M205 but with mm/min
M203 X10800.00 Y10800.00 Z1000.00 E3600.00     ; set maximum speeds (mm/min)
M201 X3000.00 Y3000.00 Z100.00 E3600.00        ; set accelerations (mm/s^2)\n",
   
G90
G21
M83 ; use relative distances for extrusion
; filament start gcode
M106 S0
;LAYER_CHANGE
;Z:0.3
;HEIGHT:0.3
;BEFORE_LAYER_CHANGE
;0.3
G92 E0


M73 P2 R2
G1 E-.9 F2700
G1 Z.4 F9000
;AFTER_LAYER_CHANGE
;0.3

M204 P500
G1 X90.316 Y52.001
M73 P3 R2
G1 Z.3
G1 E.9 F2100
;TYPE:Skirt
;WIDTH:0.5
G1 F2700
G1 X91.388 Y50.948 E.07754
G1 X92.794 Y50.58 E.07505
G1 X112.794 Y50.58 E1.03232
G1 X114.244 Y50.973 E.07754
G1 X115.297 Y52.045 E.07754
G1 X115.666 Y53.451 E.07505
G1 X115.666 Y73.451 E1.03232
G1 X115.273 Y74.901 E.07754
G1 X114.201 Y75.954 E.07754
G1 X112.794 Y76.323 E.07505
G1 X92.794 Y76.323 E1.03232
M73 P4 R2
G1 X91.344 Y75.93 E.07754
G1 X90.291 Y74.858 E.07754
G1 X89.923 Y73.451 E.07505
G1 X89.923 Y53.451 E1.03232
G1 X90.3 Y52.059 E.07445
G1 X90.733 Y52.187 F9000
G1 F2700
G1 X90.751 Y52.127 E.00326
G1 X91.8 Y51.228 E.07131
G1 X92.794 Y51.016 E.05249
G1 X112.794 Y51.016 E1.03232
G1 X114.119 Y51.408 E.07131
G1 X115.018 Y52.457 E.07131
G1 X115.23 Y53.451 E.05249
M73 P5 R2
G1 X115.23 Y73.451 E1.03232
G1 X114.838 Y74.776 E.07131
G1 X113.789 Y75.675 E.07131
G1 X112.794 Y75.887 E.05249
G1 X92.794 Y75.887 E1.03232
G1 X91.47 Y75.495 E.07131
G1 X90.571 Y74.446 E.07131
G1 X90.359 Y73.451 E.05249
G1 X90.359 Y53.451 E1.03232
G1 X90.716 Y52.245 E.06495
; printing object Pad - 20x20.stl id:0 copy 0
G1 E-.9
M73 P6 R2
G1 Z.7 F9000
G1 X93.916 Y54.573
G1 Z.3
G1 E.9 F2100
;TYPE:Inner wall
;WIDTH:0.5
G1 F2700
G1 X111.673 Y54.573 E.91658
G1 X111.673 Y72.33 E.91658
G1 X93.916 Y72.33 E.91658
G1 X93.916 Y54.633 E.91348
M73 P7 R2
G1 X93.48 Y54.137 F9000
G1 F2700
G1 X112.109 Y54.137 E.96155
G1 X112.109 Y72.766 E.96155
G1 X93.48 Y72.766 E.96155
G1 X93.48 Y54.197 E.95845
M73 P8 R2
G1 X93.044 Y53.701 F9000
;TYPE:Outer wall
G1 F2700
G1 X112.544 Y53.701 E1.00652
G1 X112.544 Y73.201 E1.00652
G1 X93.044 Y73.201 E1.00652
M73 P9 R2
G1 X93.044 Y53.761 E1.00342
G1 X93.122 Y53.722
G1 E-.9
G1 Z.7 F9000
G1 X110.646 Y54.703
G1 Z.3
G1 E.9 F2100
;TYPE:Bottom surface
;WIDTH:0.507326
G1 F3600
G1 X111.346 Y55.403 E.05196
G1 X111.346 Y56.03 E.03288
G1 X110.216 Y54.899 E.08391
G1 X109.589 Y54.899 E.03288
G1 X111.346 Y56.656 E.13041
G1 X111.346 Y57.283 E.03288
G1 X108.963 Y54.899 E.1769
G1 X108.337 Y54.899 E.03288
G1 X111.346 Y57.909 E.2234
M73 P10 R2
G1 X111.346 Y58.536 E.03288
G1 X107.71 Y54.899 E.26989
G1 X107.084 Y54.899 E.03288
G1 X111.346 Y59.162 E.31639
G1 X111.346 Y59.788 E.03288
G1 X106.457 Y54.899 E.36288
G1 X105.831 Y54.899 E.03288
G1 X111.346 Y60.415 E.40938
G1 X111.346 Y61.041 E.03288
G1 X105.205 Y54.899 E.45587
G1 X104.578 Y54.899 E.03288
G1 X111.346 Y61.668 E.50237
G1 X111.346 Y62.294 E.03288
G1 X103.952 Y54.899 E.54886
M73 P11 R2
G1 X103.325 Y54.899 E.03288
G1 X111.346 Y62.92 E.59536
G1 X111.346 Y63.547 E.03288
G1 X102.699 Y54.899 E.64185
G1 X102.072 Y54.899 E.03288
G1 X111.346 Y64.173 E.68835
G1 X111.346 Y64.8 E.03288
G1 X101.446 Y54.899 E.73484
G1 X100.82 Y54.899 E.03288
G1 X111.346 Y65.426 E.78134
G1 X111.346 Y66.053 E.03288
M73 P12 R2
G1 X100.193 Y54.899 E.82783
G1 X99.567 Y54.899 E.03288
G1 X111.346 Y66.679 E.87433
G1 X111.346 Y67.305 E.03288
G1 X98.94 Y54.899 E.92082
G1 X98.314 Y54.899 E.03288
G1 X111.346 Y67.932 E.96732
G1 X111.346 Y68.558 E.03288
G1 X97.688 Y54.899 E1.01381
M73 P13 R2
G1 X97.061 Y54.899 E.03288
G1 X111.346 Y69.185 E1.06031
G1 X111.346 Y69.811 E.03288
G1 X96.435 Y54.899 E1.10681
G1 X95.808 Y54.899 E.03288
G1 X111.346 Y70.437 E1.1533
G1 X111.346 Y71.064 E.03288
G1 X95.182 Y54.899 E1.1998
M73 P14 R2
G1 X94.555 Y54.899 E.03288
G1 X111.346 Y71.69 E1.24629
G1 X111.346 Y72.003 E.01644
G1 X111.033 Y72.003 E.01644
G1 X94.242 Y55.213 E1.24628
G1 X94.242 Y55.839 E.03288
G1 X110.407 Y72.003 E1.19979
M73 P15 R2
G1 X109.78 Y72.003 E.03288
G1 X94.242 Y56.465 E1.15329
G1 X94.242 Y57.092 E.03288
G1 X109.154 Y72.003 E1.1068
G1 X108.527 Y72.003 E.03288
G1 X94.242 Y57.718 E1.0603
G1 X94.242 Y58.345 E.03288
G1 X107.901 Y72.003 E1.01381
M73 P16 R2
G1 X107.275 Y72.003 E.03288
G1 X94.242 Y58.971 E.96731
G1 X94.242 Y59.598 E.03288
G1 X106.648 Y72.003 E.92082
G1 X106.022 Y72.003 E.03288
G1 X94.242 Y60.224 E.87432
G1 X94.242 Y60.85 E.03288
G1 X105.395 Y72.003 E.82783
M73 P17 R2
G1 X104.769 Y72.003 E.03288
G1 X94.242 Y61.477 E.78133
G1 X94.242 Y62.103 E.03288
G1 X104.143 Y72.003 E.73483
G1 X103.516 Y72.003 E.03288
G1 X94.242 Y62.73 E.68834
G1 X94.242 Y63.356 E.03288
G1 X102.89 Y72.003 E.64184
G1 X102.263 Y72.003 E.03288
G1 X94.242 Y63.982 E.59535
M73 P18 R2
G1 X94.242 Y64.609 E.03288
G1 X101.637 Y72.003 E.54885
G1 X101.01 Y72.003 E.03288
G1 X94.242 Y65.235 E.50236
G1 X94.242 Y65.862 E.03288
G1 X100.384 Y72.003 E.45586
G1 X99.758 Y72.003 E.03288
G1 X94.242 Y66.488 E.40937
G1 X94.242 Y67.115 E.03288
G1 X99.131 Y72.003 E.36287
G1 X98.505 Y72.003 E.03288
G1 X94.242 Y67.741 E.31638
G1 X94.242 Y68.367 E.03288
G1 X97.878 Y72.003 E.26988
M73 P19 R2
G1 X97.252 Y72.003 E.03288
G1 X94.242 Y68.994 E.22339
G1 X94.242 Y69.62 E.03288
G1 X96.625 Y72.003 E.17689
G1 X95.999 Y72.003 E.03288
G1 X94.242 Y70.247 E.1304
G1 X94.242 Y70.873 E.03288
G1 X95.373 Y72.003 E.0839
G1 X94.746 Y72.003 E.03288
G1 X94.046 Y71.303 E.05196
; stop printing object Pad - 20x20.stl id:0 copy 0
M106 S255
;LAYER_CHANGE
;Z:0.6
;HEIGHT:0.3
;BEFORE_LAYER_CHANGE
;0.6
G92 E0


G1 E-.9 F2700
G1 Z.7 F9000
;AFTER_LAYER_CHANGE
;0.6

M204 P1000
G10 S220 ; set nozzle temperature
; printing object Pad - 20x20.stl id:0 copy 0
G1 X93.741 Y54.398
G1 Z.6
G1 E.9 F2100
;TYPE:Inner wall
;WIDTH:0.45
G1 F4800
G1 X111.848 Y54.398 E.82736
G1 X111.848 Y72.505 E.82736
G1 X93.741 Y72.505 E.82736
M73 P20 R2
G1 X93.741 Y54.458 E.82462
G1 X93.355 Y54.012 F9000
G1 F4800
G1 X112.234 Y54.012 E.8626
G1 X112.234 Y72.891 E.8626
G1 X93.355 Y72.891 E.8626
G1 X93.355 Y54.072 E.85986
G1 X92.994 Y53.651 F9000
;TYPE:Outer wall
;WIDTH:0.4
G1 F3600
G1 X112.594 Y53.651 E.77944
M73 P21 R2
G1 X112.594 Y73.251 E.77944
G1 X92.994 Y73.251 E.77944
G1 X92.994 Y53.711 E.77705
G1 X93.072 Y53.672
G1 E-.9 F2700
G1 Z1 F9000
G1 X111.735 Y71.709
M73 P22 R2
G1 Z.6
G1 E.9 F2100
;TYPE:Internal solid infill
;WIDTH:0.402184
G1 F4800
G1 X111.203 Y72.241 E.03012
G1 X110.725 Y72.241 E.01912
G1 X111.584 Y71.382 E.04861
G1 X111.584 Y70.904 E.01912
G1 X110.247 Y72.241 E.07565
G1 X109.77 Y72.241 E.01912
G1 X111.584 Y70.427 E.10269
G1 X111.584 Y69.949 E.01912
G1 X109.292 Y72.241 E.12974
G1 X108.814 Y72.241 E.01912
G1 X111.584 Y69.471 E.15678
G1 X111.584 Y68.994 E.01912
G1 X108.336 Y72.241 E.18382
G1 X107.859 Y72.241 E.01912
G1 X111.584 Y68.516 E.21086
G1 X111.584 Y68.038 E.01912
G1 X107.381 Y72.241 E.2379
G1 X106.903 Y72.241 E.01912
G1 X111.584 Y67.56 E.26495
G1 X111.584 Y67.083 E.01912
G1 X106.426 Y72.241 E.29199
G1 X105.948 Y72.241 E.01912
G1 X111.584 Y66.605 E.31903
M73 P23 R2
G1 X111.584 Y66.127 E.01912
G1 X105.47 Y72.241 E.34607
G1 X104.992 Y72.241 E.01912
G1 X111.584 Y65.649 E.37311
G1 X111.584 Y65.172 E.01912
G1 X104.515 Y72.241 E.40015
G1 X104.037 Y72.241 E.01912
G1 X111.584 Y64.694 E.4272
G1 X111.584 Y64.216 E.01912
G1 X103.559 Y72.241 E.45424
G1 X103.082 Y72.241 E.01912
G1 X111.584 Y63.739 E.48128
G1 X111.584 Y63.261 E.01912
G1 X102.604 Y72.241 E.50832
G1 X102.126 Y72.241 E.01912
G1 X111.584 Y62.783 E.53536
M73 P24 R2
G1 X111.584 Y62.305 E.01912
G1 X101.648 Y72.241 E.56241
G1 X101.171 Y72.241 E.01912
G1 X111.584 Y61.828 E.58945
G1 X111.584 Y61.35 E.01912
G1 X100.693 Y72.241 E.61649
G1 X100.215 Y72.241 E.01912
G1 X111.584 Y60.872 E.64353
G1 X111.584 Y60.394 E.01912
G1 X99.737 Y72.241 E.67057
G1 X99.26 Y72.241 E.01912
G1 X111.584 Y59.917 E.69761
G1 X111.584 Y59.439 E.01912
G1 X98.782 Y72.241 E.72466
M73 P25 R2
G1 X98.304 Y72.241 E.01912
G1 X111.584 Y58.961 E.7517
G1 X111.584 Y58.484 E.01912
G1 X97.827 Y72.241 E.77874
G1 X97.349 Y72.241 E.01912
G1 X111.584 Y58.006 E.80578
G1 X111.584 Y57.528 E.01912
G1 X96.871 Y72.241 E.83282
G1 X96.393 Y72.241 E.01912
G1 X111.584 Y57.05 E.85987
M73 P26 R2
G1 X111.584 Y56.573 E.01912
G1 X95.916 Y72.241 E.88691
G1 X95.438 Y72.241 E.01912
G1 X111.584 Y56.095 E.91395
G1 X111.584 Y55.617 E.01912
G1 X94.96 Y72.241 E.94099
G1 X94.482 Y72.241 E.01912
G1 X111.584 Y55.14 E.96803
G1 X111.584 Y54.662 E.01912
G1 X94.005 Y72.241 E.99507
M73 P27 R2
G1 X94.005 Y71.763 E.01912
G1 X111.106 Y54.662 E.96803
G1 X110.628 Y54.662 E.01912
G1 X94.005 Y71.285 E.94098
G1 X94.005 Y70.808 E.01912
G1 X110.151 Y54.662 E.91394
G1 X109.673 Y54.662 E.01912
G1 X94.005 Y70.33 E.8869
M73 P28 R2
G1 X94.005 Y69.852 E.01912
G1 X109.195 Y54.662 E.85986
G1 X108.717 Y54.662 E.01912
G1 X94.005 Y69.375 E.83282
G1 X94.005 Y68.897 E.01912
G1 X108.24 Y54.662 E.80577
G1 X107.762 Y54.662 E.01912
G1 X94.005 Y68.419 E.77873
G1 X94.005 Y67.941 E.01912
G1 X107.284 Y54.662 E.75169
G1 X106.807 Y54.662 E.01912
G1 X94.005 Y67.464 E.72465
M73 P29 R2
G1 X94.005 Y66.986 E.01912
G1 X106.329 Y54.662 E.69761
G1 X105.851 Y54.662 E.01912
G1 X94.005 Y66.508 E.67057
G1 X94.005 Y66.03 E.01912
G1 X105.373 Y54.662 E.64352
G1 X104.896 Y54.662 E.01912
G1 X94.005 Y65.553 E.61648
G1 X94.005 Y65.075 E.01912
G1 X104.418 Y54.662 E.58944
G1 X103.94 Y54.662 E.01912
G1 X94.005 Y64.597 E.5624
M73 P30 R2
G1 X94.005 Y64.12 E.01912
G1 X103.462 Y54.662 E.53536
G1 X102.985 Y54.662 E.01912
G1 X94.005 Y63.642 E.50831
G1 X94.005 Y63.164 E.01912
G1 X102.507 Y54.662 E.48127
G1 X102.029 Y54.662 E.01912
G1 X94.005 Y62.686 E.45423
G1 X94.005 Y62.209 E.01912
G1 X101.552 Y54.662 E.42719
G1 X101.074 Y54.662 E.01912
G1 X94.005 Y61.731 E.40015
G1 X94.005 Y61.253 E.01912
G1 X100.596 Y54.662 E.37311
G1 X100.118 Y54.662 E.01912
M73 P31 R2
G1 X94.005 Y60.775 E.34606
G1 X94.005 Y60.298 E.01912
G1 X99.641 Y54.662 E.31902
G1 X99.163 Y54.662 E.01912
G1 X94.005 Y59.82 E.29198
G1 X94.005 Y59.342 E.01912
G1 X98.685 Y54.662 E.26494
G1 X98.208 Y54.662 E.01912
G1 X94.005 Y58.865 E.2379
G1 X94.005 Y58.387 E.01912
G1 X97.73 Y54.662 E.21085
G1 X97.252 Y54.662 E.01912
G1 X94.005 Y57.909 E.18381
G1 X94.005 Y57.431 E.01912
G1 X96.774 Y54.662 E.15677
G1 X96.297 Y54.662 E.01912
G1 X94.005 Y56.954 E.12973
G1 X94.005 Y56.476 E.01912
G1 X95.819 Y54.662 E.10269
G1 X95.341 Y54.662 E.01912
G1 X94.005 Y55.998 E.07565
G1 X94.005 Y55.52 E.01912
G1 X94.863 Y54.662 E.0486
G1 X94.386 Y54.662 E.01912
G1 X93.854 Y55.194 E.03011
; stop printing object Pad - 20x20.stl id:0 copy 0
;LAYER_CHANGE
;Z:0.9
;HEIGHT:0.3
;BEFORE_LAYER_CHANGE
;0.9
G92 E0


M73 P32 R2
G1 E-.9 F2700
G1 Z1 F9000
;AFTER_LAYER_CHANGE
;0.9

; printing object Pad - 20x20.stl id:0 copy 0
G1 X93.741 Y54.398
G1 Z.9
G1 E.9 F2100
;TYPE:Inner wall
;WIDTH:0.45
G1 F4800
G1 X111.848 Y54.398 E.82736
G1 X111.848 Y72.505 E.82736
G1 X93.741 Y72.505 E.82736
G1 X93.741 Y63.451 E.41368
G1 X93.741 Y54.458 E.41094
G1 X93.355 Y54.012 F9000
G1 F4800
G1 X112.234 Y54.012 E.8626
M73 P33 R2
G1 X112.234 Y72.891 E.8626
G1 X93.355 Y72.891 E.8626
G1 X93.355 Y63.451 E.4313
G1 X93.355 Y54.072 E.42856
G1 X92.994 Y53.651 F9000
;TYPE:Outer wall
;WIDTH:0.4
G1 F3600
G1 X112.594 Y53.651 E.77944
M73 P33 R1
G1 X112.594 Y73.251 E.77944
G1 X92.994 Y73.251 E.77944
M73 P34 R1
G1 X92.994 Y63.451 E.38972
G1 X92.994 Y53.711 E.38733
G1 X93.064 Y53.691
G1 E-.9 F2700
G1 Z1.3 F9000
G1 X111.052 Y54.511
G1 Z.9
G1 E.9 F2100
;TYPE:Internal solid infill
;WIDTH:0.402184
G1 F4800
G1 X111.584 Y55.043 E.03012
G1 X111.584 Y55.521 E.01912
G1 X110.725 Y54.662 E.04861
G1 X110.247 Y54.662 E.01912
G1 X111.584 Y55.998 E.07565
G1 X111.584 Y56.476 E.01912
G1 X109.77 Y54.662 E.10269
G1 X109.292 Y54.662 E.01912
G1 X111.584 Y56.954 E.12974
G1 X111.584 Y57.432 E.01912
G1 X108.814 Y54.662 E.15678
G1 X108.336 Y54.662 E.01912
G1 X111.584 Y57.909 E.18382
M73 P35 R1
G1 X111.584 Y58.387 E.01912
G1 X107.859 Y54.662 E.21086
G1 X107.381 Y54.662 E.01912
G1 X111.584 Y58.865 E.2379
G1 X111.584 Y59.342 E.01912
G1 X106.903 Y54.662 E.26495
G1 X106.426 Y54.662 E.01912
G1 X111.584 Y59.82 E.29199
G1 X111.584 Y60.298 E.01912
G1 X105.948 Y54.662 E.31903
G1 X105.47 Y54.662 E.01912
G1 X111.584 Y60.776 E.34607
G1 X111.584 Y61.253 E.01912
G1 X104.992 Y54.662 E.37311
G1 X104.515 Y54.662 E.01912
G1 X111.584 Y61.731 E.40015
G1 X111.584 Y62.209 E.01912
G1 X104.037 Y54.662 E.4272
G1 X103.559 Y54.662 E.01912
G1 X111.584 Y62.686 E.45424
M73 P36 R1
G1 X111.584 Y63.164 E.01912
G1 X103.082 Y54.662 E.48128
G1 X102.604 Y54.662 E.01912
G1 X111.584 Y63.642 E.50832
G1 X111.584 Y64.12 E.01912
G1 X102.126 Y54.662 E.53536
G1 X101.648 Y54.662 E.01912
G1 X111.584 Y64.597 E.56241
G1 X111.584 Y65.075 E.01912
G1 X101.171 Y54.662 E.58945
G1 X100.693 Y54.662 E.01912
G1 X111.584 Y65.553 E.61649
G1 X111.584 Y66.031 E.01912
G1 X100.215 Y54.662 E.64353
M73 P37 R1
G1 X99.737 Y54.662 E.01912
G1 X111.584 Y66.508 E.67057
G1 X111.584 Y66.986 E.01912
G1 X99.26 Y54.662 E.69761
G1 X98.782 Y54.662 E.01912
G1 X111.584 Y67.464 E.72466
G1 X111.584 Y67.941 E.01912
G1 X98.304 Y54.662 E.7517
G1 X97.827 Y54.662 E.01912
G1 X111.584 Y68.419 E.77874
M73 P38 R1
G1 X111.584 Y68.897 E.01912
G1 X97.349 Y54.662 E.80578
G1 X96.871 Y54.662 E.01912
G1 X111.584 Y69.375 E.83282
G1 X111.584 Y69.852 E.01912
G1 X96.393 Y54.662 E.85987
G1 X95.916 Y54.662 E.01912
G1 X111.584 Y70.33 E.88691
G1 X111.584 Y70.808 E.01912
G1 X95.438 Y54.662 E.91395
M73 P39 R1
G1 X94.96 Y54.662 E.01912
G1 X111.584 Y71.286 E.94099
G1 X111.584 Y71.763 E.01912
G1 X94.482 Y54.662 E.96803
G1 X94.005 Y54.662 E.01912
G1 X111.584 Y72.241 E.99507
G1 X111.106 Y72.241 E.01912
G1 X94.005 Y55.14 E.96803
G1 X94.005 Y55.617 E.01912
G1 X110.628 Y72.241 E.94098
M73 P40 R1
G1 X110.151 Y72.241 E.01912
G1 X94.005 Y56.095 E.91394
G1 X94.005 Y56.573 E.01912
G1 X109.673 Y72.241 E.8869
G1 X109.195 Y72.241 E.01912
G1 X94.005 Y57.051 E.85986
G1 X94.005 Y57.528 E.01912
G1 X108.717 Y72.241 E.83282
G1 X108.24 Y72.241 E.01912
G1 X94.005 Y58.006 E.80577
M73 P41 R1
G1 X94.005 Y58.484 E.01912
G1 X107.762 Y72.241 E.77873
G1 X107.284 Y72.241 E.01912
G1 X94.005 Y58.961 E.75169
G1 X94.005 Y59.439 E.01912
G1 X106.807 Y72.241 E.72465
G1 X106.329 Y72.241 E.01912
G1 X94.005 Y59.917 E.69761
G1 X94.005 Y60.395 E.01912
G1 X105.851 Y72.241 E.67057
G1 X105.373 Y72.241 E.01912
G1 X94.005 Y60.872 E.64352
M73 P42 R1
G1 X94.005 Y61.35 E.01912
G1 X104.896 Y72.241 E.61648
G1 X104.418 Y72.241 E.01912
G1 X94.005 Y61.828 E.58944
G1 X94.005 Y62.306 E.01912
G1 X103.94 Y72.241 E.5624
G1 X103.462 Y72.241 E.01912
G1 X94.005 Y62.783 E.53536
G1 X94.005 Y63.261 E.01912
G1 X102.985 Y72.241 E.50831
G1 X102.507 Y72.241 E.01912
G1 X94.005 Y63.739 E.48127
M73 P43 R1
G1 X94.005 Y64.216 E.01912
G1 X102.029 Y72.241 E.45423
G1 X101.552 Y72.241 E.01912
G1 X94.005 Y64.694 E.42719
G1 X94.005 Y65.172 E.01912
G1 X101.074 Y72.241 E.40015
G1 X100.596 Y72.241 E.01912
G1 X94.005 Y65.65 E.37311
G1 X94.005 Y66.127 E.01912
G1 X100.118 Y72.241 E.34606
G1 X99.641 Y72.241 E.01912
G1 X94.005 Y66.605 E.31902
G1 X94.005 Y67.083 E.01912
G1 X99.163 Y72.241 E.29198
G1 X98.685 Y72.241 E.01912
G1 X94.005 Y67.56 E.26494
G1 X94.005 Y68.038 E.01912
G1 X98.208 Y72.241 E.2379
