; HEADER_BLOCK_START
; generated by GalaxySlicer 1.0.0-beta on 2023-09-11 at 12:58:23
; total layer number: 221
; HEADER_BLOCK_END

; THUMBNAIL_BLOCK_START
; THUMBNAIL_BLOCK_END

; external perimeters extrusion width = 0.42mm
; perimeters extrusion width = 0.45mm
; infill extrusion width = 0.42mm
; solid infill extrusion width = 0.42mm
; top infill extrusion width = 0.42mm
; first layer extrusion width = 0.43mm

; EXECUTABLE_BLOCK_START
M73 P0 R130
;TYPE:Custom
G90 ; use absolute coordinates
M83 ; extruder relative mode
M104 S110
M140 S60 ; set bed temp

M104 S170 ; set extruder temp for bed leveling
M109 S170 ; wait for temp

M302 S160 ; lower cold extrusion limit to 160C

G1 E-2 F2400 ; retraction

M106 S100
M190 S60 ; wait for bed temp
M107
M557 X63.6124:171.388 Y75.0545:163.301 S25
G29 S2
G29 S0
; prepare for purge
G0 X0 Y0 F2800
M104 S220
M109 S220
G92 E0
;
; Extrude purge line
;
G92 E0 ; reset extruder position
G1 E2 F2400 ; deretraction after the initial one before nozzle cleaning

G0 E7 X-5 Y-7 Z0.6 F500 ; purge
G0 X5 E4 F500 ; purge
G0 X15 E4 F650 ; purge
G0 X25 E4 F800 ; purge
G0 X38 Z0.3 F8000 ; wipe, move close to the bed
G0 X51 Z0.5 F8000 ; wipe, move quickly away from the bed
G92 E0
M221 S100 ; set flow to 100%
M593 P"mzv" F43.6
G90
G21
M83 ; use relative distances for extrusion
; Filament gcode
M572 D0 S0.035; Override pressure advance value
M106 S0 ; disable fan
;LAYER_CHANGE
;Z:0.25
;HEIGHT:0.25
;BEFORE_LAYER_CHANGE
;0.25
G92 E0

G1 E-.8 F1800 ; retract
;AFTER_LAYER_CHANGE
;0.25

;_SET_FAN_SPEED_CHANGING_LAYER
M204 P500 ; adjust acceleration
; printing object Part Studio 2 - Part 1.step id:435459875188 copy 0
M204 T500 ; adjust acceleration
G1 Z.4 F4500 ; normal lift Z
G1 X65.212 Y76.122 ; move to first perimeter point travel_to_xyz
G1 Z.4 ; move to first perimeter point travel_to_xyz
G1 Z.25 ; restore layer Z
G1 E.8 F1800 ;  ; unretract
;TYPE:Inner wall
;WIDTH:0.429999
G1 F2100
G1 X170.32 Y76.122 E4.02925 ; perimeter
G1 X170.32 Y162.234 E3.30104 ; perimeter
G1 X64.68 Y162.234 E4.04966 ; perimeter
G1 X64.68 Y76.122 E3.30104 ; perimeter
G1 X65.172 Y76.122 E.01887 ; perimeter
G1 X64.734 Y75.746 F4500
G1 F2100
G1 X170.696 Y75.746 E4.06203 ; perimeter
G1 X170.696 Y162.61 E3.3299 ; perimeter
G1 X64.304 Y162.61 E4.07851 ; perimeter
G1 X64.304 Y75.746 E3.3299 ; perimeter
G1 X64.694 Y75.746 E.01495 ; perimeter
G1 X63.927 Y75.369 F4500
;TYPE:Outer wall
G1 F2100
G1 X171.073 Y75.369 E4.10737 ; perimeter
G1 X171.073 Y162.986 E3.35875 ; perimeter
G1 X63.927 Y162.986 E4.10736 ; perimeter
M73 P0 R129
G1 X63.927 Y75.409 E3.35722 ; perimeter
G1 E-.64 F1800 ; retract
;WIPE_START
G1 F2100
G1 X64.927 Y75.409 E-.16 ; wipe and retract
;WIPE_END
G1 Z.65 F4500 ; normal lift Z
G1 X92.375 Y82.275 Z.65 ; move to first perimeter point travel_to_xyz
G1 Z.25 ; restore layer Z
G1 E.8 F1800 ;  ; unretract
;TYPE:Inner wall
G1 F2100
G1 X92.728 Y82.345 E.0138 ; perimeter
G3 X101.822 Y89.564 I-2.747 J12.797 E.46114 ; perimeter
G3 X101.669 Y101.006 I-11.843 J5.564 E.45399 ; perimeter
;WIDTH:0.440655
G3 X101.094 Y102.004 I-6.325 J-2.978 E.04546 ; perimeter
;WIDTH:0.405685
G1 X100.596 Y102.734 E.03169 ; perimeter
;WIDTH:0.408705
G1 X100.292 Y103.164 E.01905 ; perimeter
;WIDTH:0.457951
G1 X99.878 Y103.704 E.028 ; perimeter
G1 X99.289 Y104.315 E.03495 ; perimeter
;WIDTH:0.429999
G3 X76.937 Y94.685 I-9.288 J-9.197 E1.1997 ; perimeter
G3 X89.206 Y82.077 I13.077 J.451 E.73961 ; perimeter
G3 X92.007 Y82.211 I.775 J13.066 E.10772 ; perimeter
G1 X92.336 Y82.268 E.01278 ; perimeter
G1 X91.829 Y82.564 F4500
G1 F2100
G1 X91.96 Y82.581 E.00503 ; perimeter
G3 X77.313 Y94.685 I-1.962 J12.539 E2.23396 ; perimeter
G3 X89.17 Y82.455 I12.698 J.449 E.71565 ; perimeter
G3 X90.329 Y82.433 I.88 J15.526 E.04444 ; perimeter
G3 X91.25 Y82.49 I-.332 J12.688 E.03539 ; perimeter
G1 X91.79 Y82.559 E.02085 ; perimeter
G1 E-.64 F1800 ; retract
;WIPE_START
G1 F2100
G1 X91.96 Y82.581 E-.02741 ; wipe and retract
G1 X92.66 Y82.71 E-.11392 ; wipe and retract
G1 X92.773 Y82.739 E-.01867 ; wipe and retract
;WIPE_END
G1 Z.65 F4500 ; normal lift Z
G1 X90.298 Y82.81 Z.65 ; move to first perimeter point travel_to_xyz
G1 Z.25 ; restore layer Z
G1 E.8 F1800 ;  ; unretract
;TYPE:Outer wall
G1 F2100
G1 X90.339 Y82.809 E.00159 ; perimeter
G3 X77.689 Y94.685 I-.342 J12.311 E2.22842 ; perimeter
G3 X89.205 Y82.83 I12.322 J.449 E.69433 ; perimeter
G1 X90.258 Y82.811 E.04037 ; perimeter
G1 E-.64 F1800 ; retract
;WIPE_START
G1 F2100
G1 X90.339 Y82.809 E-.01302 ; wipe and retract
G1 X91.226 Y82.866 E-.14216 ; wipe and retract
G1 X91.256 Y82.87 E-.00482 ; wipe and retract
;WIPE_END
G1 Z.65 F4500 ; normal lift Z
G1 X123.888 Y95.122 Z.65 ; move to first perimeter point travel_to_xyz
G1 Z.25 ; restore layer Z
G1 E.8 F1800 ;  ; unretract
;TYPE:Inner wall
G1 F2100
G1 X123.901 Y95.125 E.0005 ; perimeter
G3 X132.804 Y101.161 I-6.396 J19.02 E.41744 ; perimeter
;WIDTH:0.453845
G3 X133.525 Y102.077 I-4.937 J4.629 E.04758 ; perimeter
;WIDTH:0.412294
G1 X133.85 Y102.543 E.02077 ; perimeter
;WIDTH:0.40442
G1 X134.365 Y103.287 E.0323 ; perimeter
;WIDTH:0.430623
G1 X134.58 Y103.612 E.01497 ; perimeter
;WIDTH:0.456825
G3 X135.128 Y104.547 I-5.271 J3.718 E.04456 ; perimeter
;WIDTH:0.429999
G3 X135.144 Y123.727 I-17.699 J9.605 E.76635 ; perimeter
;WIDTH:0.431129
G3 X134.556 Y124.733 I-13.892 J-7.444 E.04483 ; perimeter
;WIDTH:0.424226
G1 X134.272 Y125.149 E.019 ; perimeter
;WIDTH:0.401008
G1 X133.885 Y125.714 E.02422 ; perimeter
;WIDTH:0.418964
G1 X133.46 Y126.312 E.02729 ; perimeter
;WIDTH:0.437057
G3 X132.446 Y127.554 I-11.105 J-8.035 E.06265 ; perimeter
;WIDTH:0.429999
G3 X102.294 Y127.258 I-14.946 J-13.409 E1.30757 ; perimeter
;WIDTH:0.440006
G3 X101.383 Y126.1 I7.679 J-6.977 E.05804 ; perimeter
;WIDTH:0.405685
G1 X101.051 Y125.626 E.02076 ; perimeter
;WIDTH:0.406349
G1 X100.618 Y124.989 E.02767 ; perimeter
;WIDTH:0.452514
G3 X99.801 Y123.625 I7.297 J-5.298 E.06465 ; perimeter
;WIDTH:0.429999
G3 X97.426 Y114.324 I17.719 J-9.478 E.3716 ; perimeter
G3 X99.724 Y104.827 I20.161 J-.148 E.37832 ; perimeter
;WIDTH:0.438833
G3 X100.527 Y103.446 I11.793 J5.938 E.06271 ; perimeter
;WIDTH:0.414362
G1 X100.856 Y102.96 E.02156 ; perimeter
;WIDTH:0.396155
G1 X101.151 Y102.542 E.01785 ; perimeter
;WIDTH:0.417543
G1 X101.538 Y101.991 E.02495 ; perimeter
;WIDTH:0.429999
G3 X122.782 Y94.785 I15.967 J12.154 E.91254 ; perimeter
G1 X123.85 Y95.11 E.04278 ; perimeter
G1 X123.289 Y95.332 F4500
G1 F2100
G1 X123.784 Y95.487 E.0199 ; perimeter
G3 X97.802 Y114.316 I-6.286 J18.667 E3.30673 ; perimeter
G3 X100.058 Y105 I19.785 J-.14 E.37114 ; perimeter
G3 X122.69 Y95.154 I17.44 J9.155 E1.02246 ; perimeter
G1 X123.25 Y95.321 E.02241 ; perimeter
G1 E-.64 F1800 ; retract
;WIPE_START
G1 F2100
G1 X123.784 Y95.487 E-.08946 ; wipe and retract
G1 X124.2 Y95.635 E-.07054 ; wipe and retract
;WIPE_END
G1 Z.65 F4500 ; normal lift Z
G1 X121.788 Y95.312 Z.65 ; move to first perimeter point travel_to_xyz
G1 Z.25 ; restore layer Z
G1 E.8 F1800 ;  ; unretract
;TYPE:Outer wall
G1 F2100
G1 X122.599 Y95.519 E.03207 ; perimeter
G3 X98.179 Y114.307 I-5.1 J18.635 E3.28644 ; perimeter
G3 X100.393 Y105.172 I19.408 J-.132 E.36396 ; perimeter
G3 X121.749 Y95.307 I17.105 J8.982 E.96954 ; perimeter
G1 E-.64 F1800 ; retract
;WIPE_START
G1 F2100
G1 X122.599 Y95.519 E-.14018 ; wipe and retract
G1 X122.717 Y95.555 E-.01982 ; wipe and retract
;WIPE_END
G1 Z.65 F4500 ; normal lift Z
G1 X88.334 Y146.14 Z.65 ; move to first perimeter point travel_to_xyz
G1 Z.25 ; restore layer Z
G1 E.8 F1800 ;  ; unretract
;TYPE:Inner wall
G1 F2100
G1 X87.993 Y146.092 E.01318 ; perimeter
G3 X76.937 Y132.743 I2.006 J-12.915 E.72642 ; perimeter
G3 X99.186 Y123.883 I13.069 J.45 E1.16032 ; perimeter
;WIDTH:0.451025
G1 X99.836 Y124.557 E.0379 ; perimeter
G1 X100.239 Y125.073 E.02649 ; perimeter
;WIDTH:0.413695
G1 X100.753 Y125.792 E.0324 ; perimeter
;WIDTH:0.404453
G1 X101.076 Y126.273 E.02071 ; perimeter
;WIDTH:0.437906
G3 X101.628 Y127.212 I-6.156 J4.251 E.04265 ; perimeter
;WIDTH:0.429999
G3 X100.999 Y140.236 I-11.649 J5.965 E.52326 ; perimeter
G3 X88.726 Y146.184 I-11 J-7.059 E.55003 ; perimeter
G1 X88.373 Y146.145 E.01361 ; perimeter
G1 X88.861 Y145.821 F4500
G1 F2100
G1 X88.75 Y145.81 E.00426 ; perimeter
G3 X77.313 Y132.743 I1.248 J-12.631 E.73309 ; perimeter
G3 X85.984 Y121.139 I12.698 J.446 E.59092 ; perimeter
G3 X90.329 Y120.491 I4.092 J12.558 E.16918 ; perimeter
G3 X89.661 Y145.867 I-.331 J12.688 E1.5288 ; perimeter
G1 X88.901 Y145.823 E.02919 ; perimeter
G1 E-.64 F1800 ; retract
;WIPE_START
G1 F2100
G1 X88.75 Y145.81 E-.02417 ; wipe and retract
G1 X88.04 Y145.724 E-.11441 ; wipe and retract
G1 X87.909 Y145.7 E-.02142 ; wipe and retract
;WIPE_END
G1 Z.65 F4500 ; normal lift Z
G1 X90.393 Y145.492 Z.65 ; move to first perimeter point travel_to_xyz
G1 Z.25 ; restore layer Z
G1 E.8 F1800 ;  ; unretract
;TYPE:Outer wall
G1 F2100
G1 X90.352 Y145.49 E.00159 ; perimeter
G3 X77.689 Y132.743 I-.354 J-12.311 E.77191 ; perimeter
G3 X86.113 Y121.493 I12.322 J.446 E.57328 ; perimeter
G3 X90.339 Y120.867 I3.966 J12.216 E.16455 ; perimeter
G3 X91.237 Y145.433 I-.341 J12.312 E1.4226 ; perimeter
G1 X90.433 Y145.489 E.0309 ; perimeter
G1 E-.64 F1800 ; retract
;WIPE_START
G1 F2100
G1 X90.352 Y145.49 E-.01303 ; wipe and retract
G1 X89.661 Y145.495 E-.11059 ; wipe and retract
G1 X89.434 Y145.481 E-.03638 ; wipe and retract
;WIPE_END
G1 Z.65 F4500 ; normal lift Z
G1 X157.822 Y130.686 Z.65 ; move to first perimeter point travel_to_xyz
G1 Z.25 ; restore layer Z
G1 E.8 F1800 ;  ; unretract
;TYPE:Inner wall
G1 F2100
G1 X157.917 Y131.22 E.02078 ; perimeter
G3 X147.061 Y146.089 I-12.922 J1.963 E.78305 ; perimeter
G3 X131.937 Y132.743 I-2.051 J-12.918 E.88298 ; perimeter
G3 X133.266 Y127.438 I13.218 J.491 E.2112 ; perimeter
;WIDTH:0.4521
G3 X133.753 Y126.548 I4.339 J1.799 E.04124 ; perimeter
;WIDTH:0.426234
G1 X133.989 Y126.174 E.0168 ; perimeter
;WIDTH:0.400368
G1 X134.316 Y125.692 E.02055 ; perimeter
;WIDTH:0.422089
G1 X134.836 Y124.976 E.03324 ; perimeter
;WIDTH:0.431984
G3 X135.594 Y124.11 I8.713 J6.857 E.04435 ; perimeter
;WIDTH:0.429999
G3 X139.517 Y121.322 I9.522 J9.246 E.18554 ; perimeter
G3 X143.4 Y120.209 I5.626 J12.301 E.1554 ; perimeter
G1 X144.041 Y120.148 E.02468 ; perimeter
G3 X157.743 Y130.299 I.955 J13.035 E.71218 ; perimeter
G1 X157.814 Y130.647 E.01364 ; perimeter
G1 X157.368 Y130.328 F4500
G1 F2100
G1 X157.379 Y130.391 E.00248 ; perimeter
G3 X146.992 Y145.719 I-12.383 J2.792 E.79544 ; perimeter
G3 X132.313 Y132.743 I-1.982 J-12.548 E.85766 ; perimeter
G3 X138.756 Y122.131 I12.757 J.483 E.49701 ; perimeter
G3 X143.458 Y120.581 I6.321 J11.268 E.19099 ; perimeter
G1 X144.075 Y120.522 E.02376 ; perimeter
G3 X157.202 Y129.699 I.92 J12.661 E.66439 ; perimeter
G1 X157.358 Y130.289 E.02339 ; perimeter
G1 X156.82 Y129.723 F4500
;TYPE:Outer wall
G1 F2100
G1 X156.842 Y129.815 E.00364 ; perimeter
G3 X145.352 Y145.495 I-11.85 J3.366 E.85868 ; perimeter
G3 X132.689 Y132.743 I-.334 J-12.331 E.77172 ; perimeter
G3 X134.613 Y126.567 I12.423 J.482 E.25089 ; perimeter
G3 X143.517 Y120.953 I10.442 J6.692 E.4167 ; perimeter
G3 X145.339 Y120.867 I1.799 J18.935 E.06997 ; perimeter
G3 X156.568 Y128.97 I-.348 J12.314 E.56371 ; perimeter
G1 X156.807 Y129.685 E.02888 ; perimeter
G1 E-.64 F1800 ; retract
;WIPE_START
G1 F2100
G1 X156.842 Y129.815 E-.02158 ; wipe and retract
G1 X157.02 Y130.483 E-.11057 ; wipe and retract
G1 X157.051 Y130.654 E-.02785 ; wipe and retract
;WIPE_END
G1 Z.65 F4500 ; normal lift Z
G1 X148.288 Y82.481 Z.65 ; move to first perimeter point travel_to_xyz
G1 Z.25 ; restore layer Z
G1 E.8 F1800 ;  ; unretract
;TYPE:Inner wall
G1 F2100
G1 X148.636 Y82.569 E.01375 ; perimeter
G3 X158.063 Y95.561 I-3.639 J12.557 E.66255 ; perimeter
G3 X135.813 Y104.421 I-13.068 J-.45 E1.16035 ; perimeter
;WIDTH:0.451477
G3 X134.708 Y103.164 I5.988 J-6.38 E.06794 ; perimeter
;WIDTH:0.409206
G1 X134.335 Y102.637 E.0234 ; perimeter
;WIDTH:0.410745
G1 X133.84 Y101.904 E.03216 ; perimeter
;WIDTH:0.450945
G3 X133.281 Y100.899 I4.884 J-3.376 E.0466 ; perimeter
;WIDTH:0.429999
G3 X131.937 Y94.685 I11.713 J-5.787 E.2462 ; perimeter
G3 X144.206 Y82.077 I13.077 J.451 E.73961 ; perimeter
G3 X147.729 Y82.341 I.791 J13.05 E.13586 ; perimeter
M73 P1 R129
G1 X148.249 Y82.471 E.02055 ; perimeter
G1 X147.726 Y82.727 F4500
G1 F2100
G1 X148.543 Y82.934 E.03234 ; perimeter
G3 X132.313 Y94.685 I-3.545 J12.188 E2.17196 ; perimeter
G3 X133.519 Y89.725 I12.731 J.468 E.197 ; perimeter
G3 X144.17 Y82.455 I11.506 J5.42 E.51845 ; perimeter
G3 X145.329 Y82.433 I.88 J15.526 E.04444 ; perimeter
G3 X147.66 Y82.711 I-.331 J12.689 E.0901 ; perimeter
G1 X147.687 Y82.717 E.00107 ; perimeter
G1 E-.64 F1800 ; retract
;WIPE_START
G1 F2100
G1 X148.543 Y82.934 E-.14137 ; wipe and retract
G1 X148.654 Y82.969 E-.01863 ; wipe and retract
;WIPE_END
G1 Z.65 F4500 ; normal lift Z
G1 X145.774 Y82.837 Z.65 ; move to first perimeter point travel_to_xyz
G1 Z.25 ; restore layer Z
G1 E.8 F1800 ;  ; unretract
;TYPE:Outer wall
G1 F2100
G1 X146.226 Y82.866 E.01738 ; perimeter
G3 X132.689 Y94.78 I-1.226 J12.255 E2.19077 ; perimeter
G1 X132.689 Y94.685 E.00366 ; perimeter
G3 X133.859 Y89.886 I12.341 J.465 E.19064 ; perimeter
G3 X144.205 Y82.83 I11.165 J5.258 E.5035 ; perimeter
G3 X145.339 Y82.809 I.847 J15.194 E.0435 ; perimeter
G1 X145.734 Y82.834 E.01515 ; perimeter
G1 E-.64 F1800 ; retract
;WIPE_START
G1 F2100
M73 P1 R128
G1 X146.226 Y82.866 E-.07894 ; wipe and retract
G1 X146.729 Y82.93 E-.08106 ; wipe and retract
;WIPE_END
G1 Z.65 F4500 ; normal lift Z
G1 X169.445 Y76.235 Z.65 ; move to first infill point travel_to_xyz
G1 Z.25 ; restore layer Z
G1 E.8 F1800 ;  ; unretract
;TYPE:Bottom surface
;WIDTH:0.430592
G1 F3600
G1 X170.038 Y76.828 E.03218 ; infill
G1 X170.038 Y77.361 E.02047 ; infill
G1 X169.081 Y76.404 E.05193 ; infill
G1 X168.548 Y76.404 E.02047 ; infill
G1 X170.038 Y77.894 E.08088 ; infill
G1 X170.038 Y78.427 E.02047 ; infill
G1 X168.015 Y76.404 E.10982 ; infill
G1 X167.482 Y76.404 E.02047 ; infill
G1 X170.038 Y78.96 E.13877 ; infill
G1 X170.038 Y79.493 E.02047 ; infill
G1 X166.949 Y76.404 E.16771 ; infill
G1 X166.416 Y76.404 E.02047 ; infill
G1 X170.038 Y80.026 E.19666 ; infill
G1 X170.038 Y80.559 E.02047 ; infill
G1 X165.883 Y76.404 E.2256 ; infill
G1 X165.35 Y76.404 E.02047 ; infill
G1 X170.038 Y81.092 E.25455 ; infill
G1 X170.038 Y81.625 E.02047 ; infill
G1 X164.817 Y76.404 E.2835 ; infill
G1 X164.284 Y76.404 E.02047 ; infill
G1 X170.038 Y82.159 E.31244 ; infill
G1 X170.038 Y82.692 E.02047 ; infill
G1 X163.75 Y76.404 E.34139 ; infill
G1 X163.217 Y76.404 E.02047 ; infill
G1 X170.038 Y83.225 E.37033 ; infill
G1 X170.038 Y83.758 E.02047 ; infill
G1 X162.684 Y76.404 E.39928 ; infill
G1 X162.151 Y76.404 E.02047 ; infill
G1 X170.038 Y84.291 E.42822 ; infill
G1 X170.038 Y84.824 E.02047 ; infill
G1 X161.618 Y76.404 E.45717 ; infill
G1 X161.085 Y76.404 E.02047 ; infill
G1 X170.038 Y85.357 E.48611 ; infill
G1 X170.038 Y85.89 E.02047 ; infill
G1 X160.552 Y76.404 E.51506 ; infill
G1 X160.019 Y76.404 E.02047 ; infill
G1 X170.038 Y86.423 E.544 ; infill
G1 X170.038 Y86.956 E.02047 ; infill
G1 X159.486 Y76.404 E.57295 ; infill
G1 X158.953 Y76.404 E.02047 ; infill
G1 X170.038 Y87.489 E.60189 ; infill
G1 X170.038 Y88.022 E.02047 ; infill
G1 X158.42 Y76.404 E.63084 ; infill
G1 X157.887 Y76.404 E.02047 ; infill
G1 X170.038 Y88.555 E.65978 ; infill
G1 X170.038 Y89.089 E.02047 ; infill
G1 X157.354 Y76.404 E.68873 ; infill
G1 X156.82 Y76.404 E.02047 ; infill
G1 X170.038 Y89.622 E.71768 ; infill
G1 X170.038 Y90.155 E.02047 ; infill
G1 X156.287 Y76.404 E.74662 ; infill
G1 X155.754 Y76.404 E.02047 ; infill
G1 X170.038 Y90.688 E.77557 ; infill
G1 X170.038 Y91.221 E.02047 ; infill
G1 X155.221 Y76.404 E.80451 ; infill
G1 X154.688 Y76.404 E.02047 ; infill
G1 X170.038 Y91.754 E.83346 ; infill
G1 X170.038 Y92.287 E.02047 ; infill
G1 X154.155 Y76.404 E.8624 ; infill
G1 X153.622 Y76.404 E.02047 ; infill
G1 X170.038 Y92.82 E.89135 ; infill
G1 X170.038 Y93.353 E.02047 ; infill
G1 X153.089 Y76.404 E.92029 ; infill
G1 X152.556 Y76.404 E.02047 ; infill
