; HEADER_BLOCK_START
; generated by GalaxySlicer 1.0.0-alpha3 on 2023-08-11 at 17:06:06
; total layer number: 0
; HEADER_BLOCK_END

; THUMBNAIL_BLOCK_START
; THUMBNAIL_BLOCK_END

; external perimeters extrusion width = 0.45mm
; perimeters extrusion width = 0.45mm
; infill extrusion width = 0.45mm
; solid infill extrusion width = 0.45mm
; top infill extrusion width = 0.40mm
; first layer extrusion width = 0.50mm

; EXECUTABLE_BLOCK_START
M73 P0 R2
;TYPE:Custom
M83 ; use relative distances for extrusion
G90 ; use absolute coordinates
M140 S55 ; set final bed temp
M104 S180 ; set temporary nozzle temp to prevent oozing during homing
M557 X86.0135:153.986 Y112.867:127.133 S25
G29 S2
G29 S0
M104 S220 ; set final nozzle temp
M190 S55 ; wait for bed temp to stabilize
M109 S220 ; wait for nozzle temp to stabilize
;M593 P"mzv" F59
;M572 D0 S0.06
G90
G1 Y10
M400
G1 Z0.6 F720
G92 E0
G1 X50  Y10 E9 F1000 ; intro line
M73 P1 R2
G1 Y11
M400
G1 X100 Y11 E12.5 F1500 ; intro line
G92 E0
M566 X480.00 Y480.00 Z10.00 E1200.00 P1        ; set maximum instantaneous speed changes (mm/min) // same as M205 but with mm/min
M203 X10800.00 Y10800.00 Z1000.00 E3600.00     ; set maximum speeds (mm/min)
M201 X3000.00 Y3000.00 Z100.00 E3600.00        ; set accelerations (mm/s^2)
   
G90
G21
M83 ; use relative distances for extrusion
; filament start gcode
M204 P1000
M205 X9 Y9
M73 P2 R2
G1 Z.2 F15000
G1 E-.8 F1800
G1 X65.5 Y156 F15000
M73 P3 R2
G1 Z.6 F15000
G1 Z.2 F15000
G1 E.8 F1800
G1 F1200
G1 X65.5 Y75.5 E5.35012
M572 D0 S0.01; Override pressure advance value
M73 P5 R2
G1 E-.8 F1800
G17
G3 Z.6 I1.195 J.228 P1  F15000
M73 P6 R2
G1 X67.5 Y65 Z.6 F15000
G1 Z.2 F15000
G1 E.8 F1800
G1 F1200
G1 X87.5 Y65 E.92643
G1 F9000
G1 X127.5 Y65 E1.85286
G1 F1200
G1 X147.5 Y65 E.92643
M572 D0 S0.011; Override pressure advance value
M73 P7 R2
G1 E-.8 F1800
G17
G3 Z.6 I-.053 J-1.216 P1  F15000
G1 X67.5 Y68.5 Z.6 F15000
G1 Z.2 F15000
M73 P8 R2
G1 E.8 F1800
G1 F1200
G1 X87.5 Y68.5 E.92643
G1 F9000
G1 X127.5 Y68.5 E1.85286
G1 F1200
G1 X147.5 Y68.5 E.92643
M572 D0 S0.012; Override pressure advance value
M73 P9 R2
G1 E-.8 F1800
G17
G3 Z.6 I-.053 J-1.216 P1  F15000
G1 X67.5 Y72 Z.6 F15000
G1 Z.2 F15000
G1 E.8 F1800
G1 F1200
G1 X87.5 Y72 E.92643
M73 P10 R2
G1 F9000
G1 X127.5 Y72 E1.85286
G1 F1200
G1 X147.5 Y72 E.92643
M572 D0 S0.013; Override pressure advance value
M73 P11 R2
G1 E-.8 F1800
G17
G3 Z.6 I-.053 J-1.216 P1  F15000
G1 X67.5 Y75.5 Z.6 F15000
G1 Z.2 F15000
G1 E.8 F1800
G1 F1200
G1 X87.5 Y75.5 E.92643
M73 P12 R2
G1 F9000
G1 X127.5 Y75.5 E1.85286
G1 F1200
G1 X147.5 Y75.5 E.92643
M572 D0 S0.014; Override pressure advance value
M73 P13 R2
G1 E-.8 F1800
G17
G3 Z.6 I-.053 J-1.216 P1  F15000
G1 X67.5 Y79 Z.6 F15000
G1 Z.2 F15000
G1 E.8 F1800
G1 F1200
G1 X87.5 Y79 E.92643
M73 P14 R2
G1 F9000
G1 X127.5 Y79 E1.85286
G1 F1200
G1 X147.5 Y79 E.92643
M572 D0 S0.015; Override pressure advance value
G1 E-.8 F1800
G17
G3 Z.6 I-.053 J-1.216 P1  F15000
M73 P15 R2
G1 X67.5 Y82.5 Z.6 F15000
G1 Z.2 F15000
G1 E.8 F1800
G1 F1200
G1 X87.5 Y82.5 E.92643
M73 P16 R2
G1 F9000
G1 X127.5 Y82.5 E1.85286
G1 F1200
G1 X147.5 Y82.5 E.92643
M572 D0 S0.016; Override pressure advance value
G1 E-.8 F1800
G17
G3 Z.6 I-.053 J-1.216 P1  F15000
G1 X67.5 Y86 Z.6 F15000
M73 P17 R2
G1 Z.2 F15000
G1 E.8 F1800
G1 F1200
G1 X87.5 Y86 E.92643
G1 F9000
G1 X127.5 Y86 E1.85286
M73 P18 R2
G1 F1200
G1 X147.5 Y86 E.92643
M572 D0 S0.017; Override pressure advance value
G1 E-.8 F1800
G17
G3 Z.6 I-.053 J-1.216 P1  F15000
G1 X67.5 Y89.5 Z.6 F15000
M73 P19 R2
G1 Z.2 F15000
G1 E.8 F1800
G1 F1200
G1 X87.5 Y89.5 E.92643
G1 F9000
G1 X127.5 Y89.5 E1.85286
G1 F1200
G1 X147.5 Y89.5 E.92643
M572 D0 S0.018; Override pressure advance value
M73 P20 R2
G1 E-.8 F1800
G17
G3 Z.6 I-.053 J-1.216 P1  F15000
G1 X67.5 Y93 Z.6 F15000
G1 Z.2 F15000
M73 P21 R2
G1 E.8 F1800
G1 F1200
G1 X87.5 Y93 E.92643
G1 F9000
G1 X127.5 Y93 E1.85286
G1 F1200
G1 X147.5 Y93 E.92643
M572 D0 S0.019; Override pressure advance value
M73 P22 R2
G1 E-.8 F1800
G17
G3 Z.6 I-.053 J-1.216 P1  F15000
G1 X67.5 Y96.5 Z.6 F15000
G1 Z.2 F15000
G1 E.8 F1800
G1 F1200
G1 X87.5 Y96.5 E.92643
M73 P23 R2
G1 F9000
G1 X127.5 Y96.5 E1.85286
G1 F1200
G1 X147.5 Y96.5 E.92643
M572 D0 S0.02; Override pressure advance value
M73 P24 R2
G1 E-.8 F1800
G17
G3 Z.6 I-.053 J-1.216 P1  F15000
G1 X67.5 Y100 Z.6 F15000
G1 Z.2 F15000
G1 E.8 F1800
G1 F1200
G1 X87.5 Y100 E.92643
M73 P25 R2
G1 F9000
G1 X127.5 Y100 E1.85286
G1 F1200
G1 X147.5 Y100 E.92643
M572 D0 S0.021; Override pressure advance value
M73 P26 R2
G1 E-.8 F1800
G17
G3 Z.6 I-.053 J-1.216 P1  F15000
G1 X67.5 Y103.5 Z.6 F15000
G1 Z.2 F15000
G1 E.8 F1800
G1 F1200
G1 X87.5 Y103.5 E.92643
M73 P27 R2
G1 F9000
G1 X127.5 Y103.5 E1.85286
G1 F1200
G1 X147.5 Y103.5 E.92643
M572 D0 S0.022; Override pressure advance value
M73 P28 R2
G1 E-.8 F1800
G17
G3 Z.6 I-.053 J-1.216 P1  F15000
G1 X67.5 Y107 Z.6 F15000
G1 Z.2 F15000
G1 E.8 F1800
G1 F1200
G1 X87.5 Y107 E.92643
M73 P29 R2
G1 F9000
G1 X127.5 Y107 E1.85286
G1 F1200
G1 X147.5 Y107 E.92643
M572 D0 S0.023; Override pressure advance value
G1 E-.8 F1800
G17
G3 Z.6 I-.053 J-1.216 P1  F15000
M73 P30 R2
G1 X67.5 Y110.5 Z.6 F15000
G1 Z.2 F15000
G1 E.8 F1800
G1 F1200
G1 X87.5 Y110.5 E.92643
G1 F9000
G1 X127.5 Y110.5 E1.85286
M73 P31 R2
G1 F1200
G1 X147.5 Y110.5 E.92643
M572 D0 S0.024; Override pressure advance value
G1 E-.8 F1800
G17
G3 Z.6 I-.053 J-1.216 P1  F15000
G1 X67.5 Y114 Z.6 F15000
M73 P32 R2
G1 Z.2 F15000
M73 P32 R1
G1 E.8 F1800
G1 F1200
G1 X87.5 Y114 E.92643
G1 F9000
G1 X127.5 Y114 E1.85286
M73 P33 R1
G1 F1200
G1 X147.5 Y114 E.92643
M572 D0 S0.025; Override pressure advance value
G1 E-.8 F1800
G17
G3 Z.6 I-.053 J-1.216 P1  F15000
G1 X67.5 Y117.5 Z.6 F15000
M73 P34 R1
G1 Z.2 F15000
G1 E.8 F1800
G1 F1200
G1 X87.5 Y117.5 E.92643
G1 F9000
G1 X127.5 Y117.5 E1.85286
G1 F1200
G1 X147.5 Y117.5 E.92643
M572 D0 S0.026; Override pressure advance value
M73 P35 R1
G1 E-.8 F1800
G17
G3 Z.6 I-.053 J-1.216 P1  F15000
G1 X67.5 Y121 Z.6 F15000
G1 Z.2 F15000
G1 E.8 F1800
G1 F1200
G1 X87.5 Y121 E.92643
M73 P36 R1
G1 F9000
G1 X127.5 Y121 E1.85286
G1 F1200
G1 X147.5 Y121 E.92643
M572 D0 S0.027; Override pressure advance value
M73 P37 R1
G1 E-.8 F1800
G17
G3 Z.6 I-.053 J-1.216 P1  F15000
G1 X67.5 Y124.5 Z.6 F15000
G1 Z.2 F15000
G1 E.8 F1800
G1 F1200
G1 X87.5 Y124.5 E.92643
M73 P38 R1
G1 F9000
G1 X127.5 Y124.5 E1.85286
G1 F1200
G1 X147.5 Y124.5 E.92643
M572 D0 S0.028; Override pressure advance value
M73 P39 R1
G1 E-.8 F1800
G17
G3 Z.6 I-.053 J-1.216 P1  F15000
G1 X67.5 Y128 Z.6 F15000
G1 Z.2 F15000
G1 E.8 F1800
G1 F1200
G1 X87.5 Y128 E.92643
M73 P40 R1
G1 F9000
G1 X127.5 Y128 E1.85286
G1 F1200
G1 X147.5 Y128 E.92643
M572 D0 S0.029; Override pressure advance value
M73 P41 R1
G1 E-.8 F1800
G17
G3 Z.6 I-.053 J-1.216 P1  F15000
G1 X67.5 Y131.5 Z.6 F15000
G1 Z.2 F15000
G1 E.8 F1800
G1 F1200
G1 X87.5 Y131.5 E.92643
M73 P42 R1
G1 F9000
G1 X127.5 Y131.5 E1.85286
G1 F1200
G1 X147.5 Y131.5 E.92643
M572 D0 S0.03; Override pressure advance value
G1 E-.8 F1800
G17
G3 Z.6 I-.053 J-1.216 P1  F15000
M73 P43 R1
G1 X67.5 Y135 Z.6 F15000
G1 Z.2 F15000
G1 E.8 F1800
G1 F1200
G1 X87.5 Y135 E.92643
G1 F9000
G1 X127.5 Y135 E1.85286
M73 P44 R1
G1 F1200
G1 X147.5 Y135 E.92643
M572 D0 S0.031; Override pressure advance value
G1 E-.8 F1800
G17
G3 Z.6 I-.053 J-1.216 P1  F15000
G1 X67.5 Y138.5 Z.6 F15000
M73 P45 R1
G1 Z.2 F15000
G1 E.8 F1800
G1 F1200
G1 X87.5 Y138.5 E.92643
G1 F9000
G1 X127.5 Y138.5 E1.85286
M73 P46 R1
G1 F1200
G1 X147.5 Y138.5 E.92643
M572 D0 S0.032; Override pressure advance value
G1 E-.8 F1800
G17
G3 Z.6 I-.053 J-1.216 P1  F15000
G1 X67.5 Y142 Z.6 F15000
M73 P47 R1
G1 Z.2 F15000
G1 E.8 F1800
G1 F1200
G1 X87.5 Y142 E.92643
G1 F9000
G1 X127.5 Y142 E1.85286
G1 F1200
G1 X147.5 Y142 E.92643
M572 D0 S0.033; Override pressure advance value
M73 P48 R1
G1 E-.8 F1800
G17
G3 Z.6 I-.053 J-1.216 P1  F15000
G1 X67.5 Y145.5 Z.6 F15000
G1 Z.2 F15000
G1 E.8 F1800
G1 F1200
G1 X87.5 Y145.5 E.92643
M73 P49 R1
G1 F9000
G1 X127.5 Y145.5 E1.85286
G1 F1200
G1 X147.5 Y145.5 E.92643
M572 D0 S0.034; Override pressure advance value
M73 P50 R1
G1 E-.8 F1800
G17
G3 Z.6 I-.053 J-1.216 P1  F15000
G1 X67.5 Y149 Z.6 F15000
G1 Z.2 F15000
G1 E.8 F1800
G1 F1200
G1 X87.5 Y149 E.92643
M73 P51 R1
G1 F9000
G1 X127.5 Y149 E1.85286
G1 F1200
G1 X147.5 Y149 E.92643
M572 D0 S0.035; Override pressure advance value
M73 P52 R1
G1 E-.8 F1800
G17
G3 Z.6 I-.053 J-1.216 P1  F15000
G1 X67.5 Y152.5 Z.6 F15000
G1 Z.2 F15000
G1 E.8 F1800
G1 F1200
G1 X87.5 Y152.5 E.92643
M73 P53 R1
G1 F9000
G1 X127.5 Y152.5 E1.85286
G1 F1200
G1 X147.5 Y152.5 E.92643
M572 D0 S0.036; Override pressure advance value
M73 P54 R1
G1 E-.8 F1800
G17
G3 Z.6 I-.053 J-1.216 P1  F15000
G1 X67.5 Y156 Z.6 F15000
G1 Z.2 F15000
G1 E.8 F1800
G1 F1200
G1 X87.5 Y156 E.92643
M73 P55 R1
G1 F9000
G1 X127.5 Y156 E1.85286
G1 F1200
G1 X147.5 Y156 E.92643
M572 D0 S0.037; Override pressure advance value
G1 E-.8 F1800
G17
G3 Z.6 I-.053 J-1.216 P1  F15000
M73 P56 R1
G1 X67.5 Y159.5 Z.6 F15000
G1 Z.2 F15000
G1 E.8 F1800
G1 F1200
G1 X87.5 Y159.5 E.92643
G1 F9000
G1 X127.5 Y159.5 E1.85286
M73 P57 R1
G1 F1200
G1 X147.5 Y159.5 E.92643
M572 D0 S0.038; Override pressure advance value
G1 E-.8 F1800
G17
G3 Z.6 I-.053 J-1.216 P1  F15000
G1 X67.5 Y163 Z.6 F15000
M73 P58 R1
G1 Z.2 F15000
G1 E.8 F1800
G1 F1200
G1 X87.5 Y163 E.92643
G1 F9000
G1 X127.5 Y163 E1.85286
M73 P59 R1
G1 F1200
G1 X147.5 Y163 E.92643
M572 D0 S0.039; Override pressure advance value
G1 E-.8 F1800
G17
G3 Z.6 I-.053 J-1.216 P1  F15000
G1 X67.5 Y166.5 Z.6 F15000
M73 P60 R1
G1 Z.2 F15000
G1 E.8 F1800
G1 F1200
G1 X87.5 Y166.5 E.92643
G1 F9000
G1 X127.5 Y166.5 E1.85286
G1 F1200
G1 X147.5 Y166.5 E.92643
M572 D0 S0; Override pressure advance value
M73 P61 R1
G1 F9000
G1 E-.8 F1800
G17
G3 Z.6 I-.041 J-1.216 P1  F15000
G1 X87.5 Y168.5 Z.6 F15000
G1 Z.2 F15000
G1 E.8 F1800
G1 X87.5 Y173.5 E.23112
M73 P62 R1
G1 E-.8 F1800
G17
G3 Z.6 I0 J1.217 P1  F15000
G1 X127.5 Y173.5 Z.6 F15000
G1 Z.2 F15000
G1 E.8 F1800
G1 X127.5 Y168.5 E.23112
G1 F3600
G1 E-.8 F1800
G17
G3 Z.6 I1.187 J.268 P1  F15000
G1 X150.5 Y66.75 Z.6 F15000
M73 P63 R1
G1 Z.2 F15000
G1 E.8 F1800
G1 X152.5 Y66.75 E.07269
G1 X152.5 Y62.75 E.14537
G1 X150.5 Y62.75 E.07269
G1 X150.5 Y66.51 E.14537
G1 E-.8 F1800
G17
G3 Z.6 I.834 J.887 P1  F15000
G1 X154.5 Y62.75 Z.6 F15000
G1 Z.2 F15000
G1 E.8 F1800
G1 X154.5 Y63.75 E.07269
G1 E-.8 F1800
G17
G3 Z.6 I-1.013 J.675 P1  F15000
G1 X156.5 Y66.75 Z.6 F15000
G1 Z.2 F15000
G1 E.8 F1800
G1 X158.5 Y66.75 E.07269
G1 X158.5 Y62.75 E.14537
M73 P64 R1
G1 X156.5 Y62.75 E.07269
G1 X156.5 Y66.51 E.14537
G1 E-.8 F1800
G17
G3 Z.6 I-.073 J1.215 P1  F15000
G1 X160.5 Y66.75 Z.6 F15000
G1 Z.2 F15000
G1 E.8 F1800
G1 X160.5 Y62.75 E.14537
G1 F3600
G1 E-.8 F1800
G17
G3 Z.6 I-.9 J-.819 P1  F15000
G1 X150.5 Y73.75 Z.6 F15000
G1 Z.2 F15000
G1 E.8 F1800
G1 X152.5 Y73.75 E.07269
G1 X152.5 Y69.75 E.14537
G1 X150.5 Y69.75 E.07269
G1 X150.5 Y73.51 E.14537
M73 P65 R1
G1 E-.8 F1800
G17
G3 Z.6 I.834 J.887 P1  F15000
G1 X154.5 Y69.75 Z.6 F15000
G1 Z.2 F15000
G1 E.8 F1800
G1 X154.5 Y70.75 E.07269
G1 E-.8 F1800
G17
G3 Z.6 I-1.013 J.675 P1  F15000
G1 X156.5 Y73.75 Z.6 F15000
G1 Z.2 F15000
G1 E.8 F1800
G1 X158.5 Y73.75 E.07269
G1 X158.5 Y69.75 E.14537
G1 X156.5 Y69.75 E.07269
G1 X156.5 Y73.51 E.14537
G1 E-.8 F1800
G17
G3 Z.6 I-.073 J1.215 P1  F15000
G1 X160.5 Y73.75 Z.6 F15000
G1 Z.2 F15000
M73 P66 R1
G1 E.8 F1800
G1 X160.5 Y69.75 E.14537
G1 E-.8 F1800
G17
G3 Z.6 I-1.088 J.544 P1  F15000
M73 P66 R0
G1 X162.5 Y73.75 Z.6 F15000
G1 Z.2 F15000
G1 E.8 F1800
G1 X164.5 Y73.75 E.07269
G1 X164.5 Y71.75 E.07269
G1 X162.5 Y71.75 E.07269
G1 X162.5 Y69.75 E.07269
G1 X164.5 Y69.75 E.07269
G1 F3600
G1 E-.8 F1800
G17
G3 Z.6 I-.752 J-.957 P1  F15000
G1 X150.5 Y80.75 Z.6 F15000
G1 Z.2 F15000
G1 E.8 F1800
G1 X152.5 Y80.75 E.07269
G1 X152.5 Y76.75 E.14537
M73 P67 R0
G1 X150.5 Y76.75 E.07269
G1 X150.5 Y80.51 E.14537
G1 E-.8 F1800
G17
G3 Z.6 I.834 J.887 P1  F15000
G1 X154.5 Y76.75 Z.6 F15000
G1 Z.2 F15000
G1 E.8 F1800
G1 X154.5 Y77.75 E.07269
G1 E-.8 F1800
G17
G3 Z.6 I-1.013 J.675 P1  F15000
G1 X156.5 Y80.75 Z.6 F15000
G1 Z.2 F15000
G1 E.8 F1800
G1 X158.5 Y80.75 E.07269
G1 X158.5 Y76.75 E.14537
G1 X156.5 Y76.75 E.07269
G1 X156.5 Y80.51 E.14537
G1 E-.8 F1800
G17
G3 Z.6 I-.073 J1.215 P1  F15000
M73 P68 R0
G1 X160.5 Y80.75 Z.6 F15000
G1 Z.2 F15000
G1 E.8 F1800
G1 X160.5 Y76.75 E.14537
G1 E-.8 F1800
G17
G3 Z.6 I-1.088 J.544 P1  F15000
G1 X162.5 Y80.75 Z.6 F15000
G1 Z.2 F15000
G1 E.8 F1800
G1 X162.5 Y78.75 E.07269
G1 X164.5 Y78.75 E.07269
G1 E-.8 F1800
G17
G3 Z.6 I-1.217 J0 P1  F15000
G1 X164.5 Y80.75 Z.6 F15000
G1 Z.2 F15000
G1 E.8 F1800
G1 X164.5 Y76.75 E.14537
G1 F3600
G1 E-.8 F1800
G17
G3 Z.6 I-.752 J-.957 P1  F15000
M73 P69 R0
G1 X150.5 Y87.75 Z.6 F15000
G1 Z.2 F15000
G1 E.8 F1800
G1 X152.5 Y87.75 E.07269
G1 X152.5 Y83.75 E.14537
G1 X150.5 Y83.75 E.07269
G1 X150.5 Y87.51 E.14537
G1 E-.8 F1800
G17
G3 Z.6 I.834 J.887 P1  F15000
G1 X154.5 Y83.75 Z.6 F15000
G1 Z.2 F15000
G1 E.8 F1800
G1 X154.5 Y84.75 E.07269
G1 E-.8 F1800
G17
G3 Z.6 I-1.013 J.675 P1  F15000
G1 X156.5 Y87.75 Z.6 F15000
G1 Z.2 F15000
M73 P70 R0
G1 E.8 F1800
G1 X158.5 Y87.75 E.07269
G1 X158.5 Y83.75 E.14537
G1 X156.5 Y83.75 E.07269
G1 X156.5 Y87.51 E.14537
G1 E-.8 F1800
G17
G3 Z.6 I-.073 J1.215 P1  F15000
G1 X160.5 Y87.75 Z.6 F15000
G1 Z.2 F15000
G1 E.8 F1800
G1 X160.5 Y83.75 E.14537
G1 E-.8 F1800
G17
G3 Z.6 I-.861 J.861 P1  F15000
G1 X164.5 Y87.75 Z.6 F15000
G1 Z.2 F15000
G1 E.8 F1800
G1 X162.5 Y87.75 E.07269
G1 X162.5 Y83.75 E.14537
G1 X164.5 Y83.75 E.07269
M73 P71 R0
G1 X164.5 Y85.75 E.07269
G1 X162.5 Y85.75 E.07269
G1 F3600
G1 E-.8 F1800
G17
G3 Z.6 I-.73 J-.974 P1  F15000
G1 X150.5 Y94.75 Z.6 F15000
G1 Z.2 F15000
G1 E.8 F1800
G1 X152.5 Y94.75 E.07269
G1 X152.5 Y90.75 E.14537
G1 X150.5 Y90.75 E.07269
G1 X150.5 Y94.51 E.14537
G1 E-.8 F1800
G17
G3 Z.6 I.834 J.887 P1  F15000
G1 X154.5 Y90.75 Z.6 F15000
G1 Z.2 F15000
G1 E.8 F1800
G1 X154.5 Y91.75 E.07269
G1 E-.8 F1800
G17
G3 Z.6 I-1.013 J.675 P1  F15000
M73 P72 R0
G1 X156.5 Y94.75 Z.6 F15000
G1 Z.2 F15000
G1 E.8 F1800
G1 X158.5 Y94.75 E.07269
G1 X158.5 Y90.75 E.14537
G1 X156.5 Y90.75 E.07269
G1 X156.5 Y94.51 E.14537
G1 E-.8 F1800
G17
G3 Z.6 I-.073 J1.215 P1  F15000
G1 X160.5 Y94.75 Z.6 F15000
G1 Z.2 F15000
G1 E.8 F1800
G1 X160.5 Y90.75 E.14537
G1 E-.8 F1800
G17
G3 Z.6 I-.544 J1.088 P1  F15000
G1 X164.5 Y92.75 Z.6 F15000
G1 Z.2 F15000
M73 P73 R0
G1 E.8 F1800
G1 X162.5 Y92.75 E.07269
G1 X162.5 Y90.75 E.07269
G1 X164.5 Y90.75 E.07269
G1 X164.5 Y94.75 E.14537
G1 X162.5 Y94.75 E.07269
G1 X162.5 Y92.75 E.07269
G1 F3600
G1 E-.8 F1800
G17
G3 Z.6 I-.73 J-.974 P1  F15000
G1 X150.5 Y101.75 Z.6 F15000
G1 Z.2 F15000
G1 E.8 F1800
G1 X152.5 Y101.75 E.07269
G1 X152.5 Y97.75 E.14537
G1 X150.5 Y97.75 E.07269
G1 X150.5 Y101.51 E.14537
G1 E-.8 F1800
G17
G3 Z.6 I.834 J.887 P1  F15000
M73 P74 R0
G1 X154.5 Y97.75 Z.6 F15000
G1 Z.2 F15000
G1 E.8 F1800
G1 X154.5 Y98.75 E.07269
G1 E-.8 F1800
G17
G3 Z.6 I-1.013 J.675 P1  F15000
G1 X156.5 Y101.75 Z.6 F15000
G1 Z.2 F15000
G1 E.8 F1800
G1 X158.5 Y101.75 E.07269
G1 X158.5 Y97.75 E.14537
G1 X156.5 Y97.75 E.07269
G1 X156.5 Y101.51 E.14537
G1 E-.8 F1800
G17
G3 Z.6 I-.097 J1.213 P1  F15000
G1 X159.5 Y101.75 Z.6 F15000
G1 Z.2 F15000
G1 E.8 F1800
G1 X161.5 Y101.75 E.07269
G1 X161.5 Y99.75 E.07269
M73 P75 R0
G1 X159.5 Y99.75 E.07269
G1 X159.5 Y97.75 E.07269
G1 X161.5 Y97.75 E.07269
G1 F3600
G1 E-.8 F1800
G17
G3 Z.6 I-.861 J-.861 P1  F15000
G1 X150.5 Y108.75 Z.6 F15000
G1 Z.2 F15000
G1 E.8 F1800
G1 X152.5 Y108.75 E.07269
G1 X152.5 Y104.75 E.14537
G1 X150.5 Y104.75 E.07269
G1 X150.5 Y108.51 E.14537
G1 E-.8 F1800
G17
G3 Z.6 I.834 J.887 P1  F15000
G1 X154.5 Y104.75 Z.6 F15000
G1 Z.2 F15000
G1 E.8 F1800
G1 X154.5 Y105.75 E.07269
G1 E-.8 F1800
G17
G3 Z.6 I-1.013 J.675 P1  F15000
M73 P76 R0
G1 X156.5 Y108.75 Z.6 F15000
G1 Z.2 F15000
G1 E.8 F1800
G1 X158.5 Y108.75 E.07269
G1 X158.5 Y104.75 E.14537
G1 X156.5 Y104.75 E.07269
G1 X156.5 Y108.51 E.14537
G1 E-.8 F1800
G17
G3 Z.6 I-.097 J1.213 P1  F15000
G1 X159.5 Y108.75 Z.6 F15000
G1 Z.2 F15000
G1 E.8 F1800
G1 X161.5 Y108.75 E.07269
G1 X161.5 Y106.75 E.07269
