; HEADER_BLOCK_START
; generated by GalaxySlicer 1.0.0-beta on 2023-09-05 at 18:10:32
; total layer number: 87
; HEADER_BLOCK_END

; THUMBNAIL_BLOCK_START
; THUMBNAIL_BLOCK_END

; external perimeters extrusion width = 0.42mm
; perimeters extrusion width = 0.45mm
; infill extrusion width = 0.45mm
; solid infill extrusion width = 0.42mm
; top infill extrusion width = 0.42mm
; first layer extrusion width = 0.43mm

; external perimeters extrusion width = 0.42mm
; perimeters extrusion width = 0.45mm
; infill extrusion width = 0.45mm
; solid infill extrusion width = 0.42mm
; top infill extrusion width = 0.42mm
; first layer extrusion width = 0.43mm

; EXECUTABLE_BLOCK_START
M73 P0 R33
;TYPE:Custom
G90 ; use absolute coordinates
M83 ; extruder relative mode
M104 S110
M140 S60 ; set bed temp

M104 S170 ; set extruder temp for bed leveling
M109 S170 ; wait for temp

M302 S160 ; lower cold extrusion limit to 160C

G1 E-2 F2400 ; retraction

M106 S100
M190 S60 ; wait for bed temp
M107
M557 X93.75:141.25 Y98.7677:136.232 S25
G29 S2
G29 S0
; prepare for purge
G0 X0 Y0 F2800
M104 S220
M109 S220
G92 E0
;
; Extrude purge line
;
G92 E0 ; reset extruder position
G1 E2 F2400 ; deretraction after the initial one before nozzle cleaning

G0 E7 X-5 Y-7 Z0.6 F500 ; purge
G0 X5 E4 F500 ; purge
G0 X15 E4 F650 ; purge
G0 X25 E4 F800 ; purge
G0 X38 Z0.3 F8000 ; wipe, move close to the bed
G0 X51 Z0.5 F8000 ; wipe, move quickly away from the bed
G92 E0
M221 S100 ; set flow to 100%
M593 P"mzv" F43.6
G90
G21
M83 ; use relative distances for extrusion
; filament start gcode
M572 D0 S0.08; Override pressure advance value
M106 S0
;LAYER_CHANGE
;Z:0.25
;HEIGHT:0.25
;BEFORE_LAYER_CHANGE
;0.25
G92 E0

G1 E-.8 F1800
;AFTER_LAYER_CHANGE
;0.25

;_SET_FAN_SPEED_CHANGING_LAYER
M204 P500
; printing object Puzzle_1.stl id:7306369611303772525 copy 0
M204 T500
G1 Z.4 F4500
G1 X131.846 Y127.257
G1 Z.4
G1 Z.25
G1 E.8 F1800
;TYPE:Outer wall
;WIDTH:0.429999
G1 F2100
G1 X132.143 Y127.817 E.02432
G1 X132.599 Y128.39 E.02804
G1 X133.04 Y129.114 E.03251
G1 X133.345 Y129.9 E.03232
G1 X133.508 Y130.727 E.03232
G1 X133.522 Y131.57 E.03232
G1 X133.389 Y132.403 E.03232
G1 X133.111 Y133.199 E.03232
G1 X132.698 Y133.934 E.03232
G1 X132.162 Y134.586 E.03233
G1 X131.521 Y135.133 E.03232
G1 X130.793 Y135.558 E.03232
G1 X130.002 Y135.85 E.03233
G1 X129.172 Y135.998 E.03232
G1 X128.328 Y135.998 E.03232
G1 X127.498 Y135.85 E.03232
G1 X126.704 Y135.557 E.03244
G1 X125.979 Y135.133 E.03221
G1 X125.338 Y134.586 E.03232
G1 X124.802 Y133.934 E.03232
G1 X124.388 Y133.196 E.03244
G1 X124.111 Y132.403 E.0322
G1 X123.978 Y131.57 E.03233
G1 X123.992 Y130.727 E.03232
G1 X124.155 Y129.9 E.03232
G1 X124.46 Y129.114 E.03233
G1 X124.901 Y128.39 E.03251
G1 X125.377 Y127.787 E.02941
G1 X125.675 Y127.205 E.02507
G1 X125.825 Y126.569 E.02506
G1 X125.819 Y125.915 E.02506
G1 X125.657 Y125.282 E.02506
G1 X125.348 Y124.706 E.02506
G1 X124.91 Y124.221 E.02506
G1 X124.369 Y123.854 E.02506
G1 X123.755 Y123.627 E.02506
G1 X123.129 Y123.553 E.02417
G1 X116.465 Y123.553 E.25547
G1 X116.465 Y98.983 E.94188
G1 X141.035 Y98.983 E.94188
G1 X141.035 Y123.553 E.94188
G1 X134.371 Y123.553 E.25547
G1 X133.701 Y123.638 E.0259
G1 X133.091 Y123.875 E.02506
G1 X132.556 Y124.251 E.02506
G1 X132.126 Y124.743 E.02506
G1 X131.827 Y125.324 E.02506
G1 X131.675 Y125.96 E.02506
G1 X131.68 Y126.614 E.02506
G1 X131.834 Y127.219 E.02391
G1 E-.64 F1800
;WIPE_START
G1 F2100
G1 X132.143 Y127.817 E-.1024
G1 X132.346 Y128.073 E-.0496
;WIPE_END
G1 E-.008 F1800
G1 Z.65 F4500
G1 X140.155 Y99.096 Z.65
G1 Z.25
G1 E.8 F1800
;TYPE:Bottom surface
;WIDTH:0.433095
G1 F3600
G1 X140.753 Y99.694 E.03269
G1 X140.753 Y100.23 E.02074
G1 X139.787 Y99.265 E.05276
G1 X139.251 Y99.265 E.02074
G1 X140.753 Y100.767 E.08209
G1 X140.753 Y101.303 E.02074
G1 X138.714 Y99.265 E.11142
G1 X138.178 Y99.265 E.02074
G1 X140.753 Y101.84 E.14075
G1 X140.753 Y102.377 E.02074
G1 X137.641 Y99.265 E.17008
G1 X137.104 Y99.265 E.02074
G1 X140.753 Y102.913 E.19942
G1 X140.753 Y103.45 E.02074
G1 X136.568 Y99.265 E.22875
G1 X136.031 Y99.265 E.02074
G1 X140.753 Y103.987 E.25808
G1 X140.753 Y104.523 E.02074
G1 X135.495 Y99.265 E.28741
G1 X134.958 Y99.265 E.02074
G1 X140.753 Y105.06 E.31674
G1 X140.753 Y105.596 E.02074
G1 X134.421 Y99.265 E.34607
G1 X133.885 Y99.265 E.02074
G1 X140.753 Y106.133 E.3754
G1 X140.753 Y106.67 E.02074
G1 X133.348 Y99.265 E.40473
G1 X132.811 Y99.265 E.02074
G1 X140.753 Y107.206 E.43406
G1 X140.753 Y107.743 E.02074
G1 X132.275 Y99.265 E.4634
G1 X131.738 Y99.265 E.02074
G1 X140.753 Y108.279 E.49273
G1 X140.753 Y108.816 E.02074
M73 P0 R32
G1 X131.202 Y99.265 E.52206
G1 X130.665 Y99.265 E.02074
G1 X140.753 Y109.353 E.55139
G1 X140.753 Y109.889 E.02074
G1 X130.128 Y99.265 E.58072
G1 X129.592 Y99.265 E.02074
G1 X140.753 Y110.426 E.61005
G1 X140.753 Y110.963 E.02074
G1 X129.055 Y99.265 E.63938
G1 X128.519 Y99.265 E.02074
G1 X140.753 Y111.499 E.66871
G1 X140.753 Y112.036 E.02074
G1 X127.982 Y99.265 E.69804
G1 X127.445 Y99.265 E.02074
G1 X140.753 Y112.572 E.72738
G1 X140.753 Y113.109 E.02074
G1 X126.909 Y99.265 E.75671
G1 X126.372 Y99.265 E.02074
G1 X140.753 Y113.646 E.78604
G1 X140.753 Y114.182 E.02074
G1 X125.835 Y99.265 E.81537
G1 X125.299 Y99.265 E.02074
G1 X140.753 Y114.719 E.8447
G1 X140.753 Y115.255 E.02074
G1 X124.762 Y99.265 E.87403
G1 X124.226 Y99.265 E.02074
G1 X140.753 Y115.792 E.90336
G1 X140.753 Y116.329 E.02074
G1 X123.689 Y99.265 E.93269
G1 X123.152 Y99.265 E.02074
G1 X140.753 Y116.865 E.96202
G1 X140.753 Y117.402 E.02074
M73 P1 R32
G1 X122.616 Y99.265 E.99135
G1 X122.079 Y99.265 E.02074
G1 X140.753 Y117.939 E1.02069
G1 X140.753 Y118.475 E.02074
G1 X121.543 Y99.265 E1.05002
G1 X121.006 Y99.265 E.02074
G1 X140.753 Y119.012 E1.07935
G1 X140.753 Y119.548 E.02074
G1 X120.469 Y99.265 E1.10868
G1 X119.933 Y99.265 E.02074
G1 X140.753 Y120.085 E1.13801
G1 X140.753 Y120.622 E.02074
G1 X119.396 Y99.265 E1.16734
G1 X118.859 Y99.265 E.02074
G1 X140.753 Y121.158 E1.19667
G1 X140.753 Y121.695 E.02074
G1 X118.323 Y99.265 E1.226
G1 X117.786 Y99.265 E.02074
G1 X140.753 Y122.231 E1.25533
G1 X140.753 Y122.768 E.02074
G1 X117.25 Y99.265 E1.28467
G1 X116.747 Y99.265 E.01942
G1 X116.747 Y99.299 E.00132
G1 X140.719 Y123.27 E1.31025
G1 X140.182 Y123.271 E.02073
G1 X116.747 Y99.836 E1.28093
G1 X116.747 Y100.372 E.02074
G1 X139.646 Y123.271 E1.25162
G1 X139.109 Y123.271 E.02073
G1 X116.747 Y100.909 E1.2223
G1 X116.747 Y101.446 E.02074
G1 X138.573 Y123.271 E1.19298
G1 X138.037 Y123.272 E.02073
G1 X116.747 Y101.982 E1.16366
G1 X116.747 Y102.519 E.02074
G1 X137.5 Y123.272 E1.13434
G1 X136.964 Y123.272 E.02073
G1 X116.747 Y103.055 E1.10502
G1 X116.747 Y103.592 E.02074
G1 X136.427 Y123.272 E1.0757
G1 X135.891 Y123.273 E.02073
G1 X116.747 Y104.129 E1.04639
G1 X116.747 Y104.665 E.02074
G1 X135.355 Y123.273 E1.01707
G1 X134.818 Y123.273 E.02073
G1 X116.747 Y105.202 E.98775
G1 X116.747 Y105.739 E.02074
G1 X134.286 Y123.277 E.95866
G1 X133.808 Y123.336 E.0186
G1 X116.747 Y106.275 E.93255
G1 X116.747 Y106.812 E.02074
G1 X133.392 Y123.456 E.90977
G1 X133.004 Y123.605 E.01605
G1 X116.747 Y107.348 E.88859
G1 X116.747 Y107.885 E.02074
G1 X132.682 Y123.82 E.87099
G1 X132.421 Y123.994 E.01211
G1 X132.373 Y124.047 E.00279
G1 X116.747 Y108.422 E.85408
G1 X116.747 Y108.958 E.02074
G1 X132.117 Y124.329 E.84013
G1 X131.908 Y124.559 E.01205
G1 X131.875 Y124.622 E.00275
G1 X116.747 Y109.495 E.82685
G1 X116.747 Y110.032 E.02074
G1 X131.689 Y124.974 E.81673
G1 X131.57 Y125.2 E.0099
G1 X131.532 Y125.353 E.00609
G1 X116.747 Y110.568 E.80813
G1 X116.747 Y111.105 E.02074
G1 X131.426 Y125.783 E.80231
G1 X131.396 Y125.902 E.00476
G1 X131.394 Y126.288 E.0149
M73 P2 R32
G1 X116.747 Y111.641 E.80057
G1 X116.747 Y112.178 E.02074
G1 X131.467 Y126.897 E.80455
G1 X131.567 Y127.328 E.01711
G1 X131.79 Y127.757 E.01865
G1 X116.747 Y112.715 E.8222
G1 X116.747 Y113.251 E.02074
G1 X132.817 Y129.321 E.87839
G1 X133.073 Y129.979 E.02726
G1 X133.106 Y130.146 E.00659
G1 X116.747 Y113.788 E.89414
G1 X116.747 Y114.324 E.02074
G1 X133.227 Y130.804 E.90075
G1 X133.236 Y131.35 E.02111
G1 X116.747 Y114.861 E.90127
G1 X116.747 Y115.398 E.02074
G1 X133.193 Y131.843 E.8989
G1 X133.119 Y132.306 E.0181
G1 X125.832 Y125.019 E.39826
G1 X125.566 Y124.527 E.02165
G1 X125.111 Y124.019 E.02638
G1 X124.56 Y123.636 E.02591
G1 X124.382 Y123.569 E.00737
G1 X116.747 Y115.934 E.41729
G1 X116.747 Y116.471 E.02074
G1 X123.601 Y123.325 E.37465
G1 X123.01 Y123.27 E.02295
G1 X116.747 Y117.008 E.34233
G1 X116.747 Y117.544 E.02074
G1 X122.474 Y123.27 E.31299
G1 X121.937 Y123.27 E.02074
G1 X116.747 Y118.081 E.28366
G1 X116.747 Y118.617 E.02074
G1 X121.4 Y123.27 E.25433
G1 X120.864 Y123.27 E.02074
G1 X116.747 Y119.154 E.225
G1 X116.747 Y119.691 E.02074
G1 X120.327 Y123.27 E.19567
G1 X119.79 Y123.27 E.02074
G1 X116.747 Y120.227 E.16634
G1 X116.747 Y120.764 E.02074
G1 X119.254 Y123.27 E.13701
G1 X118.717 Y123.27 E.02074
G1 X116.747 Y121.3 E.10768
G1 X116.747 Y121.837 E.02074
G1 X118.181 Y123.27 E.07835
G1 X117.644 Y123.27 E.02074
G1 X116.747 Y122.374 E.04902
G1 X116.747 Y122.91 E.02074
G1 X117.277 Y123.44 E.02894
G1 E-.64 F1800
;WIPE_START
G1 F3600
G1 X116.747 Y122.91 E-.11382
G1 X116.747 Y122.659 E-.03818
;WIPE_END
G1 E-.008 F1800
G1 Z.65 F4500
G1 X125.849 Y125.573 Z.65
G1 Z.25
G1 E.8 F1800
G1 F3600
G1 X132.984 Y132.707 E.38997
G1 X132.842 Y133.102 E.01621
G1 X126.096 Y126.357 E.3687
G1 X126.097 Y126.671 E.01215
G1 X126.051 Y126.848 E.00705
G1 X132.649 Y133.446 E.36066
G1 X132.454 Y133.787 E.0152
G1 X125.939 Y127.273 E.35607
G1 X125.914 Y127.369 E.00386
G1 X125.771 Y127.641 E.01187
G1 X132.212 Y134.082 E.35204
G1 X131.969 Y134.376 E.01473
G1 X125.581 Y127.987 E.34919
G1 X125.343 Y128.287 E.01476
G1 X131.681 Y134.625 E.34643
G1 X131.392 Y134.872 E.01471
G1 X125.11 Y128.59 E.34336
G1 X124.907 Y128.923 E.01509
G1 X131.059 Y135.076 E.33628
G1 X130.721 Y135.274 E.01516
G1 X124.706 Y129.26 E.32873
G1 X124.556 Y129.646 E.01603
G1 X130.336 Y135.426 E.31592
G1 X129.944 Y135.57 E.01615
G1 X124.415 Y130.041 E.30221
G1 X124.327 Y130.49 E.01767
G1 X129.491 Y135.654 E.28228
G1 X129.147 Y135.716 E.01353
G1 X129.016 Y135.716 E.00505
G1 X124.271 Y130.97 E.25939
G1 X124.261 Y131.498 E.02039
G1 X128.479 Y135.716 E.23056
G1 X128.353 Y135.716 E.00487
G1 X127.854 Y135.627 E.01962
G1 X124.353 Y132.125 E.19137
G1 X124.386 Y132.334 E.00815
G1 X124.579 Y132.889 E.02272
G1 X127.088 Y135.398 E.13713
G1 X126.825 Y135.301 E.01083
G1 X126.143 Y134.902 E.03054
G1 X125.548 Y134.394 E.03026
G1 X124.731 Y133.577 E.04466
; stop printing object Puzzle_1.stl id:7306369611303772525 copy 0
; printing object Puzzle_2.stl id:13441382585338656353 copy 0
G1 E-.64 F1800
;WIPE_START
G1 F3600
G1 X125.438 Y134.284 E-.152
;WIPE_END
G1 E-.008 F1800
G1 Z.65 F4500
G1 X98.494 Y110.556 Z.65
G1 Z.25
G1 E.8 F1800
;TYPE:Outer wall
;WIDTH:0.429999
G1 F2100
G1 X97.783 Y110.997 E.03209
G1 X97.224 Y111.442 E.02739
G1 X96.747 Y111.683 E.02048
G1 X96.229 Y111.796 E.0203
G1 X95.7 Y111.774 E.0203
G1 X95.193 Y111.619 E.0203
G1 X94.742 Y111.342 E.0203
G1 X94.376 Y110.96 E.0203
G1 X94.116 Y110.495 E.02038
G1 X94.037 Y110.189 E.01215
G1 X93.965 Y109.713 E.01844
G1 X93.965 Y103.057 E.25518
G1 X111.035 Y103.057 E.65437
G1 X111.035 Y127.627 E.94188
G1 X93.965 Y127.627 E.65437
G1 X93.965 Y120.976 E.25495
G1 X94.034 Y120.438 E.0208
G1 X94.233 Y119.945 E.02038
G1 X94.547 Y119.521 E.02023
G1 X94.959 Y119.188 E.0203
G1 X95.442 Y118.97 E.0203
G1 X95.964 Y118.882 E.0203
G1 X96.494 Y118.928 E.02038
G1 X96.996 Y119.106 E.02046
G1 X97.375 Y119.361 E.01748
G1 X97.801 Y119.699 E.02085
G1 X98.584 Y120.18 E.03523
G1 X99.437 Y120.521 E.03523
G1 X100.336 Y120.713 E.03523
G1 X101.254 Y120.751 E.03523
G1 X102.166 Y120.632 E.03523
G1 X103.044 Y120.361 E.03523
G1 X103.836 Y119.963 E.03401
G1 X104.601 Y119.398 E.03645
G1 X105.236 Y118.733 E.03523
G1 X105.748 Y117.97 E.03523
G1 X106.125 Y117.132 E.03523
G1 X106.354 Y116.242 E.03523
G1 X106.429 Y115.326 E.03523
G1 X106.348 Y114.41 E.03523
G1 X106.114 Y113.521 E.03523
G1 X105.733 Y112.685 E.03523
G1 X105.215 Y111.926 E.03523
G1 X104.577 Y111.264 E.03523
G1 X103.836 Y110.721 E.03523
G1 X103.014 Y110.31 E.03523
G1 X102.134 Y110.044 E.03523
G1 X101.222 Y109.931 E.03523
G1 X100.304 Y109.974 E.03523
G1 X99.437 Y110.162 E.03401
G1 X98.556 Y110.518 E.03645
G1 X98.528 Y110.535 E.00124
G1 E-.64 F1800
;WIPE_START
G1 F2100
G1 X97.783 Y110.997 E-.1333
G1 X97.686 Y111.074 E-.0187
;WIPE_END
G1 E-.008 F1800
G1 Z.65 F4500
G1 X110.156 Y103.169 Z.65
G1 Z.25
G1 E.8 F1800
;TYPE:Bottom surface
;WIDTH:0.432583
G1 F3600
G1 X110.753 Y103.766 E.03258
G1 X110.753 Y104.302 E.02068
G1 X109.789 Y103.339 E.05259
G1 X109.253 Y103.339 E.02068
G1 X110.753 Y104.838 E.08184
G1 X110.753 Y105.374 E.02068
G1 X108.718 Y103.339 E.11109
G1 X108.182 Y103.339 E.02068
G1 X110.753 Y105.91 E.14035
G1 X110.753 Y106.446 E.02068
G1 X107.646 Y103.339 E.1696
G1 X107.11 Y103.339 E.02068
G1 X110.753 Y106.982 E.19885
G1 X110.753 Y107.518 E.02068
G1 X106.574 Y103.339 E.2281
G1 X106.038 Y103.339 E.02068
G1 X110.753 Y108.054 E.25735
G1 X110.753 Y108.589 E.02068
G1 X105.502 Y103.339 E.28661
G1 X104.966 Y103.339 E.02068
G1 X110.753 Y109.125 E.31586
G1 X110.753 Y109.661 E.02068
G1 X104.43 Y103.339 E.34511
G1 X103.894 Y103.339 E.02068
G1 X110.753 Y110.197 E.37436
G1 X110.753 Y110.733 E.02068
G1 X103.359 Y103.339 E.40361
G1 X102.823 Y103.339 E.02068
G1 X110.753 Y111.269 E.43287
G1 X110.753 Y111.805 E.02068
M73 P3 R32
G1 X102.287 Y103.339 E.46212
G1 X101.751 Y103.339 E.02068
G1 X110.753 Y112.341 E.49137
G1 X110.753 Y112.877 E.02068
G1 X101.215 Y103.339 E.52062
G1 X100.679 Y103.339 E.02068
G1 X110.753 Y113.412 E.54987
G1 X110.753 Y113.948 E.02068
G1 X100.143 Y103.339 E.57913
G1 X99.607 Y103.339 E.02068
G1 X110.753 Y114.484 E.60838
G1 X110.753 Y115.02 E.02068
G1 X99.071 Y103.339 E.63763
G1 X98.536 Y103.339 E.02068
G1 X110.753 Y115.556 E.66688
G1 X110.753 Y116.092 E.02068
G1 X98 Y103.339 E.69613
G1 X97.464 Y103.339 E.02068
G1 X110.753 Y116.628 E.72539
G1 X110.753 Y117.164 E.02068
G1 X96.928 Y103.339 E.75464
G1 X96.392 Y103.339 E.02068
G1 X103.092 Y110.039 E.36571
G1 X102.327 Y109.81 E.0308
G1 X95.856 Y103.339 E.35323
G1 X95.32 Y103.339 E.02068
G1 X101.684 Y109.703 E.34737
G1 X101.282 Y109.652 E.01564
G1 X101.104 Y109.659 E.00686
G1 X94.784 Y103.339 E.34498
G1 X94.248 Y103.339 E.02068
G1 X100.59 Y109.68 E.34615
G1 X100.267 Y109.694 E.01246
G1 X100.103 Y109.729 E.00649
G1 X94.247 Y103.874 E.31963
G1 X94.247 Y104.409 E.02068
G1 X99.662 Y109.825 E.29559
G1 X99.37 Y109.888 E.01155
G1 X99.241 Y109.939 E.00535
G1 X94.247 Y104.945 E.27258
G1 X94.247 Y105.481 E.02068
G1 X98.857 Y110.091 E.25164
G1 X98.474 Y110.244 E.01593
G1 X94.247 Y106.017 E.2307
G1 X94.247 Y106.553 E.02068
G1 X98.141 Y110.446 E.21252
G1 X97.808 Y110.649 E.01505
G1 X94.247 Y107.089 E.19435
G1 X94.247 Y107.625 E.02068
G1 X97.492 Y110.87 E.17713
G1 X97.193 Y111.106 E.01473
G1 X94.247 Y108.161 E.1608
G1 X94.247 Y108.697 E.02068
G1 X96.86 Y111.31 E.14264
G1 X96.652 Y111.415 E.00903
G1 X96.47 Y111.455 E.00719
G1 X94.247 Y109.232 E.1213
G1 X94.252 Y109.773 E.02085
G1 X95.982 Y111.503 E.09444
G1 X95.748 Y111.493 E.00904
G1 X95.291 Y111.348 E.01852
G1 X94.161 Y110.218 E.06167
G1 E-.64 F1800
;WIPE_START
G1 F3600
G1 X94.868 Y110.925 E-.152
;WIPE_END
G1 E-.008 F1800
G1 Z.65 F4500
G1 X105.957 Y112.903 Z.65
G1 Z.25
G1 E.8 F1800
G1 F3600
G1 X110.753 Y117.7 E.2618
G1 X110.753 Y118.235 E.02068
G1 X106.534 Y114.017 E.23027
G1 X106.634 Y114.41 E.01565
G1 X106.656 Y114.675 E.01027
G1 X110.753 Y118.771 E.2236
G1 X110.753 Y119.307 E.02068
G1 X106.705 Y115.26 E.22093
G1 X106.676 Y115.766 E.01958
G1 X110.753 Y119.843 E.22253
G1 X110.753 Y120.379 E.02068
G1 X106.634 Y116.26 E.22483
G1 X106.53 Y116.692 E.01715
G1 X110.753 Y120.915 E.2305
G1 X110.753 Y121.451 E.02068
G1 X106.42 Y117.118 E.23652
G1 X106.396 Y117.21 E.00368
G1 X106.266 Y117.5 E.01227
G1 X110.753 Y121.987 E.24489
G1 X110.753 Y122.523 E.02068
G1 X106.101 Y117.871 E.2539
G1 X106.002 Y118.093 E.00938
G1 X105.916 Y118.222 E.00598
G1 X110.753 Y123.058 E.264
G1 X110.753 Y123.594 E.02068
G1 X105.702 Y118.543 E.27572
G1 X105.487 Y118.864 E.01491
