; HEADER_BLOCK_START
; generated by GalaxySlicer 1.0.0-alpha3 on 2023-08-11 at 17:15:28
; total layer number: 56
; HEADER_BLOCK_END

; THUMBNAIL_BLOCK_START
; THUMBNAIL_BLOCK_END

; external perimeters extrusion width = 0.70mm
; perimeters extrusion width = 0.45mm
; infill extrusion width = 0.45mm
; solid infill extrusion width = 0.45mm
; top infill extrusion width = 0.40mm
; first layer extrusion width = 0.50mm

; EXECUTABLE_BLOCK_START
M73 P0 R18
;TYPE:Custom
M83 ; use relative distances for extrusion
G90 ; use absolute coordinates
M140 S55 ; set final bed temp
M104 S180 ; set temporary nozzle temp to prevent oozing during homing
M557 X27.412:212.588 Y67.412:172.588 S25
G29 S2
G29 S0
M104 S220 ; set final nozzle temp
M190 S55 ; wait for bed temp to stabilize
M109 S220 ; wait for nozzle temp to stabilize
;M593 P"mzv" F59
;M572 D0 S0.06
G90
G1 Y10
M400
G1 Z0.6 F720
G92 E0
G1 X50  Y10 E9 F1000 ; intro line
G1 Y11
M400
G1 X100 Y11 E12.5 F1500 ; intro line
G92 E0
M566 X480.00 Y480.00 Z10.00 E1200.00 P1        ; set maximum instantaneous speed changes (mm/min) // same as M205 but with mm/min
M203 X10800.00 Y10800.00 Z1000.00 E3600.00     ; set maximum speeds (mm/min)
M201 X3000.00 Y3000.00 Z100.00 E3600.00        ; set accelerations (mm/s^2)
   
G90
G21
M83 ; use relative distances for extrusion
; filament start gcode
M572 D0 S0.036; Override pressure advance value
;LAYER_CHANGE
;Z:0.32
;HEIGHT:0.32
G1 Z.32 F15000
M204 P1000
M205 X9 Y9
; printing object SpeedTestStructure.step id:0 copy 0
G1 E-.8 F1500
G1 Z.72 F15000
G1 X39.125 Y70.449
G1 Z.32
G1 E.8 F1500
;TYPE:Brim
;WIDTH:0.5
G1 F3000
G1 X40.395 Y69.795 E.08036
G1 X41.756 Y69.202 E.08348
G1 X43.155 Y68.701 E.08355
G1 X44.157 Y68.405 E.05874
G1 X45.547 Y68.076 E.08036
G1 X47.011 Y67.829 E.08348
G1 X48.485 Y67.679 E.08334
G1 X49.534 Y67.633 E.05902
G1 X199.995 Y67.628 E8.46141
G1 X201.127 Y67.679 E.06369
G1 X201.589 Y67.731 E.02617
G1 X202.28 Y67.84 E.03933
G1 X202.737 Y67.935 E.02624
G1 X203.414 Y68.108 E.0393
G1 X203.86 Y68.246 E.02627
G1 X204.518 Y68.483 E.03933
G1 X204.949 Y68.661 E.02624
G1 X205.582 Y68.959 E.03933
G1 X205.994 Y69.177 E.02623
G1 X206.596 Y69.533 E.03929
G1 X206.986 Y69.789 E.02627
G1 X207.55 Y70.199 E.0392
G1 X208.212 Y70.747 E.04831
G1 X208.72 Y71.224 E.0392
G1 X209.045 Y71.559 E.02628
G1 X209.506 Y72.082 E.03918
G1 X209.8 Y72.448 E.02639
G1 X210.209 Y73.012 E.03917
G1 X210.466 Y73.402 E.02629
G1 X211.007 Y74.35 E.06136
G1 X211.211 Y74.767 E.02613
G1 X211.489 Y75.409 E.0393
G1 X211.654 Y75.846 E.02628
G1 X211.869 Y76.509 E.03923
G1 X212.083 Y77.341 E.04828
G1 X212.214 Y78.026 E.03923
G1 X212.279 Y78.488 E.02624
G1 X212.345 Y79.184 E.03932
G1 X212.367 Y79.647 E.02607
G1 X212.367 Y80.35 E.0395
G1 X212.345 Y80.811 E.02597
G1 X212.225 Y81.899 E.06154
G1 X212.145 Y82.357 E.02614
G1 X211.994 Y83.035 E.03909
G1 X211.754 Y83.862 E.04842
G1 X211.517 Y84.518 E.03925
G1 X211.339 Y84.949 E.02624
G1 X211.041 Y85.582 E.03932
G1 X210.823 Y85.994 E.02624
G1 X210.467 Y86.596 E.03933
G1 X210.211 Y86.986 E.02624
G1 X209.8 Y87.552 E.03932
G1 X209.508 Y87.916 E.02624
G1 X209.045 Y88.441 E.03933
G1 X208.721 Y88.776 E.02624
G1 X208.211 Y89.255 E.03933
G1 X207.857 Y89.556 E.02614
G1 X206.985 Y90.212 E.06136
G1 X206.596 Y90.467 E.02614
G1 X205.994 Y90.823 E.03933
G1 X205.582 Y91.041 E.02624
G1 X204.949 Y91.339 E.03933
G1 X204.518 Y91.517 E.02624
G1 X203.863 Y91.754 E.03918
G1 X203.414 Y91.892 E.02639
G1 X202.739 Y92.065 E.03918
G1 X202.28 Y92.16 E.02637
G1 X201.511 Y92.279 E.04378
G1 X200.737 Y92.35 E.04372
G1 X199.997 Y92.372 E.04164
G1 X60.02 Y92.372 E7.87176
M73 P1 R18
G1 X59.528 Y92.387 E.0277
G1 X59.053 Y92.432 E.02682
G1 X58.577 Y92.507 E.02707
G1 X57.882 Y92.673 E.04022
G1 X57.202 Y92.905 E.04041
G1 X56.546 Y93.2 E.04041
G1 X55.905 Y93.566 E.04155
G1 X55.317 Y93.98 E.04041
G1 X54.771 Y94.447 E.04041
G1 X54.272 Y94.964 E.04043
G1 X53.824 Y95.525 E.04039
G1 X53.43 Y96.126 E.04041
G1 X53.096 Y96.759 E.04022
G1 X52.911 Y97.186 E.02618
G1 X52.749 Y97.634 E.02682
G1 X52.559 Y98.326 E.04034
G1 X52.432 Y99.051 E.04139
G1 X52.387 Y99.528 E.02693
G1 X52.373 Y99.993 E.02618
G1 X52.406 Y100.708 E.04022
G1 X52.506 Y101.419 E.04041
G1 X52.673 Y102.118 E.04043
G1 X52.827 Y102.593 E.02807
G1 X53.103 Y103.257 E.04041
G1 X53.43 Y103.874 E.03927
G1 X53.824 Y104.475 E.04041
G1 X54.272 Y105.036 E.04041
G1 X54.771 Y105.553 E.04041
G1 X55.315 Y106.019 E.04028
G1 X55.905 Y106.434 E.04054
G1 X56.528 Y106.791 E.04041
G1 X57.181 Y107.087 E.04027
G1 X57.653 Y107.257 E.02823
G1 X58.346 Y107.446 E.04041
G1 X59.054 Y107.568 E.04041
G1 X59.75 Y107.623 E.03927
G1 X199.997 Y107.628 E7.88695
G1 X200.735 Y107.65 E.04156
G1 X201.203 Y107.687 E.02638
G1 X201.897 Y107.774 E.03933
G1 X202.355 Y107.854 E.02614
G1 X203.414 Y108.109 E.06127
G1 X204.227 Y108.373 E.04809
G1 X205.232 Y108.789 E.06117
G1 X205.994 Y109.177 E.04809
G1 X206.92 Y109.744 E.06102
G1 X207.614 Y110.248 E.04824
G1 X208.439 Y110.953 E.06102
G1 X209.045 Y111.559 E.04824
G1 X209.752 Y112.386 E.06117
G1 X210.254 Y113.078 E.04809
G1 X210.823 Y114.006 E.06117
G1 X211.211 Y114.768 E.04809
G1 X211.627 Y115.772 E.06116
G1 X211.892 Y116.587 E.04816
G1 X212.082 Y117.339 E.04362
G1 X212.269 Y118.411 E.06119
G1 X212.35 Y119.262 E.04808
G1 X212.367 Y120.35 E.06117
G1 X212.313 Y121.203 E.04809
G1 X212.16 Y122.28 E.06117
G1 X211.973 Y123.115 E.04809
G1 X211.654 Y124.154 E.06116
G1 X211.338 Y124.951 E.04817
G1 X211.006 Y125.651 E.04361
G1 X210.467 Y126.596 E.06119
G1 X209.986 Y127.303 E.04808
G1 X209.306 Y128.152 E.06117
G1 X208.721 Y128.776 E.04809
G1 X207.916 Y129.508 E.06117
G1 X207.24 Y130.032 E.04809
G1 X206.331 Y130.629 E.06117
G1 X205.581 Y131.042 E.04816
G1 X204.877 Y131.37 E.04371
G1 X204.229 Y131.627 E.03918
G1 X203.491 Y131.869 E.04369
G1 X202.737 Y132.066 E.04382
G1 X202.28 Y132.16 E.0262
G1 X201.511 Y132.279 E.0438
G1 X200.817 Y132.345 E.03917
G1 X200.037 Y132.372 E.0439
G1 X60.02 Y132.372 E7.87402
M73 P1 R17
G1 X59.528 Y132.387 E.0277
G1 X59.053 Y132.432 E.02682
G1 X58.577 Y132.507 E.02707
G1 X57.882 Y132.673 E.04022
G1 X57.202 Y132.905 E.04041
G1 X56.546 Y133.2 E.04041
G1 X55.922 Y133.555 E.04041
G1 X55.333 Y133.967 E.04041
G1 X54.786 Y134.433 E.04041
G1 X54.285 Y134.949 E.04043
G1 X53.824 Y135.525 E.04153
G1 X53.43 Y136.126 E.04041
G1 X53.096 Y136.759 E.04022
G1 X52.911 Y137.186 E.02618
G1 X52.749 Y137.634 E.02682
G1 X52.559 Y138.326 E.04034
G1 X52.434 Y139.034 E.04043
G1 X52.377 Y139.75 E.04039
G1 X52.387 Y140.469 E.04041
G1 X52.465 Y141.183 E.04043
G1 X52.609 Y141.885 E.04026
G1 X52.82 Y142.574 E.04053
G1 X53.094 Y143.238 E.04041
G1 X53.43 Y143.874 E.04041
G1 X53.824 Y144.475 E.04041
G1 X54.272 Y145.036 E.04041
G1 X54.602 Y145.389 E.02716
G1 X55.13 Y145.87 E.0402
G1 X55.705 Y146.303 E.04041
G1 X56.317 Y146.679 E.04041
G1 X56.959 Y146.995 E.04028
G1 X57.426 Y147.18 E.02822
G1 X58.113 Y147.39 E.04043
G1 X58.817 Y147.535 E.04041
G1 X59.528 Y147.613 E.04021
G1 X60.02 Y147.628 E.02769
G1 X199.997 Y147.628 E7.87177
M73 P2 R17
G1 X200.738 Y147.65 E.04171
G1 X201.203 Y147.687 E.02623
G1 X201.897 Y147.774 E.03933
G1 X202.355 Y147.854 E.02614
G1 X203.414 Y148.109 E.06127
G1 X204.229 Y148.373 E.04817
G1 X204.949 Y148.661 E.04361
G1 X205.926 Y149.14 E.06119
G1 X206.662 Y149.575 E.04808
G1 X207.552 Y150.2 E.06117
G1 X208.211 Y150.746 E.04809
G1 X208.992 Y151.503 E.06118
G1 X209.555 Y152.141 E.0479
G1 X210.211 Y153.014 E.06135
G1 X210.667 Y153.733 E.04791
G1 X211.178 Y154.697 E.06135
G1 X211.517 Y155.482 E.04808
G1 X211.87 Y156.511 E.06119
G1 X212.065 Y157.262 E.04362
G1 X212.226 Y158.103 E.04816
G1 X212.345 Y159.182 E.06102
G1 X212.372 Y160.039 E.04823
G1 X212.321 Y161.126 E.06118
G1 X212.213 Y161.974 E.04809
G1 X211.993 Y163.037 E.06104
G1 X211.779 Y163.785 E.04376
G1 X211.489 Y164.59 E.04815
G1 X211.042 Y165.58 E.06105
G1 X210.67 Y166.263 E.04376
G1 X210.211 Y166.986 E.04817
G1 X209.557 Y167.856 E.06117
G1 X208.992 Y168.497 E.04808
G1 X208.211 Y169.255 E.06118
G1 X207.552 Y169.8 E.04809
G1 X206.662 Y170.425 E.06115
G1 X205.995 Y170.822 E.04367
G1 X205.304 Y171.177 E.04371
G1 X204.591 Y171.488 E.04371
G1 X203.861 Y171.754 E.04371
G1 X203.115 Y171.973 E.0437
G1 X202.358 Y172.145 E.04371
G1 X201.59 Y172.269 E.04371
G1 X200.817 Y172.345 E.0437
G1 X200.037 Y172.372 E.04389
G1 X50.004 Y172.372 E8.43732
G1 X48.543 Y172.325 E.08215
G1 X47.503 Y172.232 E.05874
G1 X46.033 Y172.018 E.08355
G1 X44.581 Y171.706 E.08349
G1 X43.154 Y171.299 E.08349
G1 X41.809 Y170.819 E.08029
G1 X40.446 Y170.23 E.08349
G1 X39.125 Y169.551 E.08355
G1 X38.224 Y169.022 E.05874
G1 X36.988 Y168.199 E.08355
G1 X35.809 Y167.295 E.0835
G1 X34.693 Y166.316 E.08348
G1 X33.684 Y165.306 E.08031
G1 X32.704 Y164.19 E.08354
G1 X32.06 Y163.367 E.05873
G1 X31.215 Y162.15 E.08332
G1 X30.451 Y160.878 E.08349
G1 X29.794 Y159.604 E.08058
G1 X29.368 Y158.65 E.05875
G1 X28.858 Y157.316 E.08034
G1 X28.419 Y155.897 E.08349
G1 X28.075 Y154.452 E.08355
G1 X27.891 Y153.423 E.05877
G1 X27.717 Y151.995 E.08089
G1 X27.648 Y150.96 E.05837
G1 X27.628 Y149.998 E.05411
G1 X27.628 Y90.002 E3.37391
G1 X27.651 Y88.979 E.05759
G1 X27.72 Y87.974 E.05663
G1 X27.9 Y86.521 E.08232
G1 X28.167 Y85.118 E.0803
G1 X28.539 Y83.68 E.08353
G1 X28.858 Y82.685 E.05876
G1 X29.368 Y81.351 E.08034
G1 X29.987 Y80 E.08357
G1 X30.476 Y79.077 E.05872
G1 X31.242 Y77.809 E.08332
G1 X32.06 Y76.634 E.08052
G1 X32.986 Y75.473 E.08349
G1 X33.987 Y74.376 E.08352
G1 X34.734 Y73.646 E.05876
G1 X35.853 Y72.669 E.08355
G1 X36.988 Y71.801 E.0803
G1 X38.224 Y70.978 E.08354
G1 X39.073 Y70.479 E.05537
G1 X39.292 Y70.851 F15000
G1 F3000
G1 X39.336 Y70.825 E.0029
G1 X40.584 Y70.183 E.07893
G1 X41.911 Y69.605 E.08141
G1 X43.285 Y69.112 E.08209
G1 X44.264 Y68.823 E.05739
G1 X45.637 Y68.498 E.07934
G1 X47.064 Y68.257 E.0814
G1 X48.513 Y68.11 E.08189
G1 X49.546 Y68.064 E.05816
G1 X199.988 Y68.059 E8.46032
G1 X201.101 Y68.111 E.06263
G1 X202.205 Y68.265 E.06272
G1 X202.642 Y68.356 E.0251
G1 X203.3 Y68.524 E.03816
G1 X203.727 Y68.656 E.02512
G1 X204.36 Y68.884 E.03784
G1 X204.778 Y69.057 E.02543
G1 X205.392 Y69.346 E.03819
G1 X205.786 Y69.555 E.02509
G1 X206.365 Y69.897 E.03781
G1 X206.743 Y70.146 E.02547
G1 X207.282 Y70.538 E.03747
G1 X207.93 Y71.073 E.04724
G1 X208.415 Y71.529 E.03746
G1 X208.727 Y71.85 E.02514
G1 X209.174 Y72.357 E.03804
G1 X209.455 Y72.707 E.02524
G1 X209.852 Y73.254 E.03803
G1 X210.096 Y73.624 E.0249
G1 X210.627 Y74.556 E.06029
G1 X210.82 Y74.951 E.02474
G1 X211.09 Y75.574 E.03816
G1 X211.248 Y75.992 E.02513
G1 X211.454 Y76.626 E.03749
G1 X211.662 Y77.439 E.04721
G1 X211.787 Y78.094 E.0375
G1 X211.851 Y78.542 E.02544
G1 X211.915 Y79.221 E.03839
G1 X211.936 Y80.334 E.06258
G1 X211.915 Y80.773 E.02471
G1 X211.797 Y81.846 E.06068
G1 X211.577 Y82.921 E.06174
G1 X211.341 Y83.734 E.04762
G1 X210.943 Y84.778 E.06279
G1 X210.657 Y85.386 E.03784
G1 X210.448 Y85.781 E.02509
G1 X210.102 Y86.365 E.03819
G1 X209.854 Y86.744 E.02544
G1 X209.458 Y87.288 E.03783
G1 X209.18 Y87.636 E.0251
G1 X208.731 Y88.146 E.03818
G1 X208.42 Y88.466 E.0251
G1 X207.925 Y88.931 E.03819
G1 X207.591 Y89.217 E.02475
G1 X206.733 Y89.861 E.0603
G1 X206.365 Y90.102 E.02475
G1 X205.781 Y90.448 E.03819
G1 X205.386 Y90.656 E.02509
G1 X204.772 Y90.945 E.03819
G1 X204.36 Y91.116 E.02509
G1 X203.723 Y91.345 E.03804
G1 X203.294 Y91.477 E.02525
G1 X202.639 Y91.645 E.03803
G1 X202.2 Y91.736 E.0252
G1 X201.454 Y91.851 E.04245
M73 P3 R17
G1 X200.715 Y91.919 E.04177
G1 X199.988 Y91.941 E.04086
G1 X60.022 Y91.941 E7.87117
G1 X59.519 Y91.956 E.02834
G1 X59.017 Y92.002 E.02835
G1 X58.515 Y92.08 E.02854
G1 X57.787 Y92.252 E.04208
G1 X57.068 Y92.495 E.04268
G1 X56.375 Y92.804 E.04269
G1 X55.696 Y93.188 E.04387
G1 X55.074 Y93.624 E.04271
G1 X54.457 Y94.152 E.04564
G1 X53.931 Y94.699 E.04269
G1 X53.46 Y95.294 E.04267
G1 X53.046 Y95.93 E.04268
G1 X52.698 Y96.592 E.04205
G1 X52.504 Y97.043 E.02763
G1 X52.345 Y97.483 E.02631
G1 X52.133 Y98.258 E.04516
G1 X52.002 Y99.016 E.04327
G1 X51.958 Y99.484 E.02643
G1 X51.942 Y99.975 E.02764
G1 X51.975 Y100.722 E.04204
G1 X52.078 Y101.474 E.04269
G1 X52.252 Y102.214 E.04275
G1 X52.431 Y102.763 E.0325
G1 X52.725 Y103.463 E.0427
G1 X53.072 Y104.115 E.04152
G1 X53.49 Y104.749 E.04271
G1 X53.931 Y105.301 E.03975
G1 X54.457 Y105.849 E.0427
G1 X55.031 Y106.343 E.04256
G1 X55.651 Y106.784 E.04282
G1 X56.309 Y107.163 E.0427
G1 X56.998 Y107.478 E.04259
G1 X57.544 Y107.674 E.03266
G1 X58.278 Y107.872 E.04274
G1 X58.975 Y107.992 E.03975
G1 X59.712 Y108.053 E.04157
G1 X199.988 Y108.059 E7.88865
G1 X200.709 Y108.081 E.04055
G1 X201.156 Y108.116 E.02522
G1 X202.271 Y108.278 E.06337
G1 X203.292 Y108.523 E.05904
G1 X204.073 Y108.776 E.04618
G1 X205.047 Y109.179 E.05926
G1 X205.779 Y109.552 E.04618
G1 X206.675 Y110.1 E.05912
G1 X207.342 Y110.584 E.04633
G1 X208.142 Y111.267 E.05911
G1 X208.725 Y111.849 E.04633
G1 X209.409 Y112.65 E.05926
G1 X209.893 Y113.314 E.04619
G1 X210.443 Y114.212 E.05926
G1 X210.817 Y114.944 E.04618
G1 X211.22 Y115.917 E.05926
G1 X211.476 Y116.703 E.04645
G1 X211.661 Y117.434 E.04242
G1 X211.841 Y118.463 E.05876
G1 X211.919 Y119.291 E.04675
G1 X211.935 Y120.345 E.05926
G1 X211.883 Y121.164 E.04618
G1 X211.736 Y122.197 E.05869
G1 X211.555 Y123.009 E.04676
G1 X211.248 Y124.006 E.05868
G1 X210.944 Y124.775 E.04647
G1 X210.621 Y125.456 E.0424
G1 X210.103 Y126.363 E.05877
G1 X209.642 Y127.043 E.04618
G1 X208.983 Y127.866 E.05927
G1 X208.421 Y128.464 E.04618
G1 X207.642 Y129.174 E.05926
G1 X206.994 Y129.678 E.04618
G1 X206.113 Y130.256 E.05926
G1 X205.382 Y130.659 E.04693
G1 X204.709 Y130.972 E.04173
G1 X204.078 Y131.222 E.03817
G1 X203.365 Y131.456 E.04221
G1 X202.642 Y131.645 E.04204
G1 X202.2 Y131.736 E.02534
G1 X201.453 Y131.852 E.0425
G1 X200.785 Y131.914 E.03773
G1 X200.027 Y131.941 E.04267
G1 X60.022 Y131.941 E7.87336
G1 X59.484 Y131.958 E.0303
G1 X58.982 Y132.006 E.02835
G1 X58.515 Y132.08 E.02657
G1 X57.787 Y132.252 E.04209
G1 X57.068 Y132.495 E.04268
G1 X56.375 Y132.804 E.04269
G1 X55.713 Y133.177 E.04269
G1 X55.09 Y133.611 E.04269
G1 X54.511 Y134.101 E.04269
G1 X53.98 Y134.644 E.0427
G1 X53.491 Y135.251 E.04383
G1 X53.046 Y135.93 E.04567
G1 X52.698 Y136.592 E.04204
G1 X52.504 Y137.043 E.02763
G1 X52.345 Y137.483 E.02632
G1 X52.144 Y138.206 E.0422
G1 X52.01 Y138.954 E.04271
G1 X51.947 Y139.71 E.04267
G1 X51.956 Y140.469 E.04269
G1 X52.036 Y141.225 E.04271
G1 X52.186 Y141.966 E.04254
G1 X52.406 Y142.695 E.04281
G1 X52.694 Y143.397 E.0427
G1 X53.046 Y144.07 E.0427
G1 X53.46 Y144.706 E.04269
G1 X53.932 Y145.302 E.04275
G1 X54.284 Y145.68 E.02905
G1 X54.836 Y146.185 E.04206
G1 X55.441 Y146.644 E.04268
G1 X56.086 Y147.043 E.04269
G1 X56.765 Y147.38 E.0426
G1 X57.304 Y147.594 E.03265
G1 X58.032 Y147.814 E.04275
G1 X58.776 Y147.964 E.04268
G1 X59.52 Y148.044 E.04207
G1 X60.022 Y148.059 E.02826
G1 X199.988 Y148.059 E7.87119
M73 P4 R17
G1 X200.712 Y148.081 E.04069
G1 X201.156 Y148.116 E.02508
G1 X202.271 Y148.278 E.06338
G1 X203.292 Y148.523 E.05904
G1 X204.078 Y148.778 E.04646
G1 X204.778 Y149.058 E.04241
G1 X205.725 Y149.522 E.05934
G1 X206.432 Y149.941 E.04618
G1 X207.294 Y150.547 E.05926
G1 X207.926 Y151.071 E.04618
G1 X208.676 Y151.797 E.0587
G1 X209.224 Y152.418 E.04656
G1 X209.858 Y153.263 E.05945
G1 X210.296 Y153.954 E.046
G1 X210.786 Y154.879 E.05887
G1 X211.116 Y155.642 E.04674
G1 X211.455 Y156.631 E.05877
G1 X211.645 Y157.361 E.04242
G1 X211.798 Y158.162 E.04588
G1 X211.914 Y159.207 E.05912
G1 X211.94 Y160.03 E.04633
G1 X211.891 Y161.083 E.05927
G1 X211.788 Y161.898 E.04618
G1 X211.575 Y162.929 E.05919
G1 X211.367 Y163.656 E.04256
G1 X211.087 Y164.433 E.04644
G1 X210.658 Y165.383 E.05863
G1 X210.295 Y166.048 E.04256
G1 X209.852 Y166.745 E.04646
G1 X209.226 Y167.579 E.05869
G1 X208.676 Y168.203 E.04675
G1 X207.926 Y168.929 E.0587
G1 X207.294 Y169.453 E.04618
G1 X206.432 Y170.06 E.0593
G1 X205.782 Y170.447 E.0425
G1 X205.115 Y170.789 E.04218
G1 X204.427 Y171.089 E.04219
G1 X203.722 Y171.345 E.04218
G1 X203.003 Y171.557 E.04218
G1 X202.271 Y171.722 E.04218
G1 X201.531 Y171.842 E.04218
G1 X200.784 Y171.914 E.04217
G1 X200.027 Y171.941 E.04261
G1 X50.013 Y171.941 E8.43626
G1 X48.573 Y171.894 E.081
G1 X47.55 Y171.803 E.05778
